/* XPM */
static char * configuration_focus_xpm[] = {
"473 100 159 2",
"  	c #FF00FF",
". 	c #8080DD",
"+ 	c #8080DD",
"@ 	c #8080DD",
"# 	c #8080DD",
"$ 	c #8080DD",
"% 	c #8080DD",
"& 	c #8080DD",
"* 	c #8080DD",
"= 	c #8080DD",
"- 	c #8080DD",
"; 	c #8080DD",
"> 	c #8080DD",
", 	c #8080DD",
"' 	c #8080DD",
") 	c #8080DD",
"! 	c #8080DD",
"~ 	c #8080DD",
"{ 	c #8080DD",
"] 	c #8080DD",
"^ 	c #8080DD",
"/ 	c #8080DD",
"( 	c #8080DD",
"_ 	c #8080DD",
": 	c #8080DD",
"< 	c #8080DD",
"[ 	c #8080DD",
"} 	c #8080DD",
"| 	c #8080DD",
"1 	c #8080DD",
"2 	c #8080DD",
"3 	c #8080DD",
"4 	c #8080DD",
"5 	c #8080DD",
"6 	c #8080DD",
"7 	c #8080DD",
"8 	c #8080DD",
"9 	c #8080DD",
"0 	c #8080DD",
"a 	c #8080DD",
"b 	c #8080DD",
"c 	c #8080DD",
"d 	c #8080DD",
"e 	c #8080DD",
"f 	c #8080DD",
"g 	c #8080DD",
"h 	c #8080DD",
"i 	c #8080DD",
"j 	c #8080DD",
"k 	c #8080DD",
"l 	c #8080DD",
"m 	c #8080DD",
"n 	c #8080DD",
"o 	c #8080DD",
"p 	c #8080DD",
"q 	c #8080DD",
"r 	c #8080DD",
"s 	c #8080DD",
"t 	c #8080DD",
"u 	c #8080DD",
"v 	c #8080DD",
"w 	c #8080DD",
"x 	c #8080DD",
"y 	c #8080DD",
"z 	c #8080DD",
"A 	c #8080DD",
"B 	c #8080DD",
"C 	c #8080DD",
"D 	c #8080DD",
"E 	c #8080DD",
"F 	c #8080DD",
"G 	c #8080DD",
"H 	c #8080DD",
"I 	c #8080DD",
"J 	c #8080DD",
"K 	c #8080DD",
"L 	c #8080DD",
"M 	c #8080DD",
"N 	c #8080DD",
"O 	c #8080DD",
"P 	c #8080DD",
"Q 	c #8080DD",
"R 	c #8080DD",
"S 	c #8080DD",
"T 	c #8080DD",
"U 	c #8080DD",
"V 	c #8080DD",
"W 	c #8080DD",
"X 	c #8080DD",
"Y 	c #8080DD",
"Z 	c #8080DD",
"` 	c #8080DD",
" .	c #8080DD",
"..	c #8080DD",
"+.	c #8080DD",
"@.	c #8080DD",
"#.	c #8080DD",
"$.	c #8080DD",
"%.	c #8080DD",
"&.	c #8080DD",
"*.	c #8080DD",
"=.	c #8080DD",
"-.	c #8080DD",
";.	c #8080DD",
">.	c #8080DD",
",.	c #8080DD",
"'.	c #8080DD",
").	c #8080DD",
"!.	c #8080DD",
"~.	c #8080DD",
"{.	c #8080DD",
"].	c #8080DD",
"^.	c #8080DD",
"/.	c #8080DD",
"(.	c #8080DD",
"_.	c #8080DD",
":.	c #8080DD",
"<.	c #8080DD",
"[.	c #8080DD",
"}.	c #8080DD",
"|.	c #8080DD",
"1.	c #8080DD",
"2.	c #8080DD",
"3.	c #8080DD",
"4.	c #8080DD",
"5.	c #8080DD",
"6.	c #8080DD",
"7.	c #8080DD",
"8.	c #8080DD",
"9.	c #8080DD",
"0.	c #8080DD",
"a.	c #8080DD",
"b.	c #8080DD",
"c.	c #8080DD",
"d.	c #8080DD",
"e.	c #8080DD",
"f.	c #8080DD",
"g.	c #8080DD",
"h.	c #8080DD",
"i.	c #8080DD",
"j.	c #8080DD",
"k.	c #8080DD",
"l.	c #8080DD",
"m.	c #8080DD",
"n.	c #8080DD",
"o.	c #8080DD",
"p.	c #8080DD",
"q.	c #8080DD",
"r.	c #8080DD",
"s.	c #8080DD",
"t.	c #8080DD",
"u.	c #8080DD",
"v.	c #8080DD",
"w.	c #8080DD",
"x.	c #8080DD",
"y.	c #8080DD",
"z.	c #8080DD",
"A.	c #8080DD",
"B.	c #8080DD",
"                                                                                                                                                                                                                                                                                                                                                                                                                                                                                                                                                                                                                                                                                                                                                                                                                                                                                                                                                                                  ",
"                                                                                                                                                                                                                                                                                                                                                                                                                                                                                                                                                                                                                                                                                                                                                                                                                                                                                                                                                                                  ",
"                                                                                                                                                                                                                                                                                                                                                                                                                                                                                                                                                                                                                                                                                                                                                                                                                                                                                                                                                                                  ",
"                                                                                                                                                                                                                                                                                                                                                                                                                                                                                                                                                                                                                                                                                                                                                                                                                                                                                                                                                                                  ",
"                                                                                                                                                                                                                                                                                                                                                                                                                                                                                                                                                                                                                                                                                                                                                                                                                                                                                                                                                                                  ",
"                                                                                                                                                                                                                                                                                                                                                                                                                                                                                                                                                                                                                                                                                                                                                                                                                                                                                                                                                                                  ",
"                                                                                                                                                                                                                                                                                                                                                                                                                                                                                                                                                                                                                                                                                                                                                                                                                                                                                                                                                                                  ",
"                                                                                                                                                                                                                                                                                                                                                                                                                                                                                                                                                                                                                                                                                                                                                                                                                                                                                                                                                                                  ",
"                                                                                                                                                                                                                                                                                                                                                                                                                                                                                                                                                                                                                                                                                                                                                                                                                                                                                                                                                                                  ",
"                                                                                                                                                                                                                                                                                                                                                                                                                                                                                                                                                                                                                                                                                                                                                                                                                                                                                                                                                                                  ",
"                                                                                                                                                                                                                                                                                                                                                                                                                                                                                                                                                                                                                                                                                                                                                                                                                                                                                                                                                                                  ",
"                                                                                                                                                                                                                                                                                                                                                                                                                                                                                                                                                                                                                                                                                                                                                                                                                                                                                                                                                                                  ",
"                                                                                                                                                                                                                                                                                                                                                                                                                                                                                                                                                                                                                                                                                                                                                                                                                                                                                                                                                                                  ",
"                                                                                                                                                                                                                                                                                                                                                                                                                                                                                                                                                                                                                                                                                                                                                                                                                                                                                                                                                                                  ",
"                                                                                                                                                                                                                                                                                                                                                                                                                                                                                                                                                                                                                                                                                                                                                                                                                                                                                                                                                                                  ",
"                                                                                                                                                                                                                                                                                                                                                                                                                                                                                                                                                                                                                                                                                                                                                                                                                                                                                                                                                                                  ",
"                                                                                                                                                                                                                                                                                                                                                                                                                                                                                                                                                                                                                                                                                                                                                                                                                                                                                                                                                                                  ",
"                                                                                                                                                                                                                                                                                                                                                                                                                                                                                                                                                                                                                                                                                                                                                                                                                                                                                                                                                                                  ",
"                                                                                                                                                                                                                                                                                                                                                                                                                                                                                                                                                                                                                                                                                                                                                                                                                                                                                                                                                                                  ",
"                                                                                                                                                                                                                                                                                                                      . + @ # @ $ % &                                                                                                                                                                                                                                                                                                                                                                                                                                                                                                                                                                                                                                             ",
"                                                                                                                                                                                                                                                                                                                * = = = = = = = = = = = -                                                                                                                                                                                                                                                                                                                                                                                                                                                                                                                                                                                                                                         ",
"                                                                                                                                                                                                                                                                                                            ; = = = = = = = = = = = = = >         , ' # )                                                                                                                                                                                                                                                                                                                                                                                         ! ~ { &                                                                                                                                                                                                                         ",
"                                                                      ] ^ / ( _ : _ < [ } | 1                                                                                                                                                                                                             2 = = = = = = = = = = = = = = 3       2 = = = = ~                                                                                                                                                                                                                                                                                                                                                                                     _ = = = = 4                                                                                                                                                                                                                       ",
"                                                              5 6 = = = = = = = = = = = = = = = = ' 7                                                                                                                                                                                                     = = = = = = = = = = = = = = =         = = = = = = 1                                                                                                                                                                                                                                                                                                                                                                                 8 = = = = = =                                                                                                                                                                                                                       ",
"                                                          9 = = = = = = = = = = = = = = = = = = = = = = { 0                                                                                                                                                                                             a = = = = = = 4           0 ) b         = = = = = = c                                                                                                                                                                                                                                                                                                                                                                                 c = = = = = =                                                                                                                                                                                                                       ",
"                                                      d = = = = = = = = = = = = = = = = = = = = = = = = = e                                                                                                                                                                                           f = = = = = =                             = = = = = = g                                                                                                                                                                                                                                                                                                                                                                                 c = = = = = =                                                                                                                                                                                                                       ",
"                                                    < = = = = = = = = = = = = h i = = = = = = = = = = = j                                                                                                                                                                                             $ = = = = = k                             = = = = = = f                                                                                                                                                                                                                                                                                                                                     l = = =                                     1 = = = = = m                                                                                                                                                                                                                       ",
"                                                  h = = = = = = = = {                     ) _ = = = = =                                                                                                                                                                                               = = = = = =                               g = = = = n                                                                                                                                                                                                                                                                                                                                       o = = =                                       # = = = = p                                                                                                                                                                                                                       ",
"                                                = = = = = = = = q   r                         s t = = m u                                                                                                                                                                                             = = = = = v                                 8 ' # w                                                                                                                                                                                                                                                                                                                                         j = = =                                         ) ~ { e                                                                                                                                                                                                                         ",
"                                              = = = = = = = @ x                                   y ) )                                                                                                                                                                                             z = = = = = A                                                                                                                                                                                                                                                                                                                                                                               B = = = =                                                                                                                                                                                                                                                                         ",
"                                          u _ = = = = = = C D                                                                                                                                                                                                                                       8 = = = = = e                                                                                                                                                                                                                                                                                                                                                                                 = = = =                                                                                                                                                                                                                                                                         ",
"                                          + = = = = = = E                                                                                                                                                                                                                                           ; = = = = = 0                                                                                                                                                                                                                                                                                                                                                                               F = = = =                                                                                                                                                                                                                                                                         ",
"                                        G = = = = = = H I                                                                                                                                                                                                                                           3 = = = = =                                                                                                                                                                                                                                                                                                                                                                               J = = = = =                                                                                                                                                                                                                                                                         ",
"                                      K L = = = = = i                                                                                                                                                                                                                                               M = = = = = N                                                                                                                                                                                                                                                                                                                                                                             O = = = = =                                                                                                                                                                                                                                                                         ",
"                                      l = = = = = = 8                                                                                           P     Q R Q                                                                                   Q S T U V W                                         r | = = = = = N                                                                                     X Y l R Z N ` I                                                                                                                                                                  .        0 ..V                                     T S l   +.  r                                       v = = = = =                                                                                               P     Q R Q                                                                                   Q S T U V W                                                                 ",
"                                      @.= = = = = L                                                                                         #.' = = = = = = = = = @                                           = = = = 2           K   E $.= = = = = = = m %.,                                 &.*.b = = = = = = = = = = = = = = =               v = = = = = =.                                  ` -.# = = = = = = = : E ;.            >.= = = = ,.                    '.= = = = = T                                     ^ = = = = = ).                      = = = = !.            ~.{.].= = = = = = j r                         ^./.= = = = = = = = = _ . +.(.                          _.9 = = = = = = = = = = = = = = = = = C                 = = = = = :.                                        #.' = = = = = = = = = @                                           = = = = 2           K   E $.= = = = = = = m %.,                                                             ",
"                                    ` = = = = = = R                                                                                   <.:.= = = = = = = = = = = = = = = E ).                                  = = = = '       (.Z ~ = = = = = = = = = = = = = :    .                      e %.= = = = = = = = = = = = = = = = = =               v = = = = = =.                                9 = = = = = = = = = = = = = (         r - = = = = ,.                    '.= = = = = T                                     ^ = = = = = ).                      = = = = [.          ] h = = = = = = = = /                 }.;.:.m = = = = = = = = = = = = = = = { V                     |.1.= = = = = = = = = = = = = = = = = = = C                 = = = = = :.                                  <.:.= = = = = = = = = = = = = = = E ).                                  = = = = '       (.Z ~ = = = = = = = = = = = = = :    .                                                      ",
"                                    ] = = = = = h 2.                                                                                3 m = = = = = = = = = = = = = = = = = m M  .                              = = = = m  .  P t = = = = = = = = = = = = = = = = = %.3.                  $.= = = = = = = = = = = = = = = = = = = =               v = = = = = =.                            4._ = = = = = = = = = = = = = = = = -.    5.= = = = = ,.                    '.= = = = = T                                     ^ = = = = = ).                      = = = = n       W 1.= = = = = = = = = = w               ;.6.= = = = = = = = = = = = = = = = = = = m f                   < = = = = = = = = = = = = = = = = = = = = C                 = = = = = :.                                3 m = = = = = = = = = = = = = = = = = m M  .                              = = = = m  .  P t = = = = = = = = = = = = = = = = = %.3.                                                    ",
"                                    v = = = = = 1.                                                                              7.C = = = = = = = = = = = = = = = = = = = = = 8.                              = = = = = y   @.= = = = = = = = = = = = = = = = = = = %.I                 : = = = = = = = = = = = = = = = = = = = =               v = = = = = =.                          U h = = = = = = = = = = = = = = = = = = o     = = = = = ,.                    '.= = = = = T                                     ^ = = = = = ).                      = = = = =     I 8.= = = = = = = = = = = ;               9.= = = = = = = = = = = = = = = = = = = = = = ..                < = = = = = = = = = = = = = = = = = = = = C                 = = = = = :.                            7.C = = = = = = = = = = = = = = = = = = = = = 8.                              = = = = = y   @.= = = = = = = = = = = = = = = = = = = %.I                                                   ",
"                                    = = = = = =                                                                                 0.= = = = = = = = 0.A a.  *.'.} m = = = = = = = %.b.                          = = = = =   ^ = = = = = _ !   c.  , -.6 = = = = = = = = 4                 # - - - - - $.= = = = = i - - - - - - - - ]             v = = = = = =.                        ` ].= = = = = = = d.d ; e., 7 E ].= = = = = -.f.= = = = = ,.                    '.= = = = = T                                     ^ = = = = = ).                      = = = = =     ^ = = = = = @ 4 8   ] t h O                 : = = = = = = ' g   &   , g.@ = = = = = = = j D               ' - - - - h = = = = = j - - - - - - - - - h.                = = = = = :.                            0.= = = = = = = = 0.A a.  *.'.} m = = = = = = = %.b.                          = = = = =   ^ = = = = = _ !   c.  , -.6 = = = = = = = = 4                                                   ",
"                                  B = = = = = =                                                                               ^.= = = = = = j e                 P Q d.= = = = = = 9                           = = = = = j = = = = i.                    E = = = = = = h                             M = = = = = N                               v = = = = = =.                        [ = = = = = = /.U               ,.U [ = = = = j = = = = = ,.                    '.= = = = = T                                     ^ = = = = = ).                      = = = = = <.j.= = = = C                 2.                % = = j 2   P                 k.F = = = = = = *.                        i.= = = = =                                       = = = = = :.                          ^.= = = = = = j e                 P Q d.= = = = = = 9                           = = = = = j = = = = i.                    E = = = = = = h                                                   ",
"                                  l = = = = = m ,.                                                                            = = = = = = >.                        P q = = = = = = Z                         = = = = = = = = : s                           = = = = = = 3                           M = = = = = N                               v = = = = = =.                      a.= = = = = = i.                        ; = = = = = = = = = ,.                    '.= = = = = T                                     ^ = = = = = ).                      = = = = = #.: = = l.f.r                                     0.G K                          .} = = = = = n r                       i.= = = = =                                       = = = = = :.                          = = = = = = >.                        P q = = = = = = Z                         = = = = = = = = : s                           = = = = = = 3                                                 ",
"                                  M = = = = = {                                                                           I m.= = = = = %.                             .t = = = = = -                         = = = = = = = = s                           (.C = = = = = '                           M = = = = = N                               v = = = = = =.                      : = = = = = [.I                           j.= = = = = = = = ,.                    '.= = = = = T                                     ^ = = = = = ).                      = = = = = = = = i                                                                             : = = = = = n.                      i.= = = = =                                       = = = = = :.                      I m.= = = = = %.                             .t = = = = = -                         = = = = = = = = s                           (.C = = = = = '                                                 ",
"                                  ) = = = = = *                                                                           f = = = = = h                                 P _ = = = = =                         = = = = = = = 2                               V = = = = = = D                         M = = = = = N                               v = = = = = =.                    8 = = = = = :                                 :.= = = = = = = ,.                    '.= = = = = T                                     ^ = = = = = ).                      = = = = = = = = s                                                                             2 = = = = = N                       i.= = = = =                                       = = = = = :.                      f = = = = = h                                 P _ = = = = =                         = = = = = = = 2                               V = = = = = = D                                               ",
"                                  E = = = = = %                                                                           { = = = = = 7                                   Z = = = = = _ K                     = = = = = = = n.                                b = = = = = B                         M = = = = = N                               v = = = = = =.                    @ = = = = = M                                 ` = = = = = = = ,.                    '.= = = = = T                                     ^ = = = = = ).                      = = = = = = = d                                                                               Q = = = = = e                       i.= = = = =                                       = = = = = :.                      { = = = = = 7                                   Z = = = = = _ K                     = = = = = = = n.                                b = = = = = B                                               ",
"                                  o.= = = = = |                                                                         _.= = = = = = u                                    .- = = = = = ..                    = = = = = = }                                   g = = = = = s                         M = = = = = N                               v = = = = = =.                    = = = = = =                                     @.= = = = = = ,.                    '.= = = = = T                                     ^ = = = = = ).                      = = = = = = :                                                                                 k.= = = = = p.                      i.= = = = =                                       = = = = = :.                    _.= = = = = = u                                    .- = = = = = ..                    = = = = = = }                                   g = = = = = s                                               ",
"                                  %.= = = = = k                                                                         j.= = = = = +                                       {.= = = = = 4                     = = = = = = q.                                  & = = = = = f.                        M = = = = = N                               v = = = = = =.                  e = = = = = 0.                                    9.= = = = = = ,.                    '.= = = = = T                                     ^ = = = = = ).                      = = = = = = g                                                                                   = = = = = p                       i.= = = = =                                       = = = = = :.                    j.= = = = = +                                       {.= = = = = 4                     = = = = = = q.                                  & = = = = = f.                                              ",
"                                  $ = = = = = '.                                                                        1.= = = = = 8                                         = = = = = L                     = = = = = =                                       = = = = = e                         M = = = = = N                               v = = = = = =.                  ) = = = = = 8                                     r.= = = = = = ,.                    '.= = = = = T                                     ^ = = = = = ).                      = = = = = =                                                                                     = = = = = -.                      i.= = = = =                                       = = = = = :.                    1.= = = = = 8                                         = = = = = L                     = = = = = =                                       = = = = = e                                               ",
"                                  } = = = = = 4                                                                         m.= = = = =                                         3.= = = = = =                     = = = = = = 7.                                  G = = = = = 8                         M = = = = = N                               v = = = = = =.                  /.= = = = =                                         = = = = = = ,.                    '.= = = = = T                                     ^ = = = = = ).                      = = = = = =                                                                                     = = = = = -.                      i.= = = = =                                       = = = = = :.                    m.= = = = =                                         3.= = = = = =                     = = = = = = 7.                                  G = = = = = 8                                               ",
"                                  h.= = = = = !.                                                                      I = = = = = =                                           - = = = = = _.                  = = = = = L                                     G = = = = = 8                         M = = = = = N                               v = = = = = =.                ,.= = = = = = u                                       $.= = = = = ,.                    '.= = = = = T                                     ^ = = = = = ).                      = = = = = L                                                         s ] 2 0.b _ l.m = = = = = = = = = = = -.                      i.= = = = =                                       = = = = = :.                  I = = = = = =                                           - = = = = = _.                  = = = = = L                                     G = = = = = 8                                               ",
"                                  d = = = = = 0.                                                                      u = = = = = = ,.                                        F = = = = =                     = = = = = F                                     G = = = = = 8                         M = = = = = N                               v = = = = = =.                s.= = = = = = ,.                                      /.= = = = = ,.                    '.= = = = = T                                     ^ = = = = = ).                      = = = = = [.                                                =.5 b = = = = = = = = = = = = = = = = = = = = -.                      i.= = = = =                                       = = = = = :.                  u = = = = = = ,.                                        F = = = = =                     = = = = = F                                     G = = = = = 8                                               ",
"                                  5 = = = = = ~                                                                         = = = = = h r                                         t.= = = = =                     = = = = = 0.                                    G = = = = = 8                         M = = = = = N                               v = = = = = =.                u.= = = = = m r                                       F = = = = = ,.                    '.= = = = = T                                     ^ = = = = = ).                      = = = = = *                                               4 m = = = = = = = = = = = = = = = = = = = = = = -.                      i.= = = = =                                       = = = = = :.                    = = = = = h r                                         t.= = = = =                     = = = = = 0.                                    G = = = = = 8                                               ",
"                                  G = = = = = =                                                                       ).= = = = = d.                                          q = = = = =                     = = = = = t                                     G = = = = = 8                         M = = = = = N                               v = = = = = =.                  = = = = = _                                         $ = = = = = ,.                    '.= = = = = T                                     ^ = = = = = ).                      = = = = = :.                                            ~ = = = = = = = = = = = = = = = = = = = = = = = = -.                      i.= = = = =                                       = = = = = :.                  ).= = = = = d.                                          q = = = = =                     = = = = = t                                     G = = = = = 8                                               ",
"                                    = = = = = = k.                                                                    ` = = = = = _                                           i.= = = = =                     = = = = = :.                                    G = = = = = 8                         M = = = = = N                               v = = = = = =.                _.= = = = = d.                                        0.= = = = = ,.                    '.= = = = = T                                     q = = = = = ).                      = = = = = :.                                        4.$.= = = = = = m t 8   y s.,.(.            = = = = = -.                      i.= = = = =                                       = = = = = :.                  ` = = = = = _                                           i.= = = = =                     = = = = = :.                                    G = = = = = 8                                               ",
"                                  W h = = = = = a.                                                                    ~.= = = = = m                                           0.= = = = = G                   = = = = = :.                                    G = = = = = 8                         M = = = = = N                               v = = = = = =.                  = = = = = h                                         [.= = = = = ,.                    '.= = = = = T                                     C = = = = = ).                      = = = = = :.                                        - = = = = = m                               = = = = = -.                      i.= = = = =                                       = = = = = :.                  ~.= = = = = m                                           0.= = = = = G                   = = = = = :.                                    G = = = = = 8                                               ",
"                                    0.= = = = = v.                                                                    3.= = = = = = K                                         ' = = = = =                     = = = = = :.                                    G = = = = = 8                         M = = = = = N                               v = = = = = =.                  = = = = = =                                         { = = = = = ,.                    '.= = = = = T                                     v = = = = = ).                      = = = = = :.                                      ! = = = = = $.                                = = = = = -.                      i.= = = = =                                       = = = = = :.                  3.= = = = = = K                                         ' = = = = =                     = = = = = :.                                    G = = = = = 8                                               ",
"                                    p.= = = = = =                                                                       h = = = = = X                                         l.= = = = = `                   = = = = = :.                                    G = = = = = 8                         M = = = = = N                               v = = = = = =.                W = = = = = =                                         m.= = = = = ,.                    '.= = = = = T                                     ( = = = = = ).                      = = = = = :.                                      = = = = = = e.                              r.= = = = = -.                      i.= = = = =                                       = = = = = :.                    h = = = = = X                                         l.= = = = = `                   = = = = = :.                                    G = = = = = 8                                               ",
"                                    ).= = = = = = M                                                                     ' = = = = = s                                         = = = = = =                     = = = = = :.                                    G = = = = = 8                         M = = = = = N                               v = = = = = =.                r _ = = = = = r.                                      $.= = = = = ,.                    '.= = = = = T                                   ,.m = = = = = ).                      = = = = = :.                                    f = = = = = @                                   = = = = = -.                      i.= = = = =                                       = = = = = :.                    ' = = = = = s                                         = = = = = =                     = = = = = :.                                    G = = = = = 8                                               ",
"                                    r 6 = = = = = a                                                                     2 = = = = = p.                                      ..= = = = = L                     = = = = = :.                                    G = = = = = 8                         M = = = = = N                               v = = = = = =.                  i.= = = = = R                                       = = = = = = ,.                    k = = = = = Q                                     = = = = = = ).                      = = = = = :.                                    ^.= = = = = #.                                q.= = = = = -.                      i.= = = = =                                       = = = = = :.                    2 = = = = = p.                                      ..= = = = = L                     = = = = = :.                                    G = = = = = 8                                               ",
"                                      1 = = = = = = k                                                                   T = = = = = { r                                     ) = = = = = d                     = = = = = :.                                    G = = = = = 8                         M = = = = = N                               v = = = = = =.                  a.= = = = = E                                     U = = = = = = ,.                    ; = = = = = 8                                   l = = = = = = ).                      = = = = = :.                                    [.= = = = =                                   w = = = = = -.                      i.= = = = =                                       = = = = = :.                    T = = = = = { r                                     ) = = = = = d                     = = = = = :.                                    G = = = = = 8                                               ",
"                                        _ = = = = = m                                                                     = = = = = = <.                                    ].= = = = =                       = = = = = :.                                    G = = = = = 8                         M = = = = = N                               v = = = = = =.                    = = = = = m 2.                                  g = = = = = = ,.                    e = = = = = 4                                   * = = = = = = ).                      = = = = = :.                                    [ = = = = =                                 }._ = = = = = -.                      h.= = = = = ).                                    = = = = = :.                      = = = = = = <.                                    ].= = = = =                       = = = = = :.                                    G = = = = = 8                                               ",
"                                        1 = = = = = = <                                                                   i.= = = = = ^.                                  9.= = = = = j 7.                    = = = = = :.                                    G = = = = = 8                         M = = = = = N                               v = = = = = =.                  ,._ = = = = = 8                                 b.i = = = = = = ,.                    w.= = = = = {                                 =.m = = = = = = ).                      = = = = = :.                                    >.= = = = = N                               T = = = = = = -.                      ) = = = = = 4.                                    = = = = = :.                      i.= = = = = ^.                                  9.= = = = = j 7.                    = = = = = :.                                    G = = = = = 8                                               ",
"                                          6.= = = = = = %.                                                                +.= = = = = =                                   i = = = = = '.                      = = = = = :.                                    G = = = = = 8                         M = = = = = N                               v = = = = = =.                    x.= = = = = j                                 ] = = = = = = = ,.                      = = = = = = `                               w = = = = = = = ).                      = = = = = :.                                    9 = = = = = 3                               /.= = = = = = -.                      {.= = = = = 1                                     = = = = = :.                      +.= = = = = =                                   i = = = = = '.                      = = = = = :.                                    G = = = = = 8                                               ",
"                                          _.: = = = = = = (                                                                 } = = = = = y.                            W [.= = = = = $.                        = = = = = :.                                    G = = = = = 8                         M = = = = = N                               v = = = = = =.                    z.= = = = = = i.                            ).h = = = = = = = ,.                    }.j = = = = = E                             ..= = = = = = = = ).                      = = = = = :.                                      = = = = = < ,.                        K o.= = = = = = = -.                      8 = = = = = v r                                   = = = = = :.                        } = = = = = y.                            W [.= = = = = $.                        = = = = = :.                                    G = = = = = 8                                               ",
"                                            S = = = = = = = : ]                                                             A.h = = = = = [                           * = = = = = = c.                        = = = = = :.                                    G = = = = = 8                         M = = = = = N                               v = = = = = =.                      d = = = = = = w                         4.j = = = = = = = = ,.                      . = = = = = =                             : = = = = = = = = ).                      = = = = = :.                                    4.= = = = = = '.r                     z.@.= = = = = = = = -.                      +.= = = = = = z                                   = = = = = :.                        A.h = = = = = [                           * = = = = = = c.                        = = = = = :.                                    G = = = = = 8                                               ",
"                                              ; = = = = = = = = - 7                             l g.~ i                         = = = = = = $.] 3.                q.- = = = = = = 8.                          = = = = = :.                                    G = = = = = 8                         M = = = = = N                               v = = = = = =.                      P ~ = = = = = = 6.                    ) = = = = h = = = = = ,.                      V = = = = = = = ^ y               }.V E = = = = = = = = = = ).                      = = = = = :.                                    K d.= = = = = = !.=.              z.-.: = = = @.L = = = = -.                      K l.= = = = = :   }.             .r               = = = = = :.                            = = = = = = $.] 3.                q.- = = = = = = 8.                          = = = = = :.                                    G = = = = = 8                                               ",
"                                                *.= = = = = = = = = = i C -., R Z 1 a.  9 [ $.= = = = i                         -.= = = = = = = = v.A 5   , k C m = = = = = = = { 2.                          = = = = = :.                                    G = = = = = 8                         M = = = = = N                               v = = = = = =.                          = = = = = = = = d.d ; e.8 3 ) # = = = = = g ! = = = = = ,.                        * = = = = = = = = F '.c.  c.  !.- = = = = = 0.f = = = = = ).                      = = = = = :.                                      f = = = = = = = = } #.S f ; d /.= = = = = L   g.= = = = -.                        k = = = = = = = > k f e   4 0.$.,.              = = = = = :.                            -.= = = = = = = = v.A 5   , k C m = = = = = = = { 2.                          = = = = = :.                                    G = = = = = 8                                               ",
"                                                    ~ = = = = = = = = = = = = = = = = = = = = = = = = i                           x.= = = = = = = = = = = = = = = = = = = = = H 5.                            = = = = = :.                                    G = = = = = 8                         M = = = = = N                               v = = = = = =.                          f = = = = = = = = = = = = = = = = = = = }   C = = = = = ,.                          /.= = = = = = = = = = = = = = = = = = = < 3.  = = = = = ).                      = = = = = :.                                       .0.= = = = = = = = = = = = = = = = = = n     Z = = = = -.                        s.~ = = = = = = = = = = = = = = ,.              = = = = = :.                              x.= = = = = = = = = = = = = = = = = = = = = H 5.                            = = = = = :.                                    G = = = = = 8                                               ",
"                                                    5.d m = = = = = = = = = = = = = = = = = = = = = = i                             T a = = = = = = = = = = = = = = = = = = g K                               = = = = = :.                                    G = = = = = 8                         M = = = = = N                               v = = = = = =.                            z ].= = = = = = = = = = = = = = = = h.W   v = = = = = ,.                          z.@ = = = = = = = = = = = = = = = = = F =.    = = = = = ).                      = = = = = :.                                          @.= = = = = = = = = = = = = = = = ' n.    ).= = = = -.                            i = = = = = = = = = = = = = ,.              = = = = = :.                                T a = = = = = = = = = = = = = = = = = = g K                               = = = = = :.                                    G = = = = = 8                                               ",
"                                                        X d $.= = = = = = = = = = = = = = = = = = = = >.                              J 4 h = = = = = = = = = = = = = = + B.                                  = = = = = :.                                    G = = = = = 8                         M = = = = = N                               v = = = = = =.                              ~.} = = = = = = = = = = = = = - e.      [ = = = = = ,.                              g.m = = = = = = = = = = = = = i ; ,.      n = = = = ).                      = = = = = :.                                          ,.3 m = = = = = = = = = = = = = -.b.      ,.h = = = -.                            ).> = = = = = = = = = = = = ,.              = = = = = :.                                  J 4 h = = = = = = = = = = = = = = + B.                                  = = = = = :.                                    G = = = = = 8                                               ",
"                                                            b.s % ( = = = = = = = = = = = = h @.-.G                                       3.8 v = = = = = = = = = y.k                                         = = = = = :.                                    G = = = = = 8                         M = = = = = N                               v = = = = = =.                                    c _ = = = = = = = = v.f D         6 = = = = = ,.                                  #.' = = = = = = = = m 0.e.            1.= = = = ).                      = = = = = :.                                                M m.= = = = = = = = n A               $ = = = -.                                Z } h = = = = = = = ~ '.                = = = = = :.                                      3.8 v = = = = = = = = = y.k                                         = = = = = :.                                    G = = = = = 8                                               ",
"                                                                    b.` Y   Q e f q.T U   u.                                                    7.|.;.  f Z                                                                                                                                                                                                                                         (.A.    R   G   2.              { = = = = =                                             s 0 R Z N |.7.                                                                                                                r n.  T R q.T 4.n.                                                                      Z e.T r.u r                                                                           7.|.;.  f Z                                                                                                                                                               ",
"                                                                                                                                                                                                                                                                                                                                                                                                                                    m.= = = = l.                                                                                                                                                                                                                                                                                                                                                                                                                                                                                                                                  ",
"                                                                                                                                                                                                                                                                                                                                                                                                                                    h = = = = <                                                                                                                                                                                                                                                                                                                                                                                                                                                                                                                                   ",
"                                                                                                                                                                                                                                                                                                                                                                                                                                    = = = = = @.                                                                                                                                                                                                                                                                                                                                                                                                                                                                                                                                  ",
"                                                                                                                                                                                                                                                                                                                                                                                                                                    = = = = = )                                                                                                                                                                                                                                                                                                                                                                                                                                                                                                                                   ",
"                                                                                                                                                                                                                                                                                                                                                                                                                                  i.= = = = =                                                                                                                                                                                                                                                                                                                                                                                                                                                                                                                                     ",
"                                                                                                                                                                                                                                                                                                                                                                                                                                  = = = = = =                                                                                                                                                                                                                                                                                                                                                                                                                                                                                                                                     ",
"                                                                                                                                                                                                                                                                                                                                                                                                                              W F = = = = = /.}.                                                                                                                                                                                                                                                                                                                                                                                                                                                                                                                                  ",
"                                                                                                                                                                                                                                                                                                                                                                                      Y                                     b.1.= = = = = = e.                                                                                                                                                                                                                                                                                                                                                                                                                                                                                                                                    ",
"                                                                                                                                                                                                                                                                                                                                                                                    G = > 8 <.(.                          |.F = = = = = = _ W                                                                                                                                                                                                                                                                                                                                                                                                                                                                                                                                     ",
"                                                                                                                                                                                                                                                                                                                                                                                    G = = = = # 2 j.s   s.W       I   f.:.= = = = = = = = U                                                                                                                                                                                                                                                                                                                                                                                                                                                                                                                                       ",
"                                                                                                                                                                                                                                                                                                                                                                                    G = = = = = = = = = = = = ].$.= = = = = = = = = = = ;                                                                                                                                                                                                                                                                                                                                                                                                                                                                                                                                         ",
"                                                                                                                                                                                                                                                                                                                                                                                    G = = = = = = = = = = = = = = = = = = = = = = = =   (.                                                                                                                                                                                                                                                                                                                                                                                                                                                                                                                                        ",
"                                                                                                                                                                                                                                                                                                                                                                                    +.].= = = = = = = = = = = = = = = = = = = = = L U                                                                                                                                                                                                                                                                                                                                                                                                                                                                                                                                             ",
"                                                                                                                                                                                                                                                                                                                                                                                        z i.j = = = = = = = = = = = = = = = = @.Q ,.                                                                                                                                                                                                                                                                                                                                                                                                                                                                                                                                              ",
"                                                                                                                                                                                                                                                                                                                                                                                            }.  0 ; 2 0.b L a h ]._ ' :.7 w.=.                                                                                                                                                                                                                                                                                                                                                                                                                                                                                                                                                    ",
"                                                                                                                                                                                                                                                                                                                                                                                                                                                                                                                                                                                                                                                                                                                                                                                                                                                                                                                                                                                  ",
"                                                                                                                                                                                                                                                                                                                                                                                                                                                                                                                                                                                                                                                                                                                                                                                                                                                                                                                                                                                  ",
"                                                                                                                                                                                                                                                                                                                                                                                                                                                                                                                                                                                                                                                                                                                                                                                                                                                                                                                                                                                  ",
"                                                                                                                                                                                                                                                                                                                                                                                                                                                                                                                                                                                                                                                                                                                                                                                                                                                                                                                                                                                  ",
"                                                                                                                                                                                                                                                                                                                                                                                                                                                                                                                                                                                                                                                                                                                                                                                                                                                                                                                                                                                  ",
"                                                                                                                                                                                                                                                                                                                                                                                                                                                                                                                                                                                                                                                                                                                                                                                                                                                                                                                                                                                  ",
"                                                                                                                                                                                                                                                                                                                                                                                                                                                                                                                                                                                                                                                                                                                                                                                                                                                                                                                                                                                  ",
"                                                                                                                                                                                                                                                                                                                                                                                                                                                                                                                                                                                                                                                                                                                                                                                                                                                                                                                                                                                  ",
"                                                                                                                                                                                                                                                                                                                                                                                                                                                                                                                                                                                                                                                                                                                                                                                                                                                                                                                                                                                  ",
"                                                                                                                                                                                                                                                                                                                                                                                                                                                                                                                                                                                                                                                                                                                                                                                                                                                                                                                                                                                  ",
"                                                                                                                                                                                                                                                                                                                                                                                                                                                                                                                                                                                                                                                                                                                                                                                                                                                                                                                                                                                  ",
"                                                                                                                                                                                                                                                                                                                                                                                                                                                                                                                                                                                                                                                                                                                                                                                                                                                                                                                                                                                  ",
"                                                                                                                                                                                                                                                                                                                                                                                                                                                                                                                                                                                                                                                                                                                                                                                                                                                                                                                                                                                  "};
