/* XPM */
static char * configuration_xpm[] = {
"473 100 181 2",
"  	c #FF00FF",
". 	c #FF7DFF",
"+ 	c #FFB6FF",
"@ 	c #FFDCFF",
"# 	c #FFEAFF",
"$ 	c #FFF3FF",
"% 	c #FFF8FF",
"& 	c #FFEBFF",
"* 	c #FFD8FF",
"= 	c #FFBDFF",
"- 	c #FF8EFF",
"; 	c #FF32FF",
"> 	c #FF90FF",
", 	c #FFE4FF",
"' 	c #FFFFFF",
") 	c #FFFAFF",
"! 	c #FF6DFF",
"~ 	c #FF1CFF",
"{ 	c #FFC5FF",
"] 	c #FFF4FF",
"^ 	c #FF16FF",
"/ 	c #FF35FF",
"( 	c #FFC0FF",
"_ 	c #FFF0FF",
": 	c #FFDBFF",
"< 	c #FF6CFF",
"[ 	c #FF72FF",
"} 	c #FFF1FF",
"| 	c #FF2EFF",
"1 	c #FF76FF",
"2 	c #FFA6FF",
"3 	c #FFDEFF",
"4 	c #FFECFF",
"5 	c #FFF9FF",
"6 	c #FFFEFF",
"7 	c #FFF5FF",
"8 	c #FFEFFF",
"9 	c #FFE6FF",
"0 	c #FFD2FF",
"a 	c #FFA1FF",
"b 	c #FF62FF",
"c 	c #FFC9FF",
"d 	c #FF5FFF",
"e 	c #FF65FF",
"f 	c #FFD4FF",
"g 	c #FFC4FF",
"h 	c #FFCDFF",
"i 	c #FF8FFF",
"j 	c #FFB7FF",
"k 	c #FF8BFF",
"l 	c #FF63FF",
"m 	c #FFBCFF",
"n 	c #FFBEFF",
"o 	c #FF84FF",
"p 	c #FFAFFF",
"q 	c #FF53FF",
"r 	c #FFFBFF",
"s 	c #FF8CFF",
"t 	c #FF4FFF",
"u 	c #FF26FF",
"v 	c #FF4DFF",
"w 	c #FF82FF",
"x 	c #FFB0FF",
"y 	c #FFF2FF",
"z 	c #FFD6FF",
"A 	c #FFD7FF",
"B 	c #FFBBFF",
"C 	c #FFBAFF",
"D 	c #FFA7FF",
"E 	c #FFD5FF",
"F 	c #FF92FF",
"G 	c #FFFCFF",
"H 	c #FF51FF",
"I 	c #FFCEFF",
"J 	c #FFB2FF",
"K 	c #FF85FF",
"L 	c #FF5CFF",
"M 	c #FFA9FF",
"N 	c #FFC8FF",
"O 	c #FF9DFF",
"P 	c #FF75FF",
"Q 	c #FF40FF",
"R 	c #FF38FF",
"S 	c #FF80FF",
"T 	c #FFCCFF",
"U 	c #FF68FF",
"V 	c #FFF6FF",
"W 	c #FF58FF",
"X 	c #FFDDFF",
"Y 	c #FFD0FF",
"Z 	c #FFDFFF",
"` 	c #FF0DFF",
" .	c #FFA4FF",
"..	c #FF70FF",
"+.	c #FFDAFF",
"@.	c #FF95FF",
"#.	c #FF7EFF",
"$.	c #FFADFF",
"%.	c #FFD1FF",
"&.	c #FF93FF",
"*.	c #FFE5FF",
"=.	c #FF55FF",
"-.	c #FFE3FF",
";.	c #FFC6FF",
">.	c #FFEEFF",
",.	c #FFABFF",
"'.	c #FF45FF",
").	c #FFCAFF",
"!.	c #FF69FF",
"~.	c #FF42FF",
"{.	c #FFCBFF",
"].	c #FFA8FF",
"^.	c #FF56FF",
"/.	c #FFB3FF",
"(.	c #FFB9FF",
"_.	c #FFB4FF",
":.	c #FFAEFF",
"<.	c #FFA2FF",
"[.	c #FF8DFF",
"}.	c #FF47FF",
"|.	c #FF78FF",
"1.	c #FF9EFF",
"2.	c #FF88FF",
"3.	c #FF3BFF",
"4.	c #FFAAFF",
"5.	c #FFA5FF",
"6.	c #FF9AFF",
"7.	c #FF81FF",
"8.	c #FFEDFF",
"9.	c #FFC7FF",
"0.	c #FFD9FF",
"a.	c #FFE2FF",
"b.	c #FFFDFF",
"c.	c #FFC1FF",
"d.	c #FF79FF",
"e.	c #FFC2FF",
"f.	c #FF6EFF",
"g.	c #FF87FF",
"h.	c #FFE8FF",
"i.	c #FF3DFF",
"j.	c #FF89FF",
"k.	c #FF7AFF",
"l.	c #FFD3FF",
"m.	c #FF22FF",
"n.	c #FF86FF",
"o.	c #FF83FF",
"p.	c #FFF7FF",
"q.	c #FFA0FF",
"r.	c #FF2AFF",
"s.	c #FF8AFF",
"t.	c #FFE0FF",
"u.	c #FF5AFF",
"v.	c #FF6AFF",
"w.	c #FF99FF",
"x.	c #FF60FF",
"y.	c #FF4BFF",
"z.	c #FFE7FF",
"A.	c #FFA3FF",
"B.	c #FFE9FF",
"C.	c #FFC3FF",
"D.	c #FF49FF",
"E.	c #FFB8FF",
"F.	c #FFB1FF",
"G.	c #FFE1FF",
"H.	c #FFBFFF",
"I.	c #FF94FF",
"J.	c #FFACFF",
"K.	c #FF66FF",
"L.	c #FF71FF",
"M.	c #FF77FF",
"N.	c #FFB5FF",
"O.	c #FF96FF",
"P.	c #FF9CFF",
"Q.	c #FF9FFF",
"R.	c #FF5DFF",
"S.	c #FF73FF",
"T.	c #FF98FF",
"U.	c #FF91FF",
"V.	c #FF97FF",
"W.	c #FF7FFF",
"X.	c #FF7CFF",
"                                                                                                                                                                                                                                                                                                                                                                                                                                                                                                                                                                                                                                                                                                                                                                                                                                                                                                                                                                                  ",
"                                                                                                                                                                                                                                                                                                                                                                                                                                                                                                                                                                                                                                                                                                                                                                                                                                                                                                                                                                                  ",
"                                                                                                                                                                                                                                                                                                                                                                                                                                                                                                                                                                                                                                                                                                                                                                                                                                                                                                                                                                                  ",
"                                                                                                                                                                                                                                                                                                                                                                                                                                                                                                                                                                                                                                                                                                                                                                                                                                                                                                                                                                                  ",
"                                                                                                                                                                                                                                                                                                                                                                                                                                                                                                                                                                                                                                                                                                                                                                                                                                                                                                                                                                                  ",
"                                                                                                                                                                                                                                                                                                                                                                                                                                                                                                                                                                                                                                                                                                                                                                                                                                                                                                                                                                                  ",
"                                                                                                                                                                                                                                                                                                                                                                                                                                                                                                                                                                                                                                                                                                                                                                                                                                                                                                                                                                                  ",
"                                                                                                                                                                                                                                                                                                                                                                                                                                                                                                                                                                                                                                                                                                                                                                                                                                                                                                                                                                                  ",
"                                                                                                                                                                                                                                                                                                                                                                                                                                                                                                                                                                                                                                                                                                                                                                                                                                                                                                                                                                                  ",
"                                                                                                                                                                                                                                                                                                                                                                                                                                                                                                                                                                                                                                                                                                                                                                                                                                                                                                                                                                                  ",
"                                                                                                                                                                                                                                                                                                                                                                                                                                                                                                                                                                                                                                                                                                                                                                                                                                                                                                                                                                                  ",
"                                                                                                                                                                                                                                                                                                                                                                                                                                                                                                                                                                                                                                                                                                                                                                                                                                                                                                                                                                                  ",
"                                                                                                                                                                                                                                                                                                                                                                                                                                                                                                                                                                                                                                                                                                                                                                                                                                                                                                                                                                                  ",
"                                                                                                                                                                                                                                                                                                                                                                                                                                                                                                                                                                                                                                                                                                                                                                                                                                                                                                                                                                                  ",
"                                                                                                                                                                                                                                                                                                                                                                                                                                                                                                                                                                                                                                                                                                                                                                                                                                                                                                                                                                                  ",
"                                                                                                                                                                                                                                                                                                                                                                                                                                                                                                                                                                                                                                                                                                                                                                                                                                                                                                                                                                                  ",
"                                                                                                                                                                                                                                                                                                                                                                                                                                                                                                                                                                                                                                                                                                                                                                                                                                                                                                                                                                                  ",
"                                                                                                                                                                                                                                                                                                                                                                                                                                                                                                                                                                                                                                                                                                                                                                                                                                                                                                                                                                                  ",
"                                                                                                                                                                                                                                                                                                                                                                                                                                                                                                                                                                                                                                                                                                                                                                                                                                                                                                                                                                                  ",
"                                                                                                                                                                                                                                                                                                                  . + @ # $ % $ & * = - ;                                                                                                                                                                                                                                                                                                                                                                                                                                                                                                                                                                                                                                         ",
"                                                                                                                                                                                                                                                                                                              > , ' ' ' ' ' ' ' ' ' ' ' ) !                                                                                                                                                                                                                                                                                                                                                                                                                                                                                                                                                                                                                                       ",
"                                                                                                                                                                                                                                                                                                          ~ { ' ' ' ' ' ' ' ' ' ' ' ' ' ] ^     / ( _ % : <                                                                                                                                                                                                                                                                                                                                                                                     [ @ % } = |                                                                                                                                                                                                                       ",
"                                                                  1 2 { 3 4 $ 5 6 ) 7 8 9 0 = a b                                                                                                                                                                                                       ^ * ' ' ' ' ' ' ' ' ' ' ' ' ' ' c       * ' ' ' ' % d                                                                                                                                                                                                                                                                                                                                                                                 e ) ' ' ' ' f                                                                                                                                                                                                                       ",
"                                                            . g _ ' ' ' ' ' ' ' ' ' ' ' ' ' ' ' ' _ h i ^                                                                                                                                                                                               j ' ' ' ' ' ' ' ' ' ' ' ' ' ' ' k     l ' ' ' ' ' ' m                                                                                                                                                                                                                                                                                                                                                                                 n ' ' ' ' ' ' d                                                                                                                                                                                                                     ",
"                                                        o 3 ' ' ' ' ' ' ' ' ' ' ' ' ' ' ' ' ' ' ' ' ' ' } p                                                                                                                                                                                           q r ' ' ' ' ' ' f s t u v w x : y ~     > ' ' ' ' ' ' z                                                                                                                                                                                                                                                                                                                                                                                 z ' ' ' ' ' ' >                                                                                                                                                                                                                     ",
"                                                    t A ' ' ' ' ' ' ' ' ' ' ' ' ' ' ' ' ' ' ' ' ' ' ' ' ' B                                                                                                                                                                                           C ' ' ' ' ' ' D                 ^       > ' ' ' ' ' ' E                                                                                                                                                                                                                                                                                                                                                                                 z ' ' ' ' ' ' i                                                                                                                                                                                                                     ",
"                                                  F 7 ' ' ' ' ' ' ' ' ' ' ' ' 6 G ' ' ' ' ' ' ' ' ' ' ' r H                                                                                                                                                                                           & ' ' ' ' ' I                           d ' ' ' ' ' ' C                                                                                                                                                                                                                                                                                                                                     J ' ' ' K                                   m ' ' ' ' ' ' L                                                                                                                                                                                                                     ",
"                                                M 6 ' ' ' ' ' ' ' ' } N O P Q     R b S J : 5 ' ' ' ' ' T                                                                                                                                                                                           q ' ' ' ' ' ' U                             E ' ' ' ' V W                                                                                                                                                                                                                                                                                                                                     X ' ' ' K                                   d % ' ' ' ' Y                                                                                                                                                                                                                       ",
"                                              J ' ' ' ' ' ' ' ' Z k `                       /  ., ' ' ' ..                                                                                                                                                                                          i ' ' ' ' ' &                               | n _ % +.U                                                                                                                                                                                                                                                                                                                                     / r ' ' ' K                                     ! : % } B u                                                                                                                                                                                                                       ",
"                                            O ' ' ' ' ' ' ' $ @.                                  #.: :                                                                                                                                                                                             $.' ' ' ' ' %.                                                                                                                                                                                                                                                                                                                                                                              &.' ' ' ' K                                                                                                                                                                                                                                                                       ",
"                                          ..) ' ' ' ' ' ' *.=.                                        |                                                                                                                                                                                             n ' ' ' ' ' B                                                                                                                                                                                                                                                                                                                                                                               N ' ' ' ' K                                                                                                                                                                                                                                                                       ",
"                                        ~ # ' ' ' ' ' ' -.R                                                                                                                                                                                                                                         ;.' ' ' ' ' x                                                                                                                                                                                                                                                                                                                                                                               >.' ' ' ' K                                                                                                                                                                                                                                                                       ",
"                                        ,.' ' ' ' ' ' >.'.                                                                                                                                                                                                                                          ).' ' ' ' ' M                                                                                                                                                                                                                                                                                                                                                                             !.' ' ' ' ' K                                                                                                                                                                                                                                                                       ",
"                                      ~.V ' ' ' ' ' G P                                                                                                                                                                                                                                             {.' ' ' ' ' ].                                                                                                                                                                                                                                                                                                                                                                            p ' ' ' ' ' K                                                                                                                                                                                                                                                                       ",
"                                      J ' ' ' ' ' ' n                                                                                           ^.s D /.(./.M F L                                                                       Q K D _.(.:.<.[.}.                                        ` 0 ' ' ' ' ' ].                                                                                  ~ |.1.J (._.].2.'.                                                                                                                                                                3.k 4.j j x 5.[.^                             l F a :.(.J D 6.! `                                     7.& ' ' ' ' ' K                                                                                             ^.s D /.(./.M F L                                                                       Q K D _.(.:.<.[.}.                                                                ",
"                                      8.' ' ' ' ' V R                                                                                     S 9._ ' ' ' ' ' ' ' ' ' $ N o                                     7.' ' ' ' 0.          ~.4.a.b.' ' ' ' ' ' ' ' 8.c.d                               d.e.y ' ' ' ' ' ' ' ' ' ' ' ' ' ' ' N             & ' ' ' ' ' f.                                  g.0 % ' ' ' ' ' ' ' 6 -.D /           h.' ' ' ' i.                    Y ' ' ' ' ' :.                                    Z ' ' ' ' ' j.                    7.' ' ' ' X             k.l.b.' ' ' ' ' ' r `                     d J +.7 ' ' ' ' ' ' ' ' ' 5 @ 6.m.                          n.3 ' ' ' ' ' ' ' ' ' ' ' ' ' ' ' ' ' *.              7.' ' ' ' ' -.                                      S 9._ ' ' ' ' ' ' ' ' ' $ N o                                     7.' ' ' ' 0.          ~.4.a.b.' ' ' ' ' ' ' ' 8.c.d                                                           ",
"                                    2.' ' ' ' ' ' (.                                                                                  o.-.' ' ' ' ' ' ' ' ' ' ' ' ' ' ' -.j.                                7.' ' ' ' 8       m._.p.' ' ' ' ' ' ' ' ' ' ' ' ' 6 T 3.                    ! B 8.' ' ' ' ' ' ' ' ' ' ' ' ' ' ' ' ' ' N             & ' ' ' ' ' f.                              U 3 ' ' ' ' ' ' ' ' ' ' ' ' ' $ q.      ` ) ' ' ' ' i.                    Y ' ' ' ' ' :.                                    Z ' ' ' ' ' j.                    7.' ' ' ' #         u g 6 ' ' ' ' ' ' ' ' 4                 r.D -.' ' ' ' ' ' ' ' ' ' ' ' ' ' ' ' } [.                    s.t.' ' ' ' ' ' ' ' ' ' ' ' ' ' ' ' ' ' ' *.              7.' ' ' ' ' -.                                  o.-.' ' ' ' ' ' ' ' ' ' ' ' ' ' ' -.j.                                7.' ' ' ' 8       m._.p.' ' ' ' ' ' ' ' ' ' ' ' ' 6 T 3.                                                      ",
"                                    { ' ' ' ' ' 6 u.                                                                              | c ' ' ' ' ' ' ' ' ' ' ' ' ' ' ' ' ' ' ' ).3.                            7.' ' ' ' ' 3.  ^., ' ' ' ' ' ' ' ' ' ' ' ' ' ' ' ' ' 8.v.                  b.' ' ' ' ' ' ' ' ' ' ' ' ' ' ' ' ' ' ' ' N             & ' ' ' ' ' f.                            w.) ' ' ' ' ' ' ' ' ' ' ' ' ' ' ' ' 0 |   x.' ' ' ' ' i.                    Y ' ' ' ' ' :.                                    Z ' ' ' ' ' j.                    7.' ' ' ' V       }.t.' ' ' ' ' ' ' ' ' ' +.              D y ' ' ' ' ' ' ' ' ' ' ' ' ' ' ' ' ' ' ' ' C                   7 ' ' ' ' ' ' ' ' ' ' ' ' ' ' ' ' ' ' ' ' *.              7.' ' ' ' ' -.                              | c ' ' ' ' ' ' ' ' ' ' ' ' ' ' ' ' ' ' ' ).3.                            7.' ' ' ' ' 3.  ^., ' ' ' ' ' ' ' ' ' ' ' ' ' ' ' ' ' 8.v.                                                    ",
"                                    & ' ' ' ' ' t.                                                                              y.*.' ' ' ' ' ' ' ' ' ' ' ' ' ' ' ' ' ' ' ' ' z.H                           7.' ' ' ' ' #.q 8.' ' ' ' ' ' ' ' ' ' ' ' ' ' ' ' ' ' ' 8.'.                6 ' ' ' ' ' ' ' ' ' ' ' ' ' ' ' ' ' ' ' ' N             & ' ' ' ' ' f.                          A.6 ' ' ' ' ' ' ' ' ' ' ' ' ' ' ' ' ' ' X ; > ' ' ' ' ' i.                    Y ' ' ' ' ' :.                                    Z ' ' ' ' ' j.                    7.' ' ' ' ' |   '.z.' ' ' ' ' ' ' ' ' ' ' ;.              e.' ' ' ' ' ' ' ' ' ' ' ' ' ' ' ' ' ' ' ' ' ' 5.                7 ' ' ' ' ' ' ' ' ' ' ' ' ' ' ' ' ' ' ' ' *.              7.' ' ' ' ' -.                            y.*.' ' ' ' ' ' ' ' ' ' ' ' ' ' ' ' ' ' ' ' ' z.H                           7.' ' ' ' ' #.q 8.' ' ' ' ' ' ' ' ' ' ' ' ' ' ' ' ' ' ' 8.'.                                                  ",
"                                  W ' ' ' ' ' ' +                                                                             Q B.' ' ' ' ' ' ' ' B.%.C.j e.Y 9 ' ' ' ' ' ' ' ' 8.D.                        7.' ' ' ' ' D 3 ' ' ' ' ' ) @ T ( j c.%._ ' ' ' ' ' ' ' ' f                 % ) ) ) ) ) b.' ' ' ' ' G ) ) ) ) ) ) ) ) g             & ' ' ' ' ' f.                        2.b.' ' ' ' ' ' ' 5 A { E.c.h -.b.' ' ' ' ' %.F.' ' ' ' ' i.                    Y ' ' ' ' ' :.                                    Z ' ' ' ' ' j.                    7.' ' ' ' ' l ~ 3 ' ' ' ' ' $ f n + { , 6 p               b 6 ' ' ' ' ' ' _ E N = j ( z $ ' ' ' ' ' ' ' r =.              8 ) ) ) ) 6 ' ' ' ' ' r ) ) ) ) ) ) ) ) ) t.              7.' ' ' ' ' -.                          Q B.' ' ' ' ' ' ' ' B.%.C.j e.Y 9 ' ' ' ' ' ' ' ' 8.D.                        7.' ' ' ' ' D 3 ' ' ' ' ' ) @ T ( j c.%._ ' ' ' ' ' ' ' ' f                                                   ",
"                                  &.' ' ' ' ' ' w                                                                             +.' ' ' ' ' ' r B d               ^._.5 ' ' ' ' ' ' 3 ~                       7.' ' ' ' ' r ' ' ' ' G.k u               o a.' ' ' ' ' ' 6 <                           {.' ' ' ' ' ].                              & ' ' ' ' ' f.                      / 8 ' ' ' ' ' ' 7 <.;             i.<.8 ' ' ' ' r ' ' ' ' ' i.                    Y ' ' ' ' ' :.                                    Z ' ' ' ' ' j.                    7.' ' ' ' ' o.H.' ' ' ' *.> ^           W u.                * ' ' r * q.^.              ^ I.>.' ' ' ' ' ' e.                        G.' ' ' ' ' K                                   7.' ' ' ' ' -.                          +.' ' ' ' ' ' r B d               ^._.5 ' ' ' ' ' ' 3 ~                       7.' ' ' ' ' r ' ' ' ' G.k u               o a.' ' ' ' ' ' 6 <                                                 ",
"                                  J ' ' ' ' ' ' i.                                                                          4.' ' ' ' ' ' h.e                       ^.Z ' ' ' ' ' ' _.                      7.' ' ' ' ' ' ' ' 6 A.                      ~ T ' ' ' ' ' ' ).                          {.' ' ' ' ' ].                              & ' ' ' ' ' f.                      C.' ' ' ' ' ' a.t                     u ;.' ' ' ' ' ' ' ' ' i.                    Y ' ' ' ' ' :.                                    Z ' ' ' ' ' j.                    7.' ' ' ' ' 9.6 ' ' G F.`                                   k B.J.~.                        3.9 ' ' ' ' ' V `                       G.' ' ' ' ' K                                   7.' ' ' ' ' -.                        4.' ' ' ' ' ' h.e                       ^.Z ' ' ' ' ' ' _.                      7.' ' ' ' ' ' ' ' 6 A.                      ~ T ' ' ' ' ' ' ).                                                ",
"                                  {.' ' ' ' ' }                                                                           '.p.' ' ' ' ' 8.H                           3., ' ' ' ' ' ) d                     7.' ' ' ' ' ' ' ' A.                          m.*.' ' ' ' ' _                           {.' ' ' ' ' ].                              & ' ' ' ' ' f.                    e 6 ' ' ' ' ' # '.                          H.' ' ' ' ' ' ' ' i.                    Y ' ' ' ' ' :.                                    Z ' ' ' ' ' j.                    7.' ' ' ' ' ' ' ' G F                                                                         K.6 ' ' ' ' ' L.                      G.' ' ' ' ' K                                   7.' ' ' ' ' -.                      '.p.' ' ' ' ' 8.H                           3., ' ' ' ' ' ) d                     7.' ' ' ' ' ' ' ' A.                          m.*.' ' ' ' ' _                                                 ",
"                                  : ' ' ' ' ' ,                                                                           C ' ' ' ' ' 6 M.                              ^.5 ' ' ' ' ' N                     7.' ' ' ' ' ' ' 0.                              [.' ' ' ' ' ' =.                        {.' ' ' ' ' ].                              & ' ' ' ' ' f.                    n ' ' ' ' ' 6 [                             ^ -.' ' ' ' ' ' ' i.                    Y ' ' ' ' ' :.                                    Z ' ' ' ' ' j.                    7.' ' ' ' ' ' ' '  .                                                                            0.' ' ' ' ' ].                      G.' ' ' ' ' K                                   7.' ' ' ' ' -.                      C ' ' ' ' ' 6 M.                              ^.5 ' ' ' ' ' N                     7.' ' ' ' ' ' ' 0.                              [.' ' ' ' ' ' =.                                              ",
"                                  a.' ' ' ' ' *                                                                         ^ } ' ' ' ' ' h                                   N.' ' ' ' ' ) ~.                  7.' ' ' ' ' ' ' L.                                y ' ' ' ' ' &.                        {.' ' ' ' ' ].                              & ' ' ' ' ' f.                  ~ $ ' ' ' ' ' ).                                2.' ' ' ' ' ' ' i.                    Y ' ' ' ' ' :.                                    Z ' ' ' ' ' j.                    7.' ' ' ' ' ' ' A                                                                               /.' ' ' ' ' B                       G.' ' ' ' ' K                                   7.' ' ' ' ' -.                    ^ } ' ' ' ' ' h                                   N.' ' ' ' ' ) ~.                  7.' ' ' ' ' ' ' L.                                y ' ' ' ' ' &.                                              ",
"                                  h.' ' ' ' ' 0                                                                         n.' ' ' ' ' ' ..                                  3.) ' ' ' ' ' 5.                  7.' ' ' ' ' ' 9                                   E ' ' ' ' '  .                        {.' ' ' ' ' ].                              & ' ' ' ' ' f.                  - ' ' ' ' ' ' <                                   8.' ' ' ' ' ' i.                    Y ' ' ' ' ' :.                                    Z ' ' ' ' ' j.                    7.' ' ' ' ' ' 6 l                                                                               I.' ' ' ' ' 9.                      G.' ' ' ' ' K                                   7.' ' ' ' ' -.                    n.' ' ' ' ' ' ..                                  3.) ' ' ' ' ' 5.                  7.' ' ' ' ' ' 9                                   E ' ' ' ' '  .                                              ",
"                                  8.' ' ' ' ' I                                                                         H.' ' ' ' ' #                                       l.' ' ' ' ' f                   7.' ' ' ' ' ' +                                   = ' ' ' ' ' F.                        {.' ' ' ' ' ].                              & ' ' ' ' ' f.                  B ' ' ' ' ' B.                                    e.' ' ' ' ' ' i.                    Y ' ' ' ' ' :.                                    Z ' ' ' ' ' j.                    7.' ' ' ' ' ' E                                                                                 K ' ' ' ' ' Y                       G.' ' ' ' ' K                                   7.' ' ' ' ' -.                    H.' ' ' ' ' #                                       l.' ' ' ' ' f                   7.' ' ' ' ' ' +                                   = ' ' ' ' ' F.                                              ",
"                                  & ' ' ' ' ' Y                                                                         t.' ' ' ' ' n                                       O ' ' ' ' ' V                   7.' ' ' ' ' ' K                                   J ' ' ' ' ' B                         {.' ' ' ' ' ].                              & ' ' ' ' ' f.                  : ' ' ' ' ' n                                     O.' ' ' ' ' ' i.                    Y ' ' ' ' ' :.                                    Z ' ' ' ' ' j.                    7.' ' ' ' ' ' O                                                                                 . ' ' ' ' ' 0                       G.' ' ' ' ' K                                   7.' ' ' ' ' -.                    t.' ' ' ' ' n                                       O ' ' ' ' ' V                   7.' ' ' ' ' ' K                                   J ' ' ' ' ' B                                               ",
"                                  9 ' ' ' ' ' f                                                                         p.' ' ' ' ' P.                                      v.' ' ' ' ' ' q                 7.' ' ' ' ' ' y.                                  ,.' ' ' ' ' n                         {.' ' ' ' ' ].                              & ' ' ' ' ' f.                  7 ' ' ' ' ' O                                     l ' ' ' ' ' ' i.                    Y ' ' ' ' ' :.                                    Z ' ' ' ' ' j.                    7.' ' ' ' ' ' H                                                                                 . ' ' ' ' ' 0                       G.' ' ' ' ' K                                   7.' ' ' ' ' -.                    p.' ' ' ' ' P.                                      v.' ' ' ' ' ' q                 7.' ' ' ' ' ' y.                                  ,.' ' ' ' ' n                                               ",
"                                  t.' ' ' ' ' X                                                                       '.' ' ' ' ' ' !                                       ^ ) ' ' ' ' ' n.                7.' ' ' ' ' V                                     ,.' ' ' ' ' n                         {.' ' ' ' ' ].                              & ' ' ' ' ' f.                i.' ' ' ' ' ' ..                                    ~ b.' ' ' ' ' i.                    Y ' ' ' ' ' :.                                    Z ' ' ' ' ' j.                    7.' ' ' ' ' V                                                       !  .{ 0.B.y 5 G ' ' ' ' ' ' ' ' ' ' ' ' 0                       G.' ' ' ' ' K                                   7.' ' ' ' ' -.                  '.' ' ' ' ' ' !                                       ^ ) ' ' ' ' ' n.                7.' ' ' ' ' V                                     ,.' ' ' ' ' n                                               ",
"                                  A ' ' ' ' ' B.                                                                      ..' ' ' ' ' ' i.                                        >.' ' ' ' ' Q.                7.' ' ' ' ' >.                                    ,.' ' ' ' ' n                         {.' ' ' ' ' ].                              & ' ' ' ' ' f.                R.' ' ' ' ' ' i.                                      7 ' ' ' ' ' i.                    Y ' ' ' ' ' :.                                    Z ' ' ' ' ' j.                    7.' ' ' ' ' #                                                 f.g y ' ' ' ' ' ' ' ' ' ' ' ' ' ' ' ' ' ' ' ' 0                       G.' ' ' ' ' K                                   7.' ' ' ' ' -.                  ..' ' ' ' ' ' i.                                        >.' ' ' ' ' Q.                7.' ' ' ' ' >.                                    ,.' ' ' ' ' n                                               ",
"                                  g ' ' ' ' ' %                                                                       7.' ' ' ' ' 6 `                                         z.' ' ' ' ' 4.                7.' ' ' ' ' B.                                    ,.' ' ' ' ' n                         {.' ' ' ' ' ].                              & ' ' ' ' ' f.                S.' ' ' ' ' ' `                                       >.' ' ' ' ' i.                    Y ' ' ' ' ' :.                                    Z ' ' ' ' ' j.                    7.' ' ' ' ' ,                                             L f ' ' ' ' ' ' ' ' ' ' ' ' ' ' ' ' ' ' ' ' ' ' ' 0                       G.' ' ' ' ' K                                   7.' ' ' ' ' -.                  7.' ' ' ' ' 6 `                                         z.' ' ' ' ' 4.                7.' ' ' ' ' B.                                    ,.' ' ' ' ' n                                               ",
"                                  J.' ' ' ' ' ' W                                                                     j.' ' ' ' ' 5                                           Z ' ' ' ' ' J                 7.' ' ' ' ' ,                                     ,.' ' ' ' ' n                         {.' ' ' ' ' ].                              & ' ' ' ' ' f.                K ' ' ' ' ' 5                                         & ' ' ' ' ' i.                    Y ' ' ' ' ' :.                                    Z ' ' ' ' ' j.                    7.' ' ' ' ' -.                                          F % ' ' ' ' ' ' ' ' ' ' ' ' ' ' ' ' ' ' ' ' ' ' ' ' 0                       G.' ' ' ' ' K                                   7.' ' ' ' ' -.                  j.' ' ' ' ' 5                                           Z ' ' ' ' ' J                 7.' ' ' ' ' ,                                     ,.' ' ' ' ' n                                               ",
"                                  - ' ' ' ' ' ' I.                                                                    g.' ' ' ' ' )                                           a.' ' ' ' ' J                 7.' ' ' ' ' -.                                    ,.' ' ' ' ' n                         {.' ' ' ' ' ].                              & ' ' ' ' ' f.                n.' ' ' ' ' 5                                         B.' ' ' ' ' i.                    Y ' ' ' ' ' :.                                    Z ' ' ' ' ' j.                    7.' ' ' ' ' -.                                        T.b.' ' ' ' ' ' ' , n O #.R.i.m.          U.' ' ' ' ' 0                       G.' ' ' ' ' K                                   7.' ' ' ' ' -.                  g.' ' ' ' ' )                                           a.' ' ' ' ' J                 7.' ' ' ' ' -.                                    ,.' ' ' ' ' n                                               ",
"                                  }.6 ' ' ' ' ' C.                                                                    k.' ' ' ' ' ' ^                                         B.' ' ' ' ' J.                7.' ' ' ' ' -.                                    ,.' ' ' ' ' n                         {.' ' ' ' ' ].                              & ' ' ' ' ' f.                1 ' ' ' ' ' 6                                         # ' ' ' ' ' i.                    Y ' ' ' ' ' :.                                    *.' ' ' ' ' j.                    7.' ' ' ' ' -.                                      < ) ' ' ' ' ' ' {.b                         U.' ' ' ' ' 0                       G.' ' ' ' ' K                                   7.' ' ' ' ' -.                  k.' ' ' ' ' ' ^                                         B.' ' ' ' ' J.                7.' ' ' ' ' -.                                    ,.' ' ' ' ' n                                               ",
"                                    B.' ' ' ' ' 4                                                                     v.' ' ' ' ' ' ~.                                        8 ' ' ' ' ' Q.                7.' ' ' ' ' -.                                    ,.' ' ' ' ' n                         {.' ' ' ' ' ].                              & ' ' ' ' ' f.                b ' ' ' ' ' ' R                                       } ' ' ' ' ' i.                    Y ' ' ' ' ' :.                                    & ' ' ' ' ' j.                    7.' ' ' ' ' -.                                      @ ' ' ' ' ' b.a                             U.' ' ' ' ' 0                       G.' ' ' ' ' K                                   7.' ' ' ' ' -.                  v.' ' ' ' ' ' ~.                                        8 ' ' ' ' ' Q.                7.' ' ' ' ' -.                                    ,.' ' ' ' ' n                                               ",
"                                    9.' ' ' ' ' ' 1                                                                   ; 6 ' ' ' ' ' |.                                      u G ' ' ' ' ' g.                7.' ' ' ' ' -.                                    ,.' ' ' ' ' n                         {.' ' ' ' ' ].                              & ' ' ' ' ' f.                }.' ' ' ' ' ' U                                       p.' ' ' ' ' i.                    Y ' ' ' ' ' :.                                    $ ' ' ' ' ' j.                    7.' ' ' ' ' -.                                    [ ' ' ' ' ' ' E.                              O.' ' ' ' ' 0                       G.' ' ' ' ' K                                   7.' ' ' ' ' -.                  ; 6 ' ' ' ' ' |.                                      u G ' ' ' ' ' g.                7.' ' ' ' ' -.                                    ,.' ' ' ' ' n                                               ",
"                                    j.' ' ' ' ' ' {.                                                                    _ ' ' ' ' ' A.                                      1 ' ' ' ' ' ' L                 7.' ' ' ' ' -.                                    ,.' ' ' ' ' n                         {.' ' ' ' ' ].                              & ' ' ' ' ' f.                ` 5 ' ' ' ' ' V.                                    u b.' ' ' ' ' i.                    Y ' ' ' ' ' :.                                  i.' ' ' ' ' ' j.                    7.' ' ' ' ' -.                                    C ' ' ' ' ' $ u                               D ' ' ' ' ' 0                       G.' ' ' ' ' K                                   7.' ' ' ' ' -.                    _ ' ' ' ' ' A.                                      1 ' ' ' ' ' ' L                 7.' ' ' ' ' -.                                    ,.' ' ' ' ' n                                               ",
"                                    ` _ ' ' ' ' ' r W                                                                   * ' ' ' ' ' 9.                                      5.' ' ' ' ' V                   7.' ' ' ' ' -.                                    ,.' ' ' ' ' n                         {.' ' ' ' ' ].                              & ' ' ' ' ' f.                  G.' ' ' ' ' (.                                    1 ' ' ' ' ' ' i.                    I ' ' ' ' ' /.                                  S ' ' ' ' ' ' j.                    7.' ' ' ' ' -.                                    +.' ' ' ' ' 9.                                + ' ' ' ' ' 0                       G.' ' ' ' ' K                                   7.' ' ' ' ' -.                    * ' ' ' ' ' 9.                                      5.' ' ' ' ' V                   7.' ' ' ' ' -.                                    ,.' ' ' ' ' n                                               ",
"                                      m ' ' ' ' ' ' I                                                                   :.' ' ' ' ' } `                                     : ' ' ' ' ' A                   7.' ' ' ' ' -.                                    ,.' ' ' ' ' n                         {.' ' ' ' ' ].                              & ' ' ' ' ' f.                  C.' ' ' ' ' -.                                    A.' ' ' ' ' ' i.                    { ' ' ' ' ' n                                   J ' ' ' ' ' ' j.                    7.' ' ' ' ' -.                                    # ' ' ' ' ' 4.                                +.' ' ' ' ' 0                       G.' ' ' ' ' K                                   7.' ' ' ' ' -.                    :.' ' ' ' ' } `                                     : ' ' ' ' ' A                   7.' ' ' ' ' -.                                    ,.' ' ' ' ' n                                               ",
"                                      t 5 ' ' ' ' ' ' i                                                                 U ' ' ' ' ' ' o.                                  v b.' ' ' ' ' M                   7.' ' ' ' ' -.                                    ,.' ' ' ' ' n                         {.' ' ' ' ' ].                              & ' ' ' ' ' f.                  P.' ' ' ' ' ' u.                                  E ' ' ' ' ' ' i.                    B ' ' ' ' ' f                                   , ' ' ' ' ' ' j.                    7.' ' ' ' ' -.                                    8 ' ' ' ' ' P.                              r.5 ' ' ' ' ' 0                       t.' ' ' ' ' j.                                  7.' ' ' ' ' -.                    U ' ' ' ' ' ' o.                                  v b.' ' ' ' ' M                   7.' ' ' ' ' -.                                    ,.' ' ' ' ' n                                               ",
"                                        m ' ' ' ' ' ' 7 l                                                                 a.' ' ' ' ' +.                                  e.' ' ' ' ' r y.                  7.' ' ' ' ' -.                                    ,.' ' ' ' ' n                         {.' ' ' ' ' ].                              & ' ' ' ' ' f.                  i.) ' ' ' ' ' n                                 D.G ' ' ' ' ' ' i.                    $.' ' ' ' ' }                                 f.' ' ' ' ' ' ' j.                    7.' ' ' ' ' -.                                    h.' ' ' ' ' ].                              :.' ' ' ' ' ' 0                       : ' ' ' ' ' w.                                  7.' ' ' ' ' -.                      a.' ' ' ' ' +.                                  e.' ' ' ' ' r y.                  7.' ' ' ' ' -.                                    ,.' ' ' ' ' n                                               ",
"                                        Q y ' ' ' ' ' ' 8.L                                                               6.' ' ' ' ' ' s                               e G ' ' ' ' ' Y                     7.' ' ' ' ' -.                                    ,.' ' ' ' ' n                         {.' ' ' ' ' ].                              & ' ' ' ' ' f.                    h ' ' ' ' ' r d                               g ' ' ' ' ' ' ' i.                    w ' ' ' ' ' ' 2.                              +.' ' ' ' ' ' ' j.                    7.' ' ' ' ' -.                                    3 ' ' ' ' ' ).                            H 7 ' ' ' ' ' ' 0                       l.' ' ' ' ' m                                   7.' ' ' ' ' -.                      6.' ' ' ' ' ' s                               e G ' ' ' ' ' Y                     7.' ' ' ' ' -.                                    ,.' ' ' ' ' n                                               ",
"                                          n.6 ' ' ' ' ' ' $ 7.                                                            ^ 9 ' ' ' ' ' ] e                           }.# ' ' ' ' ' b.U                     7.' ' ' ' ' -.                                    ,.' ' ' ' ' n                         {.' ' ' ' ' ].                              & ' ' ' ' ' f.                    W.' ' ' ' ' ' a.;                           j.6 ' ' ' ' ' ' ' i.                    r.r ' ' ' ' ' -.~                           5.' ' ' ' ' ' ' ' j.                    7.' ' ' ' ' -.                                    N ' ' ' ' ' 7 i.                        ~.h.' ' ' ' ' ' ' 0                       n ' ' ' ' ' & `                                 7.' ' ' ' ' -.                      ^ 9 ' ' ' ' ' ] e                           }.# ' ' ' ' ' b.U                     7.' ' ' ' ' -.                                    ,.' ' ' ' ' n                                               ",
"                                            (.' ' ' ' ' ' ' 6 { H                                   ~ .                     X.6 ' ' ' ' ' 8 1                       d , ' ' ' ' ' ' (                       7.' ' ' ' ' -.                                    ,.' ' ' ' ' n                         {.' ' ' ' ' ].                              & ' ' ' ' ' f.                      A ' ' ' ' ' ' +.Q                       w.r ' ' ' ' ' ' ' ' i.                      @ ' ' ' ' ' ' N ^                       D 6 ' ' ' ' ' ' ' ' j.                    7.' ' ' ' ' -.                                    T.' ' ' ' ' ' Y `                     W.8.' ' ' ' ' ' ' ' 0                       6.' ' ' ' ' ' $.                                7.' ' ' ' ' -.                        X.6 ' ' ' ' ' 8 1                       d , ' ' ' ' ' ' (                       7.' ' ' ' ' -.                                    ,.' ' ' ' ' n                                               ",
"                                              { ' ' ' ' ' ' ' ' ) h k |                     | w J z p.G                       j ' ' ' ' ' ' b.g v.              W + ) ' ' ' ' ' ' z.|                       7.' ' ' ' ' -.                                    ,.' ' ' ' ' n                         {.' ' ' ' ' ].                              & ' ' ' ' ' f.                      ^.p.' ' ' ' ' ' y O |             ^ K : ' ' ' ' 6 ' ' ' ' ' i.                      [.' ' ' ' ' ' ' Z #.              r.[.-.' ' ' ' ' ' ' ' ' ' j.                    7.' ' ' ' ' -.                                    ~.5 ' ' ' ' ' ' X f.              W.0 6 ' ' ' 8.V ' ' ' ' 0                       ~.G ' ' ' ' ' 6 + r.            3.`             7.' ' ' ' ' -.                          j ' ' ' ' ' ' b.g v.              W + ) ' ' ' ' ' ' z.|                       7.' ' ' ' ' -.                                    ,.' ' ' ' ' n                                               ",
"                                                e.' ' ' ' ' ' ' ' ' ' G *.0 ( (.N.m C.T 3 8 b.' ' ' ' G                         %.' ' ' ' ' ' ' ' 4 %.g j ( I *.' ' ' ' ' ' ' ' } u.                        7.' ' ' ' ' -.                                    ,.' ' ' ' ' n                         {.' ' ' ' ' ].                              & ' ' ' ' ' f.                        a ' ' ' ' ' ' ' ' 5 A ;.E.n c : % ' ' ' ' ' E @ ' ' ' ' ' i.                        , ' ' ' ' ' ' ' ' >.Y ( + ( {.X ) ' ' ' ' ' B.C ' ' ' ' ' j.                    7.' ' ' ' ' -.                                      C ' ' ' ' ' ' ' ' 9 9.(.C { A 7 ' ' ' ' ' V l z ' ' ' ' 0                         I ' ' ' ' ' ' ' ] I C B N f B.b.i.            7.' ' ' ' ' -.                            %.' ' ' ' ' ' ' ' 4 %.g j ( I *.' ' ' ' ' ' ' ' } u.                        7.' ' ' ' ' -.                                    ,.' ' ' ' ' n                                               ",
"                                                  O % ' ' ' ' ' ' ' ' ' ' ' ' ' ' ' ' ' ' ' ' ' ' ' ' G                         ~ h ' ' ' ' ' ' ' ' ' ' ' ' ' ' ' ' ' ' ' ' ' >.x.                          7.' ' ' ' ' -.                                    ,.' ' ' ' ' n                         {.' ' ' ' ' ].                              & ' ' ' ' ' f.                          C ' ' ' ' ' ' ' ' ' ' ' ' ' ' ' ' ' ' ' 9 Q *.' ' ' ' ' i.                        d 7 ' ' ' ' ' ' ' ' ' ' ' ' ' ' ' ' ' ' ' 7 v.i ' ' ' ' ' j.                    7.' ' ' ' ' -.                                      3.B.' ' ' ' ' ' ' ' ' ' ' ' ' ' ' ' ' ' V M.  N.' ' ' ' 0                         R.p.' ' ' ' ' ' ' ' ' ' ' ' ' ' i.            7.' ' ' ' ' -.                            ~ h ' ' ' ' ' ' ' ' ' ' ' ' ' ' ' ' ' ' ' ' ' >.x.                          7.' ' ' ' ' -.                                    ,.' ' ' ' ' n                                               ",
"                                                    x.A ' ' ' ' ' ' ' ' ' ' ' ' ' ' ' ' ' ' ' ' ' ' ' G                             :.r ' ' ' ' ' ' ' ' ' ' ' ' ' ' ' ' ' ' E ~.                            7.' ' ' ' ' -.                                    ,.' ' ' ' ' n                         {.' ' ' ' ' ].                              & ' ' ' ' ' f.                            $.b.' ' ' ' ' ' ' ' ' ' ' ' ' ' ' ' t.}.  & ' ' ' ' ' i.                          W.$ ' ' ' ' ' ' ' ' ' ' ' ' ' ' ' ' ' >.f.  W ' ' ' ' ' j.                    7.' ' ' ' ' -.                                        q 8.' ' ' ' ' ' ' ' ' ' ' ' ' ' ' ' 8 L.    j.' ' ' ' 0                           > G ' ' ' ' ' ' ' ' ' ' ' ' ' i.            7.' ' ' ' ' -.                                :.r ' ' ' ' ' ' ' ' ' ' ' ' ' ' ' ' ' ' E ~.                            7.' ' ' ' ' -.                                    ,.' ' ' ' ' n                                               ",
"                                                        |.A b.' ' ' ' ' ' ' ' ' ' ' ' ' ' ' ' ' ' ' ' h.                              !.f 6 ' ' ' ' ' ' ' ' ' ' ' ' ' ' # I.                                7.' ' ' ' ' -.                                    ,.' ' ' ' ' n                         {.' ' ' ' ' ].                              & ' ' ' ' ' f.                              k.9 ' ' ' ' ' ' ' ' ' ' ' ' ' ) E.~     8 ' ' ' ' ' i.                            t z ' ' ' ' ' ' ' ' ' ' ' ' ' ' G ;.i.      V ' ' ' ' j.                    7.' ' ' ' ' -.                                          i.).' ' ' ' ' ' ' ' ' ' ' ' ' ' %.D.      i.6 ' ' ' 0                             j.] ' ' ' ' ' ' ' ' ' ' ' ' i.            7.' ' ' ' ' -.                                  !.f 6 ' ' ' ' ' ' ' ' ' ' ' ' ' ' # I.                                7.' ' ' ' ' -.                                    ,.' ' ' ' ' n                                               ",
"                                                            D. .* $ ' ' ' ' ' ' ' ' ' ' ' ' 6 8.0 J.b                                     v.n & ' ' ' ' ' ' ' ' ' ] I s                                     7.' ' ' ' ' -.                                    ,.' ' ' ' ' n                         {.' ' ' ' ' ].                              & ' ' ' ' ' f.                                  U.z ) ' ' ' ' ' ' ' ' 4 C =.        _ ' ' ' ' ' i.                                ! 9._ ' ' ' ' ' ' ' ' ' B.E.L           t.' ' ' ' j.                    7.' ' ' ' ' -.                                              [ ).p.' ' ' ' ' ' ' ' V %..             & ' ' ' 0                               Q _.9 6 ' ' ' ' ' ' ' p.Y u             7.' ' ' ' ' -.                                      v.n & ' ' ' ' ' ' ' ' ' ] I s                                     7.' ' ' ' ' -.                                    ,.' ' ' ' ' n                                               ",
"                                                                    D.g.Q.4./.B C + :.A.U.S.R                                                   y.s.D J C N.4.F l                                                                                                                                                                                                                                   m.X.q.J (.+ J.U.u.              } ' ' ' ' ' /                                       q F  .x (.N.].s.y.                                                                                                                ` L.Q.:.(.+ :.T.L.^                                                               t F 2 N.E.:.V...`                                                                           y.s.D J C N.4.F l                                                                                                                                                         ",
"                                                                                                                                                                                                                                                                                                                                                                                                                                    p.' ' ' ' G                                                                                                                                                                                                                                                                                                                                                                                                                                                                                                                                   ",
"                                                                                                                                                                                                                                                                                                                                                                                                                                  ^ 6 ' ' ' ' 7                                                                                                                                                                                                                                                                                                                                                                                                                                                                                                                                   ",
"                                                                                                                                                                                                                                                                                                                                                                                                                                  < ' ' ' ' ' 8.                                                                                                                                                                                                                                                                                                                                                                                                                                                                                                                                  ",
"                                                                                                                                                                                                                                                                                                                                                                                                                                  4.' ' ' ' ' :                                                                                                                                                                                                                                                                                                                                                                                                                                                                                                                                   ",
"                                                                                                                                                                                                                                                                                                                                                                                                                                  G.' ' ' ' ' +                                                                                                                                                                                                                                                                                                                                                                                                                                                                                                                                   ",
"                                                                                                                                                                                                                                                                                                                                                                                                                                K ' ' ' ' ' ' o                                                                                                                                                                                                                                                                                                                                                                                                                                                                                                                                   ",
"                                                                                                                                                                                                                                                                                                                                                                                                                              }.>.' ' ' ' ' 7 r.                                                                                                                                                                                                                                                                                                                                                                                                                                                                                                                                  ",
"                                                                                                                                                                                                                                                                                                                                                                                    s Q.u                                   D.t.' ' ' ' ' ' E.                                                                                                                                                                                                                                                                                                                                                                                                                                                                                                                                    ",
"                                                                                                                                                                                                                                                                                                                                                                                    ,.' ] n o.m.                          s.>.' ' ' ' ' ' 5 }.                                                                                                                                                                                                                                                                                                                                                                                                                                                                                                                                    ",
"                                                                                                                                                                                                                                                                                                                                                                                    ,.' ' ' ' % 0.H. .w R.}.u     '.M.F.-.' ' ' ' ' ' ' ' <.                                                                                                                                                                                                                                                                                                                                                                                                                                                                                                                                      ",
"                                                                                                                                                                                                                                                                                                                                                                                    ,.' ' ' ' ' ' ' ' ' ' ' ' b.b.' ' ' ' ' ' ' ' ' ' ' {                                                                                                                                                                                                                                                                                                                                                                                                                                                                                                                                         ",
"                                                                                                                                                                                                                                                                                                                                                                                    ,.' ' ' ' ' ' ' ' ' ' ' ' ' ' ' ' ' ' ' ' ' ' ' ' T m.                                                                                                                                                                                                                                                                                                                                                                                                                                                                                                                                        ",
"                                                                                                                                                                                                                                                                                                                                                                                    6.b.' ' ' ' ' ' ' ' ' ' ' ' ' ' ' ' ' ' ' ' ' V <.                                                                                                                                                                                                                                                                                                                                                                                                                                                                                                                                            ",
"                                                                                                                                                                                                                                                                                                                                                                                      v $.G.r ' ' ' ' ' ' ' ' ' ' ' ' ' ' ' ' 8._.i.                                                                                                                                                                                                                                                                                                                                                                                                                                                                                                                                              ",
"                                                                                                                                                                                                                                                                                                                                                                                            r.7.p ;.* B.y V r 6 b.5 _ -.h $.f.                                                                                                                                                                                                                                                                                                                                                                                                                                                                                                                                                    ",
"                                                                                                                                                                                                                                                                                                                                                                                                                                                                                                                                                                                                                                                                                                                                                                                                                                                                                                                                                                                  ",
"                                                                                                                                                                                                                                                                                                                                                                                                                                                                                                                                                                                                                                                                                                                                                                                                                                                                                                                                                                                  ",
"                                                                                                                                                                                                                                                                                                                                                                                                                                                                                                                                                                                                                                                                                                                                                                                                                                                                                                                                                                                  ",
"                                                                                                                                                                                                                                                                                                                                                                                                                                                                                                                                                                                                                                                                                                                                                                                                                                                                                                                                                                                  ",
"                                                                                                                                                                                                                                                                                                                                                                                                                                                                                                                                                                                                                                                                                                                                                                                                                                                                                                                                                                                  ",
"                                                                                                                                                                                                                                                                                                                                                                                                                                                                                                                                                                                                                                                                                                                                                                                                                                                                                                                                                                                  ",
"                                                                                                                                                                                                                                                                                                                                                                                                                                                                                                                                                                                                                                                                                                                                                                                                                                                                                                                                                                                  ",
"                                                                                                                                                                                                                                                                                                                                                                                                                                                                                                                                                                                                                                                                                                                                                                                                                                                                                                                                                                                  ",
"                                                                                                                                                                                                                                                                                                                                                                                                                                                                                                                                                                                                                                                                                                                                                                                                                                                                                                                                                                                  ",
"                                                                                                                                                                                                                                                                                                                                                                                                                                                                                                                                                                                                                                                                                                                                                                                                                                                                                                                                                                                  ",
"                                                                                                                                                                                                                                                                                                                                                                                                                                                                                                                                                                                                                                                                                                                                                                                                                                                                                                                                                                                  ",
"                                                                                                                                                                                                                                                                                                                                                                                                                                                                                                                                                                                                                                                                                                                                                                                                                                                                                                                                                                                  ",
"                                                                                                                                                                                                                                                                                                                                                                                                                                                                                                                                                                                                                                                                                                                                                                                                                                                                                                                                                                                  "};
