/* XPM */
static char * exit_focus_xpm[] = {
"208 137 166 2",
"  	c #FF00FF",
". 	c #FD0EFE",
"+ 	c #D357F1",
"@ 	c #A473E4",
"# 	c #887EDE",
"$ 	c #897DDF",
"% 	c #A971E5",
"& 	c #DD4EF4",
"* 	c #FB18FE",
"= 	c #A872E5",
"- 	c #8080DD",
"; 	c #B86AE9",
"> 	c #FE06FF",
", 	c #E348F6",
"' 	c #C164EC",
") 	c #C562ED",
"! 	c #D456F1",
"~ 	c #8D7CDF",
"{ 	c #A175E3",
"] 	c #F32FFB",
"^ 	c #8180DD",
"/ 	c #EE38F9",
"( 	c #F822FD",
"_ 	c #F42EFB",
": 	c #FF03FF",
"< 	c #8F7BE0",
"[ 	c #A274E4",
"} 	c #F330FB",
"| 	c #CC5DEF",
"1 	c #C95FEE",
"2 	c #D853F2",
"3 	c #A374E4",
"4 	c #DE4DF4",
"5 	c #EC3BF9",
"6 	c #FC14FE",
"7 	c #AD70E6",
"8 	c #BE66EB",
"9 	c #A474E4",
"0 	c #B26DE8",
"a 	c #FE0BFF",
"b 	c #D555F1",
"c 	c #A573E4",
"d 	c #877EDE",
"e 	c #AA71E6",
"f 	c #F629FC",
"g 	c #B36CE8",
"h 	c #E347F6",
"i 	c #9679E1",
"j 	c #EE39F9",
"k 	c #CE5BEF",
"l 	c #FD10FE",
"m 	c #D952F2",
"n 	c #937AE1",
"o 	c #F91FFD",
"p 	c #F52AFC",
"q 	c #F035FA",
"r 	c #867EDE",
"s 	c #AE6FE7",
"t 	c #FA1BFD",
"u 	c #D258F0",
"v 	c #947AE1",
"w 	c #E742F7",
"x 	c #B16EE7",
"y 	c #FE08FF",
"z 	c #A673E5",
"A 	c #F52BFC",
"B 	c #F824FC",
"C 	c #CB5EEE",
"D 	c #C761ED",
"E 	c #CF5BEF",
"F 	c #C363EC",
"G 	c #A175E4",
"H 	c #8A7DDF",
"I 	c #F42DFB",
"J 	c #EF37F9",
"K 	c #857FDE",
"L 	c #BB68EA",
"M 	c #D754F2",
"N 	c #EF36FA",
"O 	c #9779E1",
"P 	c #FA1EFD",
"Q 	c #D556F1",
"R 	c #8280DD",
"S 	c #E841F7",
"T 	c #F232FA",
"U 	c #ED39F9",
"V 	c #847FDE",
"W 	c #C860EE",
"X 	c #9978E2",
"Y 	c #D159F0",
"Z 	c #CA5EEE",
"` 	c #F036FA",
" .	c #EC3CF8",
"..	c #837FDE",
"+.	c #FD12FE",
"@.	c #9F76E3",
"#.	c #AF6FE7",
"$.	c #CD5CEF",
"%.	c #C860ED",
"&.	c #8E7CE0",
"*.	c #E545F6",
"=.	c #EB3DF8",
"-.	c #827FDD",
";.	c #E04BF4",
">.	c #FC15FE",
",.	c #9D77E3",
"'.	c #BC67EA",
").	c #9878E2",
"!.	c #FA1CFD",
"~.	c #E940F8",
"{.	c #E940F7",
"].	c #FC17FE",
"^.	c #9A78E2",
"/.	c #CA5FEE",
"(.	c #F034FA",
"_.	c #F628FC",
":.	c #917BE0",
"<.	c #E04AF5",
"[.	c #EA3FF8",
"}.	c #8C7CDF",
"|.	c #DB51F3",
"1.	c #E446F6",
"2.	c #F823FD",
"3.	c #937AE0",
"4.	c #A972E5",
"5.	c #B56BE8",
"6.	c #A772E5",
"7.	c #9B77E2",
"8.	c #FB1AFE",
"9.	c #E14AF5",
"0.	c #BF65EB",
"a.	c #D457F1",
"b.	c #E249F5",
"c.	c #DF4CF4",
"d.	c #F726FC",
"e.	c #907BE0",
"f.	c #B969E9",
"g.	c #B06EE7",
"h.	c #AB70E6",
"i.	c #F725FC",
"j.	c #F920FD",
"k.	c #C661ED",
"l.	c #D655F2",
"m.	c #DB50F3",
"n.	c #E644F6",
"o.	c #BA69EA",
"p.	c #F134FA",
"q.	c #B46CE8",
"r.	c #F921FD",
"s.	c #B66BE9",
"t.	c #DC4FF3",
"u.	c #E93FF8",
"v.	c #DA51F3",
"w.	c #C462EC",
"x.	c #927BE0",
"y.	c #AC70E6",
"z.	c #ED3BF9",
"A.	c #E447F6",
"B.	c #D654F2",
"C.	c #D952F3",
"D.	c #D358F1",
"E.	c #CF5AF0",
"F.	c #C065EB",
"G.	c #957AE1",
"H.	c #E04BF5",
"I.	c #E842F7",
"                                                                                                                                                                                                                                                                                                                                                                                                                                ",
"                                                                                                                                                                                                                                                                                                                                                                                                                                ",
"                                                                                                                                                                                                                                                                                                                                                                                                                                ",
"                                                                                                                                                                                                                                                                                                                                                                                                                                ",
"                                                                                                                                                                                                                                                                                                                                                                                                                                ",
"                                                                                                                                                                                                                                                                                                                                                                                                                                ",
"                                                                                                                                                                                                                                                                                                                                                                                                                                ",
"                                                                                                                                                                                                                                                                                                                                                                                                                                ",
"                                                                                                                                                                                                                                                                                                                                                                                                                                ",
"                                                                                                                                                                                                                                                                                                                                                                                                                                ",
"                                                                                                                                                                                                                                                                                                                                                                                                                                ",
"                                                                                                                                                                                                                                                                                                                                                                                                                                ",
"                                                                                                                                                                                                                                                                                                                                                                                                                                ",
"                                                                                                                                                                                                                                                                                                                                                                                                                                ",
"                                                                                                                                                                                                                                                                                                                                                                                                                                ",
"                                                                                                                                                                                                                                                                                                                                                                                                                                ",
"                                                                                                                                                                                                                                                                                                                                                                                                                                ",
"                                                                                                                                                                                                                                                                                                                                                                                                                                ",
"                                                                                                                                                                                                                                                                                                                                                                                                                                ",
"                                                                                                                                                                                                                                                                                                                                                                                                                                ",
"                                                                                                                                                                                                                                                                                                                                                                                                                                ",
"                                                                                                                                                                                                                                                                                                                                                                                                                                ",
"                                                                                                                                                                                                                                                                                                                                                                                                                                ",
"                                                                                                                                                                                                                                                                                                                                                                                                                                ",
"                                                                                                                                                                                                                                                                                                                                                                                                                                ",
"                                                                                                                                                                                                                                                                                                                                                                                                                                ",
"                                                                                                                                                                                                                                                                                                                                                                                                                                ",
"                                                                                                                                                                                                                                                                                                                                                                                                                                ",
"                                                                                                                                                                                                                                                                                                                                                                                                                                ",
"                                                                                                                                                                                                                                                                                                                                                                                                                                ",
"                                                                                                                                                                                                                                                                                                                                                                                                                                ",
"                                                                                                                                                                                                                                                                      . + @ # $ % &                                                                                                                                             ",
"                                                                                                                                                                                                                                                                    * = - - - - - - ; >                                                                                                                                         ",
"                                            , - - - - - - - - - - - - - - - - - - - - - - - - - - - - - - - - - - - - - - - '                                                                                                                                       ) - - - - - - - - !                                                                                                                                         ",
"                                            , - - - - - - - - - - - - - - - - - - - - - - - - - - - - - - - - - - - - - - - '                                                                                                                                     > ~ - - - - - - - - {                                                                                                                                         ",
"                                            , - - - - - - - - - - - - - - - - - - - - - - - - - - - - - - - - - - - - - - - '                                                                                                                                     ] - - - - - - - - - ^ .                                                                                                                                       ",
"                                            , - - - - - - - - - - - - - - - - - - - - - - - - - - - - - - - - - - - - - - - '                                                                                                                                     / - - - - - - - - - - (                                                                                                                                       ",
"                                            , - - - - - - - - - - - - - - - - - - - - - - - - - - - - - - - - - - - - - - - '                                                                                                                                     _ - - - - - - - - - ^ .                                                                                                                                       ",
"                                            , - - - - - - - - - - - - - - - - - - - - - - - - - - - - - - - - - - - - - - - '                                                                                                                                     : < - - - - - - - - [                                         } | | | | |                                                                                     ",
"                                            , - - - - - - - - - - - - - - - - - - - - - - - - - - - - - - - - - - - - - - - '                                                                                                                                       1 - - - - - - - - 2                                         | - - - - -                                                                                     ",
"                                            , - - - - - - - - 3 4 4 4 4 4 4 4 4 4 4 4 4 4 4 4 4 4 4 4 4 4 4 4 4 4 4 4 4 4 4 5                                                                                                                                       6 7 - - - - - - 8 :                                         9 - - - - -                                                                                     ",
"                                            , - - - - - - - - 0                                                                                                                                                                                                       a b c d $ e 4                                           f ^ - - - - -                                                                                     ",
"                                            , - - - - - - - - 0                                                                                                                                                                                                                                                               2 - - - - - -                                                                                     ",
"                                            , - - - - - - - - 0                                                                                                                                                                                                                                                               g - - - - - -                                                                                     ",
"                                            , - - - - - - - - 0                                                                                                                                                                                                                                                             6 # - - - - - -                                                                                     ",
"                                            , - - - - - - - - 0                                                                                                                                                                                                                                                             h - - - - - - -                                                                                     ",
"                                            , - - - - - - - - 0                                                                                                                                                                                                                                                             ' - - - - - - -                                                                                     ",
"                                            , - - - - - - - - 0                                                                                                                                                                                                                                                             i - - - - - - -                                                                                     ",
"                                            , - - - - - - - - 0                                                                                                                                                                                                                                                           j - - - - - - - -                                                                                     ",
"                                            , - - - - - - - - 0                                                                                                                                                                                                                                                           k - - - - - - - -                                                                                     ",
"                                            , - - - - - - - - 0                                                                                                                                                                                                                                                       l m n - - - - - - - -                                                                                     ",
"                                            , - - - - - - - - 0                                                                               o i - - - - - - - - ~ p                                                   q r - - - - - - - - s :                     | - - - - - - - - ,                           t u v - - - - - - - - - - - - - - - - - - - - - - - - - |                                                     ",
"                                            , - - - - - - - - 0                                                                                 w ^ - - - - - - - - x                                                 y z - - - - - - - - ~ A                       | - - - - - - - - ,                       B C ~ - - - - - - - - - - - - - - - - - - - - - - - - - - - |                                                     ",
"                                            , - - - - - - - - 0                                                                                   D - - - - - - - - - 2                                               E - - - - - - - - - 4                         | - - - - - - - - ,                   f F d - - - - - - - - - - - - - - - - - - - - - - - - - - - - - |                                                     ",
"                                            , - - - - - - - - 0                                                                                   l G - - - - - - - - H I                                           J K - - - - - - - - L                           | - - - - - - - - ,                   M - - - - - - - - - - - - - - - - - - - - - - - - - - - - - - - |                                                     ",
"                                            , - - - - - - - - 0                                                                                     N r - - - - - - - - 7 :                                       . 3 - - - - - - - - O P                           | - - - - - - - - ,                   M - - - - - - - - - - - - - - - - - - - - - - - - - - - - - - - |                                                     ",
"                                            , - - - - - - - - 0                                                                                       + - - - - - - - - - Q                                       | - - - - - - - - R S                             | - - - - - - - - ,                   M - - - - - - - - - - - - - - - - - - - - - - - - - - - - - - - |                                                     ",
"                                            , - - - - - - - - 0                                                                                       : s - - - - - - - - # T                                   U V - - - - - - - - W                               | - - - - - - - - ,                   M - - - - - - - - - - - - - - - - - - - - - - - - - - - - - - - |                                                     ",
"                                            , - - - - - - - - 0                                                                                         p ~ - - - - - - - - = >                               l { - - - - - - - - [ l                               | - - - - - - - - ,                   } 4 4 4 4 4 4 4 X - - - - - - - - 4 4 4 4 4 4 4 4 4 4 4 4 4 4 4 N                                                     ",
"                                            , - - - - - - - - 0                                                                                           4 - - - - - - - - - Y                               Z - - - - - - - - d `                                 | - - - - - - - - ,                                   @ - - - - - - - -                                                                                     ",
"                                            , - - - - - - - - 0                                                                                             L - - - - - - - - r `                            ...- - - - - - - - !                                   | - - - - - - - - ,                                   @ - - - - - - - -                                                                                     ",
"                                            , - - - - - - - - 0                                                                                             P O - - - - - - - - @ a                       +.@.- - - - - - - - #.:                                   | - - - - - - - - ,                                   @ - - - - - - - -                                                                                     ",
"                                            , - - - - - - - - 0                                                                                               S R - - - - - - - - $.                      %.- - - - - - - - &.f                                     | - - - - - - - - ,                                   @ - - - - - - - -                                                                                     ",
"                                            , - - - - - - - - 3 4 4 4 4 4 4 4 4 4 4 4 4 4 4 4 4 4 4 4 4 4 4 4 4 4 4 4 4 *.                                      W - - - - - - - - V U                   =.-.- - - - - - - - ;.                                      | - - - - - - - - ,                                   @ - - - - - - - -                                                                                     ",
"                                            , - - - - - - - - - - - - - - - - - - - - - - - - - - - - - - - - - - - - - @                                       l [ - - - - - - - - { l               >.,.- - - - - - - - '.                                        | - - - - - - - - ,                                   @ - - - - - - - -                                                                                     ",
"                                            , - - - - - - - - - - - - - - - - - - - - - - - - - - - - - - - - - - - - - @                                         q d - - - - - - - - 1               ) - - - - - - - - ).!.                                        | - - - - - - - - ,                                   @ - - - - - - - -                                                                                     ",
"                                            , - - - - - - - - - - - - - - - - - - - - - - - - - - - - - - - - - - - - - @                                           ! - - - - - - - - -.=.          ~.R - - - - - - - R {.                                          | - - - - - - - - ,                                   @ - - - - - - - -                                                                                     ",
"                                            , - - - - - - - - - - - - - - - - - - - - - - - - - - - - - - - - - - - - - @                                           : #.- - - - - - - - ,.>.      ].^.- - - - - - - - /.                                            | - - - - - - - - ,                                   @ - - - - - - - -                                                                                     ",
"                                            , - - - - - - - - - - - - - - - - - - - - - - - - - - - - - - - - - - - - - @                                             f &.- - - - - - - - )       F - - - - - - - - 9 .                                             | - - - - - - - - ,                                   @ - - - - - - - -                                                                                     ",
"                                            , - - - - - - - - - - - - - - - - - - - - - - - - - - - - - - - - - - - - - @                                               ;.- - - - - - - - ^ S   w ^ - - - - - - - d (.                                              | - - - - - - - - ,                                   @ - - - - - - - -                                                                                     ",
"                                            , - - - - - - - - - - - - - - - - - - - - - - - - - - - - - - - - - - - - - @                                                 '.- - - - - - - - X _.).- - - - - - - - b                                                 | - - - - - - - - ,                                   @ - - - - - - - -                                                                                     ",
"                                            , - - - - - - - - 0                                                                                                           !.).- - - - - - - - :.- - - - - - - - x                                                   | - - - - - - - - ,                                   @ - - - - - - - -                                                                                     ",
"                                            , - - - - - - - - 0                                                                                                             ~.R - - - - - - - - - - - - - - - < _.                                                  | - - - - - - - - ,                                   @ - - - - - - - -                                                                                     ",
"                                            , - - - - - - - - 0                                                                                                               /.- - - - - - - - - - - - - - - <.                                                    | - - - - - - - - ,                                   @ - - - - - - - -                                                                                     ",
"                                            , - - - - - - - - 0                                                                                                               . 9 - - - - - - - - - - - - - 8                                                       | - - - - - - - - ,                                   @ - - - - - - - -                                                                                     ",
"                                            , - - - - - - - - 0                                                                                                                 (.d - - - - - - - - - - - X t                                                       | - - - - - - - - ,                                   @ - - - - - - - -                                                                                     ",
"                                            , - - - - - - - - 0                                                                                                                   b - - - - - - - - - - -.[.                                                        | - - - - - - - - ,                                   @ - - - - - - - -                                                                                     ",
"                                            , - - - - - - - - 0                                                                                                                   ].}.- - - - - - - - - =                                                           | - - - - - - - - ,                                   @ - - - - - - - -                                                                                     ",
"                                            , - - - - - - - - 0                                                                                                                   F - - - - - - - - - - - |.                                                        | - - - - - - - - ,                                   @ - - - - - - - -                                                                                     ",
"                                            , - - - - - - - - 0                                                                                                                 1.- - - - - - - - - - - - H ]                                                       | - - - - - - - - ,                                   @ - - - - - - - -                                                                                     ",
"                                            , - - - - - - - - 0                                                                                                               2.3.- - - - - - - - - - - - - 4.y                                                     | - - - - - - - - ,                                   @ - - - - - - - -                                                                                     ",
"                                            , - - - - - - - - 0                                                                                                               5.- - - - - - - - - - - - - - - $.                                                    | - - - - - - - - ,                                   @ - - - - - - - -                                                                                     ",
"                                            , - - - - - - - - 0                                                                                                             m - - - - - - - - - - - - - - - - ..=.                                                  | - - - - - - - - ,                                   @ - - - - - - - -                                                                                     ",
"                                            , - - - - - - - - 0                                                                                                           } H - - - - - - - - 6.- - - - - - - - 7.8.                                                | - - - - - - - - ,                                   @ - - - - - - - -                                                                                     ",
"                                            , - - - - - - - - 0                                                                                                         y 6.- - - - - - - - e . 4.- - - - - - - - 8                                                 | - - - - - - - - ,                                   @ - - - - - - - -                                                                                     ",
"                                            , - - - - - - - - 0                                                                                                         | - - - - - - - - H ]   T # - - - - - - - - 9.                                              | - - - - - - - - ,                                   @ - - - - - - - -                                                                                     ",
"                                            , - - - - - - - - 0                                                                                                       =...- - - - - - - - 2       ! - - - - - - - - < _.                                            | - - - - - - - - ,                                   @ - - - - - - - -                                                                                     ",
"                                            , - - - - - - - - 0                                                                                                     * 7.- - - - - - - - 0         : 7 - - - - - - - - #.:                                           | - - - - - - - - ,                                   @ - - - - - - - -                                                                                     ",
"                                            , - - - - - - - - 0                                                                                                     0.- - - - - - - - &._.          _ H - - - - - - - - a.                                          | - - - - - - - - ,                                   @ - - - - - - - -                                                                                     ",
"                                            , - - - - - - - - 0                                                                                                   b.- - - - - - - - - c.              2 - - - - - - - - r N                                         | - - - - - - - - ,                                   z - - - - - - - - l                                                                                   ",
"                                            , - - - - - - - - 0                                                                                                 d.e.- - - - - - - - f.                  g.- - - - - - - - { +.                                      | - - - - - - - - ,                                   h.- - - - - - - - i.                                                                                  ",
"                                            , - - - - - - - - 0                                                                                                 0 - - - - - - - - v j.                  p ~ - - - - - - - - k.                                      | - - - - - - - - ,                                   0 - - - - - - - - J                                                                                   ",
"                                            , - - - - - - - - 0                                                                                               l.- - - - - - - - - 1.                      m.- - - - - - - - ^ n.                                    | - - - - - - - - ,                                   o.- - - - - - - - m                                                                                   ",
"                                            , - - - - - - - - 0                                                                                             p.d - - - - - - - - '                           q.- - - - - - - - v r.                                  | - - - - - - - - ,                                   C - - - - - - - - ;                                                                                   ",
"                                            , - - - - - - - - 0                                                                                           . 9 - - - - - - - - ^.*                           d.< - - - - - - - - s.                                  | - - - - - - - - ,                                   t.- - - - - - - - ..A                                                                                 ",
"                                            , - - - - - - - - 0                                                                                           1 - - - - - - - - R u.                              c.- - - - - - - - - v.                                | - - - - - - - - ,                                   q - - - - - - - - - q.:                                                                               ",
"                                            , - - - - - - - - 0                                                                                         {.R - - - - - - - - W                                   ; - - - - - - - - H }                               | - - - - - - - - ,                                     O - - - - - - - - - w.y                                                                             ",
"                                            , - - - - - - - - 3 4 4 4 4 4 4 4 4 4 4 4 4 4 4 4 4 4 4 4 4 4 4 4 4 4 4 4 4 4 4 5                         !.O - - - - - - - - { l                                   ( x.- - - - - - - - 6.a                             | - - - - - - - - ,                                     ) - - - - - - - - - - y.z.                  i.A.                                                    ",
"                                            , - - - - - - - - - - - - - - - - - - - - - - - - - - - - - - - - - - - - - - - '                         L - - - - - - - - V /                                       b.- - - - - - - - - |                             | - - - - - - - - ,                                     _ ..- - - - - - - - - - - @ W B.& C.D.) g O - x.                                                    ",
"                                            , - - - - - - - - - - - - - - - - - - - - - - - - - - - - - - - - - - - - - - - '                       c.- - - - - - - - - E.                                          '.- - - - - - - - -.=.                          | - - - - - - - - ,                                       F.- - - - - - - - - - - - - - - - - - - - - x.                                                    ",
"                                            , - - - - - - - - - - - - - - - - - - - - - - - - - - - - - - - - - - - - - - - '                     A ~ - - - - - - - - 6.y                                           o G.- - - - - - - - ^.8.                        | - - - - - - - - ,                                       t X - - - - - - - - - - - - - - - - - - - - x.                                                    ",
"                                            , - - - - - - - - - - - - - - - - - - - - - - - - - - - - - - - - - - - - - - - '                   : s - - - - - - - - # T                                               *.- - - - - - - - - 8                         | - - - - - - - - ,                                         / ~ - - - - - - - - - - - - - - - - - - - x.                                                    ",
"                                            , - - - - - - - - - - - - - - - - - - - - - - - - - - - - - - - - - - - - - - - '                   u - - - - - - - - - l.                                                  F.- - - - - - - - - H.                      | - - - - - - - - ,                                           5 x.- - - - - - - - - - - - - - - - - - x.                                                    ",
"                                            , - - - - - - - - - - - - - - - - - - - - - - - - - - - - - - - - - - - - - - - '                 J r - - - - - - - - #.:                                                   8.).- - - - - - - - &.p                     | - - - - - - - - ,                                             d.0 - - - - - - - - - - - - - - - - - x.                                                    ",
"                                            , - - - - - - - - - - - - - - - - - - - - - - - - - - - - - - - - - - - - - - - '               +.{ - - - - - - - - ~ A                                                       I.^ - - - - - - - - s :                   | - - - - - - - - ,                                                 {.5.r - - - - - - - - - - - - - e.1                                                     ",
"                                                                                                                                                                                                                                                                                                                                            P <.k.#.^.}...K ~ ^.s F.Q  .y                                                       ",
"                                                                                                                                                                                                                                                                                                                                                                                                                                ",
"                                                                                                                                                                                                                                                                                                                                                                                                                                ",
"                                                                                                                                                                                                                                                                                                                                                                                                                                ",
"                                                                                                                                                                                                                                                                                                                                                                                                                                ",
"                                                                                                                                                                                                                                                                                                                                                                                                                                ",
"                                                                                                                                                                                                                                                                                                                                                                                                                                ",
"                                                                                                                                                                                                                                                                                                                                                                                                                                ",
"                                                                                                                                                                                                                                                                                                                                                                                                                                ",
"                                                                                                                                                                                                                                                                                                                                                                                                                                ",
"                                                                                                                                                                                                                                                                                                                                                                                                                                ",
"                                                                                                                                                                                                                                                                                                                                                                                                                                ",
"                                                                                                                                                                                                                                                                                                                                                                                                                                ",
"                                                                                                                                                                                                                                                                                                                                                                                                                                ",
"                                                                                                                                                                                                                                                                                                                                                                                                                                ",
"                                                                                                                                                                                                                                                                                                                                                                                                                                ",
"                                                                                                                                                                                                                                                                                                                                                                                                                                ",
"                                                                                                                                                                                                                                                                                                                                                                                                                                ",
"                                                                                                                                                                                                                                                                                                                                                                                                                                ",
"                                                                                                                                                                                                                                                                                                                                                                                                                                ",
"                                                                                                                                                                                                                                                                                                                                                                                                                                ",
"                                                                                                                                                                                                                                                                                                                                                                                                                                ",
"                                                                                                                                                                                                                                                                                                                                                                                                                                ",
"                                                                                                                                                                                                                                                                                                                                                                                                                                ",
"                                                                                                                                                                                                                                                                                                                                                                                                                                ",
"                                                                                                                                                                                                                                                                                                                                                                                                                                ",
"                                                                                                                                                                                                                                                                                                                                                                                                                                ",
"                                                                                                                                                                                                                                                                                                                                                                                                                                ",
"                                                                                                                                                                                                                                                                                                                                                                                                                                ",
"                                                                                                                                                                                                                                                                                                                                                                                                                                ",
"                                                                                                                                                                                                                                                                                                                                                                                                                                ",
"                                                                                                                                                                                                                                                                                                                                                                                                                                "};
