/* XPM */
static char * exit_xpm[] = {
"208 137 153 2",
"  	c #FF00FF",
". 	c #FF26FF",
"+ 	c #FFB2FF",
"@ 	c #FFE7FF",
"# 	c #FFFBFF",
"$ 	c #FFFAFF",
"% 	c #FFE3FF",
"& 	c #FFA1FF",
"* 	c #FF3BFF",
"= 	c #FFE4FF",
"- 	c #FFFFFF",
"; 	c #FFD5FF",
"> 	c #FF16FF",
", 	c #FF94FF",
"' 	c #FFCBFF",
") 	c #FFC5FF",
"! 	c #FFAFFF",
"~ 	c #FFF8FF",
"{ 	c #FFEAFF",
"] 	c #FF65FF",
"^ 	c #FF77FF",
"/ 	c #FF4DFF",
"( 	c #FF63FF",
"_ 	c #FF0DFF",
": 	c #FFF6FF",
"< 	c #FFE9FF",
"[ 	c #FF68FF",
"} 	c #FFBCFF",
"| 	c #FFC1FF",
"1 	c #FFA9FF",
"2 	c #FFBDFF",
"3 	c #FFE8FF",
"4 	c #FF9FFF",
"5 	c #FF7DFF",
"6 	c #FF32FF",
"7 	c #FFE0FF",
"8 	c #FFCEFF",
"9 	c #FFDBFF",
"0 	c #FF22FF",
"a 	c #FFAEFF",
"b 	c #FF9EFF",
"c 	c #FF5AFF",
"d 	c #FFAAFF",
"e 	c #FFDAFF",
"f 	c #FFCAFF",
"g 	c #FFF2FF",
"h 	c #FF78FF",
"i 	c #FFB9FF",
"j 	c #FF2AFF",
"k 	c #FFA8FF",
"l 	c #FFF4FF",
"m 	c #FF47FF",
"n 	c #FF5CFF",
"o 	c #FF71FF",
"p 	c #FFFCFF",
"q 	c #FFDFFF",
"r 	c #FF40FF",
"s 	c #FFB4FF",
"t 	c #FFF3FF",
"u 	c #FF8AFF",
"v 	c #FFDCFF",
"w 	c #FF1CFF",
"x 	c #FFE6FF",
"y 	c #FFF7FF",
"z 	c #FF5DFF",
"A 	c #FF51FF",
"B 	c #FFBEFF",
"C 	c #FFC4FF",
"D 	c #FFC8FF",
"E 	c #FFF9FF",
"F 	c #FF62FF",
"G 	c #FF75FF",
"H 	c #FFD1FF",
"I 	c #FFABFF",
"J 	c #FF73FF",
"K 	c #FFF1FF",
"L 	c #FF45FF",
"M 	c #FFFEFF",
"N 	c #FF87FF",
"O 	c #FF6AFF",
"P 	c #FF79FF",
"Q 	c #FFFDFF",
"R 	c #FFC2FF",
"S 	c #FFEFFF",
"T 	c #FFB5FF",
"U 	c #FFBFFF",
"V 	c #FF72FF",
"W 	c #FF7EFF",
"X 	c #FF2EFF",
"Y 	c #FFECFF",
"Z 	c #FFDEFF",
"` 	c #FFBBFF",
" .	c #FF8FFF",
"..	c #FF81FF",
"+.	c #FF9BFF",
"@.	c #FF35FF",
"#.	c #FFEDFF",
"$.	c #FFD0FF",
"%.	c #FFC0FF",
"&.	c #FFF0FF",
"*.	c #FF42FF",
"=.	c #FFB0FF",
"-.	c #FF80FF",
";.	c #FF85FF",
">.	c #FF86FF",
",.	c #FF38FF",
"'.	c #FF88FF",
").	c #FF70FF",
"!.	c #FF58FF",
"~.	c #FFF5FF",
"{.	c #FF9AFF",
"].	c #FF83FF",
"^.	c #FFA5FF",
"/.	c #FF91FF",
"(.	c #FF66FF",
"_.	c #FF4FFF",
":.	c #FFD8FF",
"<.	c #FFE5FF",
"[.	c #FFEEFF",
"}.	c #FF3DFF",
"|.	c #FFE2FF",
"1.	c #FF99FF",
"2.	c #FFCDFF",
"3.	c #FFB1FF",
"4.	c #FF97FF",
"5.	c #FF9DFF",
"6.	c #FF55FF",
"7.	c #FFD4FF",
"8.	c #FFDDFF",
"9.	c #FFE1FF",
"0.	c #FF53FF",
"a.	c #FF49FF",
"b.	c #FFADFF",
"c.	c #FFA3FF",
"d.	c #FF8EFF",
"e.	c #FFD3FF",
"f.	c #FF6EFF",
"g.	c #FF4BFF",
"h.	c #FFD7FF",
"i.	c #FFA2FF",
"j.	c #FF84FF",
"k.	c #FFA6FF",
"l.	c #FFD9FF",
"m.	c #FFC7FF",
"n.	c #FFC6FF",
"o.	c #FF7CFF",
"p.	c #FF93FF",
"q.	c #FF96FF",
"r.	c #FFA7FF",
"s.	c #FFB8FF",
"t.	c #FF90FF",
"u.	c #FFB3FF",
"v.	c #FF89FF",
"                                                                                                                                                                                                                                                                                                                                                                                                                                ",
"                                                                                                                                                                                                                                                                                                                                                                                                                                ",
"                                                                                                                                                                                                                                                                                                                                                                                                                                ",
"                                                                                                                                                                                                                                                                                                                                                                                                                                ",
"                                                                                                                                                                                                                                                                                                                                                                                                                                ",
"                                                                                                                                                                                                                                                                                                                                                                                                                                ",
"                                                                                                                                                                                                                                                                                                                                                                                                                                ",
"                                                                                                                                                                                                                                                                                                                                                                                                                                ",
"                                                                                                                                                                                                                                                                                                                                                                                                                                ",
"                                                                                                                                                                                                                                                                                                                                                                                                                                ",
"                                                                                                                                                                                                                                                                                                                                                                                                                                ",
"                                                                                                                                                                                                                                                                                                                                                                                                                                ",
"                                                                                                                                                                                                                                                                                                                                                                                                                                ",
"                                                                                                                                                                                                                                                                                                                                                                                                                                ",
"                                                                                                                                                                                                                                                                                                                                                                                                                                ",
"                                                                                                                                                                                                                                                                                                                                                                                                                                ",
"                                                                                                                                                                                                                                                                                                                                                                                                                                ",
"                                                                                                                                                                                                                                                                                                                                                                                                                                ",
"                                                                                                                                                                                                                                                                                                                                                                                                                                ",
"                                                                                                                                                                                                                                                                                                                                                                                                                                ",
"                                                                                                                                                                                                                                                                                                                                                                                                                                ",
"                                                                                                                                                                                                                                                                                                                                                                                                                                ",
"                                                                                                                                                                                                                                                                                                                                                                                                                                ",
"                                                                                                                                                                                                                                                                                                                                                                                                                                ",
"                                                                                                                                                                                                                                                                                                                                                                                                                                ",
"                                                                                                                                                                                                                                                                                                                                                                                                                                ",
"                                                                                                                                                                                                                                                                                                                                                                                                                                ",
"                                                                                                                                                                                                                                                                                                                                                                                                                                ",
"                                                                                                                                                                                                                                                                                                                                                                                                                                ",
"                                                                                                                                                                                                                                                                                                                                                                                                                                ",
"                                                                                                                                                                                                                                                                                                                                                                                                                                ",
"                                                                                                                                                                                                                                                                      . + @ # $ % &                                                                                                                                             ",
"                                                                                                                                                                                                                                                                    * = - - - - - - ; >                                                                                                                                         ",
"                                            , - - - - - - - - - - - - - - - - - - - - - - - - - - - - - - - - - - - - - - - '                                                                                                                                       ) - - - - - - - - !                                                                                                                                         ",
"                                            , - - - - - - - - - - - - - - - - - - - - - - - - - - - - - - - - - - - - - - - '                                                                                                                                     > ~ - - - - - - - - {                                                                                                                                         ",
"                                            , - - - - - - - - - - - - - - - - - - - - - - - - - - - - - - - - - - - - - - - '                                                                                                                                     ] - - - - - - - - - - .                                                                                                                                       ",
"                                            , - - - - - - - - - - - - - - - - - - - - - - - - - - - - - - - - - - - - - - - '                                                                                                                                     ^ - - - - - - - - - - /                                                                                                                                       ",
"                                            , - - - - - - - - - - - - - - - - - - - - - - - - - - - - - - - - - - - - - - - '                                                                                                                                     ( - - - - - - - - - - .                                                                                                                                       ",
"                                            , - - - - - - - - - - - - - - - - - - - - - - - - - - - - - - - - - - - - - - - '                                                                                                                                     _ : - - - - - - - - <                                         [ } } } } }                                                                                     ",
"                                            , - - - - - - - - - - - - - - - - - - - - - - - - - - - - - - - - - - - - - - - '                                                                                                                                       | - - - - - - - - 1                                         2 - - - - -                                                                                     ",
"                                            , - - - - - - - - 3 4 4 4 4 4 4 4 4 4 4 4 4 4 4 4 4 4 4 4 4 4 4 4 4 4 4 4 4 4 4 5                                                                                                                                       6 7 - - - - - - 8 _                                         3 - - - - -                                                                                     ",
"                                            , - - - - - - - - 9                                                                                                                                                                                                       0 a @ # $ % b                                           c - - - - - -                                                                                     ",
"                                            , - - - - - - - - 9                                                                                                                                                                                                                                                               d - - - - - -                                                                                     ",
"                                            , - - - - - - - - 9                                                                                                                                                                                                                                                               e - - - - - -                                                                                     ",
"                                            , - - - - - - - - 9                                                                                                                                                                                                                                                             6 # - - - - - -                                                                                     ",
"                                            , - - - - - - - - 9                                                                                                                                                                                                                                                             , - - - - - - -                                                                                     ",
"                                            , - - - - - - - - 9                                                                                                                                                                                                                                                             f - - - - - - -                                                                                     ",
"                                            , - - - - - - - - 9                                                                                                                                                                                                                                                             g - - - - - - -                                                                                     ",
"                                            , - - - - - - - - 9                                                                                                                                                                                                                                                           h - - - - - - - -                                                                                     ",
"                                            , - - - - - - - - 9                                                                                                                                                                                                                                                           i - - - - - - - -                                                                                     ",
"                                            , - - - - - - - - 9                                                                                                                                                                                                                                                       j k l - - - - - - - -                                                                                     ",
"                                            , - - - - - - - - 9                                                                               m g - - - - - - - - ~ n                                                   o p - - - - - - - - q _                     } - - - - - - - - ,                           r s t - - - - - - - - - - - - - - - - - - - - - - - - - }                                                     ",
"                                            , - - - - - - - - 9                                                                                 u - - - - - - - - - v                                                 w x - - - - - - - - y z                       } - - - - - - - - ,                       A B ~ - - - - - - - - - - - - - - - - - - - - - - - - - - - }                                                     ",
"                                            , - - - - - - - - 9                                                                                   C - - - - - - - - - 1                                               i - - - - - - - - - b                         } - - - - - - - - ,                   c D # - - - - - - - - - - - - - - - - - - - - - - - - - - - - - }                                                     ",
"                                            , - - - - - - - - 9                                                                                   j { - - - - - - - - E F                                           G p - - - - - - - - H                           } - - - - - - - - ,                   I - - - - - - - - - - - - - - - - - - - - - - - - - - - - - - - }                                                     ",
"                                            , - - - - - - - - 9                                                                                     J p - - - - - - - - 7 _                                       . 3 - - - - - - - - K L                           } - - - - - - - - ,                   I - - - - - - - - - - - - - - - - - - - - - - - - - - - - - - - }                                                     ",
"                                            , - - - - - - - - 9                                                                                       + - - - - - - - - - !                                       } - - - - - - - - M N                             } - - - - - - - - ,                   I - - - - - - - - - - - - - - - - - - - - - - - - - - - - - - - }                                                     ",
"                                            , - - - - - - - - 9                                                                                       _ q - - - - - - - - # O                                   P Q - - - - - - - - R                               } - - - - - - - - ,                   I - - - - - - - - - - - - - - - - - - - - - - - - - - - - - - - }                                                     ",
"                                            , - - - - - - - - 9                                                                                         n y - - - - - - - - = >                               j { - - - - - - - - < j                               } - - - - - - - - ,                   [ 4 4 4 4 4 4 4 S - - - - - - - - 4 4 4 4 4 4 4 4 4 4 4 4 4 4 4 J                                                     ",
"                                            , - - - - - - - - 9                                                                                           b - - - - - - - - - T                               U - - - - - - - - # V                                 } - - - - - - - - ,                                   @ - - - - - - - -                                                                                     ",
"                                            , - - - - - - - - 9                                                                                             H - - - - - - - - p V                           W Q - - - - - - - - !                                   } - - - - - - - - ,                                   @ - - - - - - - -                                                                                     ",
"                                            , - - - - - - - - 9                                                                                             L K - - - - - - - - @ 0                       X Y - - - - - - - - Z _                                   } - - - - - - - - ,                                   @ - - - - - - - -                                                                                     ",
"                                            , - - - - - - - - 9                                                                                               N M - - - - - - - - `                       R - - - - - - - - y c                                     } - - - - - - - - ,                                   @ - - - - - - - -                                                                                     ",
"                                            , - - - - - - - - 3 4 4 4 4 4 4 4 4 4 4 4 4 4 4 4 4 4 4 4 4 4 4 4 4 4 4 4 4  .                                      R - - - - - - - - Q P                   ..M - - - - - - - - +.                                      } - - - - - - - - ,                                   @ - - - - - - - -                                                                                     ",
"                                            , - - - - - - - - - - - - - - - - - - - - - - - - - - - - - - - - - - - - - @                                       j < - - - - - - - - { j               @.#.- - - - - - - - $.                                        } - - - - - - - - ,                                   @ - - - - - - - -                                                                                     ",
"                                            , - - - - - - - - - - - - - - - - - - - - - - - - - - - - - - - - - - - - - @                                         o # - - - - - - - - %.              ) - - - - - - - - &.*.                                        } - - - - - - - - ,                                   @ - - - - - - - -                                                                                     ",
"                                            , - - - - - - - - - - - - - - - - - - - - - - - - - - - - - - - - - - - - - @                                           =.- - - - - - - - M -.          ;.M - - - - - - - M >.                                          } - - - - - - - - ,                                   @ - - - - - - - -                                                                                     ",
"                                            , - - - - - - - - - - - - - - - - - - - - - - - - - - - - - - - - - - - - - @                                           _ Z - - - - - - - - #.@.      ,.S - - - - - - - - %.                                            } - - - - - - - - ,                                   @ - - - - - - - -                                                                                     ",
"                                            , - - - - - - - - - - - - - - - - - - - - - - - - - - - - - - - - - - - - - @                                             c y - - - - - - - - )       D - - - - - - - - 3 .                                             } - - - - - - - - ,                                   @ - - - - - - - -                                                                                     ",
"                                            , - - - - - - - - - - - - - - - - - - - - - - - - - - - - - - - - - - - - - @                                               +.- - - - - - - - - '.  u - - - - - - - - # ).                                              } - - - - - - - - ,                                   @ - - - - - - - -                                                                                     ",
"                                            , - - - - - - - - - - - - - - - - - - - - - - - - - - - - - - - - - - - - - @                                                 $.- - - - - - - - &.!.&.- - - - - - - - a                                                 } - - - - - - - - ,                                   @ - - - - - - - -                                                                                     ",
"                                            , - - - - - - - - 9                                                                                                           *.&.- - - - - - - - ~.- - - - - - - - v                                                   } - - - - - - - - ,                                   @ - - - - - - - -                                                                                     ",
"                                            , - - - - - - - - 9                                                                                                             ;.M - - - - - - - - - - - - - - - : !.                                                  } - - - - - - - - ,                                   @ - - - - - - - -                                                                                     ",
"                                            , - - - - - - - - 9                                                                                                               %.- - - - - - - - - - - - - - - {.                                                    } - - - - - - - - ,                                   @ - - - - - - - -                                                                                     ",
"                                            , - - - - - - - - 9                                                                                                               . 3 - - - - - - - - - - - - - 8                                                       } - - - - - - - - ,                                   @ - - - - - - - -                                                                                     ",
"                                            , - - - - - - - - 9                                                                                                                 ).# - - - - - - - - - - - S r                                                       } - - - - - - - - ,                                   @ - - - - - - - -                                                                                     ",
"                                            , - - - - - - - - 9                                                                                                                   a - - - - - - - - - - M ].                                                        } - - - - - - - - ,                                   @ - - - - - - - -                                                                                     ",
"                                            , - - - - - - - - 9                                                                                                                   ,.~ - - - - - - - - - =                                                           } - - - - - - - - ,                                   @ - - - - - - - -                                                                                     ",
"                                            , - - - - - - - - 9                                                                                                                   D - - - - - - - - - - - ^.                                                        } - - - - - - - - ,                                   @ - - - - - - - -                                                                                     ",
"                                            , - - - - - - - - 9                                                                                                                 /.- - - - - - - - - - - - E (.                                                      } - - - - - - - - ,                                   @ - - - - - - - -                                                                                     ",
"                                            , - - - - - - - - 9                                                                                                               _.l - - - - - - - - - - - - - = w                                                     } - - - - - - - - ,                                   @ - - - - - - - -                                                                                     ",
"                                            , - - - - - - - - 9                                                                                                               :.- - - - - - - - - - - - - - - `                                                     } - - - - - - - - ,                                   @ - - - - - - - -                                                                                     ",
"                                            , - - - - - - - - 9                                                                                                             k - - - - - - - - - - - - - - - - Q -.                                                  } - - - - - - - - ,                                   @ - - - - - - - -                                                                                     ",
"                                            , - - - - - - - - 9                                                                                                           [ $ - - - - - - - - <.- - - - - - - - [.}.                                                } - - - - - - - - ,                                   @ - - - - - - - -                                                                                     ",
"                                            , - - - - - - - - 9                                                                                                         w <.- - - - - - - - |.. = - - - - - - - - 8                                                 } - - - - - - - - ,                                   @ - - - - - - - -                                                                                     ",
"                                            , - - - - - - - - 9                                                                                                         } - - - - - - - - $ (.  O # - - - - - - - - 1.                                              } - - - - - - - - ,                                   @ - - - - - - - -                                                                                     ",
"                                            , - - - - - - - - 9                                                                                                       -.Q - - - - - - - - 1       ! - - - - - - - - : !.                                            } - - - - - - - - ,                                   @ - - - - - - - -                                                                                     ",
"                                            , - - - - - - - - 9                                                                                                     * [.- - - - - - - - 9         _ 7 - - - - - - - - Z _                                           } - - - - - - - - ,                                   @ - - - - - - - -                                                                                     ",
"                                            , - - - - - - - - 9                                                                                                     2.- - - - - - - - y !.          ( E - - - - - - - - 3.                                          } - - - - - - - - ,                                   @ - - - - - - - -                                                                                     ",
"                                            , - - - - - - - - 9                                                                                                   4.- - - - - - - - - 5.              d - - - - - - - - p J                                         } - - - - - - - - ,                                   x - - - - - - - - j                                                                                   ",
"                                            , - - - - - - - - 9                                                                                                 6.: - - - - - - - - 7.                  8.- - - - - - - - { X                                       } - - - - - - - - ,                                   9.- - - - - - - - 0.                                                                                  ",
"                                            , - - - - - - - - 9                                                                                                 9 - - - - - - - - t a.                  n ~ - - - - - - - - )                                       } - - - - - - - - ,                                   9 - - - - - - - - G                                                                                   ",
"                                            , - - - - - - - - 9                                                                                               b.- - - - - - - - - /.                      c.- - - - - - - - - d.                                    } - - - - - - - - ,                                   e.- - - - - - - - k                                                                                   ",
"                                            , - - - - - - - - 9                                                                                             f.# - - - - - - - - '                           :.- - - - - - - - t g.                                  } - - - - - - - - ,                                   B - - - - - - - - ;                                                                                   ",
"                                            , - - - - - - - - 9                                                                                           . 3 - - - - - - - - S *                           6.: - - - - - - - - h.                                  } - - - - - - - - ,                                   i.- - - - - - - - Q z                                                                                 ",
"                                            , - - - - - - - - 9                                                                                           %.- - - - - - - - M j.                              5.- - - - - - - - - k.                                } - - - - - - - - ,                                   o - - - - - - - - - l._                                                                               ",
"                                            , - - - - - - - - 9                                                                                         >.M - - - - - - - - R                                   ; - - - - - - - - $ [                               } - - - - - - - - ,                                     K - - - - - - - - - m.w                                                                             ",
"                                            , - - - - - - - - 3 4 4 4 4 4 4 4 4 4 4 4 4 4 4 4 4 4 4 4 4 4 4 4 4 4 4 4 4 4 4 5                         *.K - - - - - - - - { j                                   / ~.- - - - - - - - <.0                             } - - - - - - - - ,                                     n.- - - - - - - - - - 7 o.                  0.p.                                                    ",
"                                            , - - - - - - - - - - - - - - - - - - - - - - - - - - - - - - - - - - - - - - - '                         H - - - - - - - - Q ^                                       q.- - - - - - - - - }                             } - - - - - - - - ,                                     ( Q - - - - - - - - - - - @ R b.& r.+ n.e K - ~.                                                    ",
"                                            , - - - - - - - - - - - - - - - - - - - - - - - - - - - - - - - - - - - - - - - '                       5.- - - - - - - - - s.                                          $.- - - - - - - - M ..                          } - - - - - - - - ,                                       ' - - - - - - - - - - - - - - - - - - - - - ~.                                                    ",
"                                            , - - - - - - - - - - - - - - - - - - - - - - - - - - - - - - - - - - - - - - - '                     z y - - - - - - - - <.w                                           m t - - - - - - - - S }.                        } - - - - - - - - ,                                       r S - - - - - - - - - - - - - - - - - - - - ~.                                                    ",
"                                            , - - - - - - - - - - - - - - - - - - - - - - - - - - - - - - - - - - - - - - - '                   _ q - - - - - - - - # O                                               t.- - - - - - - - - 8                         } - - - - - - - - ,                                         ^ y - - - - - - - - - - - - - - - - - - - ~.                                                    ",
"                                            , - - - - - - - - - - - - - - - - - - - - - - - - - - - - - - - - - - - - - - - '                   u.- - - - - - - - - b.                                                  ' - - - - - - - - - +.                      } - - - - - - - - ,                                           5 ~.- - - - - - - - - - - - - - - - - - ~.                                                    ",
"                                            , - - - - - - - - - - - - - - - - - - - - - - - - - - - - - - - - - - - - - - - '                 G p - - - - - - - - Z _                                                   }.&.- - - - - - - - y n                     } - - - - - - - - ,                                             6.9 - - - - - - - - - - - - - - - - - ~.                                                    ",
"                                            , - - - - - - - - - - - - - - - - - - - - - - - - - - - - - - - - - - - - - - - '               X { - - - - - - - - ~ z                                                       v.- - - - - - - - - Z _                   } - - - - - - - - ,                                                 >.:.p - - - - - - - - - - - - - : %.                                                    ",
"                                                                                                                                                                                                                                                                                                                                            L {.C Z S ~ Q p y S q ' ! W w                                                       ",
"                                                                                                                                                                                                                                                                                                                                                                                                                                ",
"                                                                                                                                                                                                                                                                                                                                                                                                                                ",
"                                                                                                                                                                                                                                                                                                                                                                                                                                ",
"                                                                                                                                                                                                                                                                                                                                                                                                                                ",
"                                                                                                                                                                                                                                                                                                                                                                                                                                ",
"                                                                                                                                                                                                                                                                                                                                                                                                                                ",
"                                                                                                                                                                                                                                                                                                                                                                                                                                ",
"                                                                                                                                                                                                                                                                                                                                                                                                                                ",
"                                                                                                                                                                                                                                                                                                                                                                                                                                ",
"                                                                                                                                                                                                                                                                                                                                                                                                                                ",
"                                                                                                                                                                                                                                                                                                                                                                                                                                ",
"                                                                                                                                                                                                                                                                                                                                                                                                                                ",
"                                                                                                                                                                                                                                                                                                                                                                                                                                ",
"                                                                                                                                                                                                                                                                                                                                                                                                                                ",
"                                                                                                                                                                                                                                                                                                                                                                                                                                ",
"                                                                                                                                                                                                                                                                                                                                                                                                                                ",
"                                                                                                                                                                                                                                                                                                                                                                                                                                ",
"                                                                                                                                                                                                                                                                                                                                                                                                                                ",
"                                                                                                                                                                                                                                                                                                                                                                                                                                ",
"                                                                                                                                                                                                                                                                                                                                                                                                                                ",
"                                                                                                                                                                                                                                                                                                                                                                                                                                ",
"                                                                                                                                                                                                                                                                                                                                                                                                                                ",
"                                                                                                                                                                                                                                                                                                                                                                                                                                ",
"                                                                                                                                                                                                                                                                                                                                                                                                                                ",
"                                                                                                                                                                                                                                                                                                                                                                                                                                ",
"                                                                                                                                                                                                                                                                                                                                                                                                                                ",
"                                                                                                                                                                                                                                                                                                                                                                                                                                ",
"                                                                                                                                                                                                                                                                                                                                                                                                                                ",
"                                                                                                                                                                                                                                                                                                                                                                                                                                ",
"                                                                                                                                                                                                                                                                                                                                                                                                                                ",
"                                                                                                                                                                                                                                                                                                                                                                                                                                "};
