/* XPM */
static char * fps_xpm[] = {
"275 91 2 1",
" 	c #FF00FF",
".	c #FFFFFF",
"                                                                                                                                                                                                                                                                                   ",
"                                                                                                                                                                                                                                                                                   ",
"                                                                                                                                                                                                                                                                                   ",
"                                                                                                                                                                                                                                                                                   ",
"                                                                                                                                                                                                                                                                                   ",
"                                                                                                                                                                                                                                                                                   ",
"                                                                                                                                                                                                                                                                                   ",
"                                                                                                                                                                                                                                                                                   ",
"                                                                                                                                                                                                                                                                                   ",
"                                                                                                                                                                                                                                                                                   ",
"                                                                                                                                                                                                                                                                                   ",
"                                                                                                                                                                                                                                                                                   ",
"                                                                                                                                                                                                                                                                                   ",
"                                                                                                                                                                                                                                                                                   ",
"                                                                                                                                                                                                                                                                                   ",
"                                                                                                                                                                                                                                                                                   ",
"                                                                                                                                                                                                                                                                                   ",
"                                                                                                                                                                                                                                                                                   ",
"                                                                                                                                                                                                                                                                                   ",
"                                                                                                                                                                                                                                                                                   ",
"                                                                                                                                                                                                                                                                                   ",
"                                                                                                                                                                                                                                                                                   ",
"                      ........                            ........                                                                                                .........................       ..................                          ..............                       ",
"                      .........                          .........                                                                                                .........................       .....................                    ....................                    ",
"                      .........                          .........                                                                                                .........................       .......................                 ......................                   ",
"                      ..........                         .........                                                                                                .........................       ........................               ......................                    ",
"                      ..........                        ..........                                                                                                ........................        .........................             ........        .......                    ",
"                      ..........                        ..........                                                                                                ......                          ......            ........           .......             ....                    ",
"                      ...........                       ..........                                                                                                ......                          ......              .......          ......                .                     ",
"                      ..... .....                      ..... .....                                                                                                ......                          ......               ......         ......                                       ",
"                      ..... .....                      ..... .....                                                                                                ......                          ......               .......        ......                                       ",
"                      ..... ......                    .....  .....                                                                                                ......                          ......                ......        .....                                        ",
"                      .....  .....                    .....  .....                                                                                                ......                          ......                ......        .....                                        ",
"                      .....  ......                   .....  .....                 .............             ......                 ......                        ......                          ......                ......        .....                                        ",
"                      .....   .....                  .....   .....               .................            ......               ......                         ......                          ......                 .....        ......                                       ",
"                      .....   .....                  .....   .....             ....................           .......             ......                          ......                          ......                 .....        ......                                       ",
"                      .....   ......                .....    .....             .....................           ......             ......                          ......                          ......                ......        .......                                      ",
"                      .....    .....                .....    .....             .......       ........           ......           ......                           ......                          ......                ......         ......                                      ",
"                      .....    .....                .....    .....              ...           .......            ......         ......                            ......                          ......                ......         ........                                    ",
"                      .....    ......              .....     .....                             ......            ......         .....                             ......                          ......                ......          .........                                  ",
"                      .....     .....              .....     .....                              .....             ......       ......                             ......                          ......               ......           ...........                                ",
"                      .....     ......             .....     .....                              ......             ......     ......                              ......                          ......              .......            ............                              ",
"                      .....      .....            .....      .....                              ......             ......    ......                               .......................         ......            ........               .............                           ",
"                      .....      .....            .....      .....                              ......              ......   ......                               ........................        ......         ..........                 ..............                         ",
"                      .....      ......          .....       .....                              ......               ...... ......                                ........................        ........................                    ..............                       ",
"                      .....       .....          .....       .....                              ......                ...........                                 ........................        .......................                       .............                      ",
"                      .....       ......         .....       .....                   .................                ...........                                 ........................        .....................                            ...........                     ",
"                      .....        .....        .....        .....               .....................                 .........                                  ......                          ...................                                ..........                    ",
"                      .....        .....        .....        .....             .......................                  .......                                   ......                          ............                                         .........                   ",
"                      .....        ......      .....         .....            ........................                  .......                                   ......                          ......                                                 .......                   ",
"                      .....         .....      .....         .....           .........          ......                 .........                                  ......                          ......                                                  .......                  ",
"                      .....         .....      .....         .....          .......             ......                ..........                                  ......                          ......                                                   ......                  ",
"                      .....         ......    .....          .....          ......              ......                ...........                                 ......                          ......                                                   ......                  ",
"                      .....          .....    .....          .....         ......               ......               ...... ......                                ......                          ......                                                   ......                  ",
"                      .....          ......   .....          .....         ......               ......              ......   .....                                ......                          ......                                                    .....                  ",
"                      .....           .....  .....           .....         ......               ......              ......   ......                               ......                          ......                                                   ......                  ",
"                      .....           .....  .....           .....         ......               ......             ......     ......                              ......                          ......                                                   ......                  ",
"                      .....           ...........            .....         ......              .......            ......       ......                             ......                          ......                                                   ......                  ",
"                      .....            ..........            .....         ......              .......           .......       ......                             ......                          ......                                                  ......                   ",
"                      .....            ..........            .....         ......             ........           ......         ......                            ......                          ......                                                  ......                   ",
"                      .....            .........             .....         .......          ..........          ......           ......                           ......                          ......                             ...                .......                    ",
"                      .....             ........             .....          ........      ...... .....         ......            ......                           ......                          ......                             ........         .........                    ",
"                      .....             .......              .....          ...................  .....         ......             ......                          ......                          ......                             .........................                     ",
"                      .....              ......              .....           .................   .....        ......               ......                         ......                          ......                             .......................                       ",
"                      .....              ......              .....            ...............    .....       ......                .......                        ......                          ......                             ......................                        ",
"                      .....              .....               .....              ...........       ....      .......                 ......                        ......                          ......                                ................                           ",
"                                                                                                                                                                                                                                                                                   ",
"                                                                                                                                                                                                                                                                                   ",
"                                                                                                                                                                                                                                                                                   ",
"                                                                                                                                                                                                                                                                                   ",
"                                                                                                                                                                                                                                                                                   ",
"                                                                                                                                                                                                                                                                                   ",
"                                                                                                                                                                                                                                                                                   ",
"                                                                                                                                                                                                                                                                                   ",
"                                                                                                                                                                                                                                                                                   ",
"                                                                                                                                                                                                                                                                                   ",
"                                                                                                                                                                                                                                                                                   ",
"                                                                                                                                                                                                                                                                                   ",
"                                                                                                                                                                                                                                                                                   ",
"                                                                                                                                                                                                                                                                                   ",
"                                                                                                                                                                                                                                                                                   ",
"                                                                                                                                                                                                                                                                                   ",
"                                                                                                                                                                                                                                                                                   ",
"                                                                                                                                                                                                                                                                                   ",
"                                                                                                                                                                                                                                                                                   ",
"                                                                                                                                                                                                                                                                                   ",
"                                                                                                                                                                                                                                                                                   ",
"                                                                                                                                                                                                                                                                                   ",
"                                                                                                                                                                                                                                                                                   ",
"                                                                                                                                                                                                                                                                                   ",
"                                                                                                                                                                                                                                                                                   "};
