/* XPM */
static char * map_focus_xpm[] = {
"348 92 2 1",
" 	c #FF00FF",
".	c #8080DD",
"                                                                                                                                                                                                                                                                                                                                                            ",
"                                                                                                                                                                                                                                                                                                                                                            ",
"                                                                                                                                                                                                                                                                                                                                                            ",
"                                                                                                                                                                                                                                                                                                                                                            ",
"                                                                                                                                                                                                                                                                                                                                                            ",
"                                                                                                                                                                                                                                                                                                                                                            ",
"                                                                                                                                                                                                                                                                                                                                                            ",
"                                                                                                                                                                                                                                                                                                                                                            ",
"                                                                                                                                                                                                                                                                                                                                                            ",
"                                                                                                                                                                                                                                                                                                                                                            ",
"                                                                                                                                                                                                                                                                                                                                                            ",
"                                                                                                                                                                                                                                                                                                                                                            ",
"                                                                                                                                                                                                                                                                                                                                                            ",
"                                                                                                                                                                                                                                                                                                                                                            ",
"                                                                                                                                                                                                                                                                                                                                                            ",
"                                                                                                                                                                                                                                                                                                                                                            ",
"                                                                                                                                                                                                                                                                                                                                                            ",
"                                                                                                                                                                                                                                                                                                                                                            ",
"                                                                                                                                                                                                                                                                                                                                                            ",
"                                                                                          ......                                                                                                                                                                                                                                                            ",
"                                                                                          ......                                                                                                                                                                                                                                                            ",
"                                                                                          ......                                                                                                                                                                                                                                                            ",
"                            ..............                                                ......                                                                                                                  ........                            ........                                                                                              ",
"                         ....................                                             ......                                                                                                                  .........                          .........                                                                                              ",
"                        ......................                                            ......                                                                                                                  .........                          .........                                                                                              ",
"                       ......................                                             ......                                                                              ...                                 ..........                         .........                                                                                              ",
"                      ........        .......                                             ......                                                                             ....                                 ..........                        ..........                                                                                              ",
"                     .......             ....                                             ......                                                                             ....                                 ..........                        ..........                                                                                              ",
"                     ......                .                                              ......                                                                             ....                                 ...........                       ..........                                                                                              ",
"                    ......                                                                ......                                                                             ....                                 ..... .....                      ..... .....                                                                                              ",
"                    ......                                                                ......                                                                            .....                                 ..... .....                      ..... .....                                                                                              ",
"                    .....                                                                 ......                                                                            .....                                 ..... ......                    .....  .....                                                                                              ",
"                    .....                                                                 ......                                                                            .....                                 .....  .....                    .....  .....                                                                                              ",
"                    .....                                      ...........                ......                  ...........                        .............        .................                       .....  ......                   .....  .....                 .............                .....      ..........                           ",
"                    ......                                   ...............              ......                ...............                    .................    ...................                       .....   .....                  .....   .....               .................              .....    ..............                         ",
"                    ......                                 ..................             ......              ..................                 ..................    ....................                       .....   .....                  .....   .....             ....................             .....   .................                       ",
"                    .......                               ....................            ......             ....................               ...................    ....................                       .....   ......                .....    .....             .....................            .....  ...................                      ",
"                     ......                              ........      ........           ......            ........      ........             .........      .....    ...................                        .....    .....                .....    .....             .......       ........           ............      .........                     ",
"                     ........                           .......          .......          ......           .......          .......           .......            .          .....                                 .....    .....                .....    .....              ...           .......           .........           .......                     ",
"                      .........                         ......            ......          ......           ......            ......           ......                        .....                                 .....    ......              .....     .....                             ......           ........             .......                    ",
"                      ...........                      ......              ......         ......          ......              ......         ......                         .....                                 .....     .....              .....     .....                              .....           ........              ......                    ",
"                       ............                    .....               ......         ......          .....               ......         ......                         .....                                 .....     ......             .....     .....                              ......          .......               .......                   ",
"                         .............                ......                .....         ......         ......                .....        ......                          .....                                 .....      .....            .....      .....                              ......          .......                ......                   ",
"                          ..............              ......                .....         ......         ......                .....        ......                          .....                                 .....      .....            .....      .....                              ......          ......                 ......                   ",
"                            ..............            .....                 ......        ......         .....                 ......       ......                          .....                                 .....      ......          .....       .....                              ......          ......                  .....                   ",
"                              .............           .....                 ......        ......         .....                 ......       .....                           .....                                 .....       .....          .....       .....                              ......          ......                  .....                   ",
"                                 ...........          ............................        ......         ............................       .....                           .....                                 .....       ......         .....       .....                   .................          ......                  ......                  ",
"                                   ..........         ............................        ......         ............................      ......                           .....                                 .....        .....        .....        .....               .....................          ......                  ......                  ",
"                                     .........       .............................        ......        .............................      ......                           .....                                 .....        .....        .....        .....             .......................          ......                  ......                  ",
"                                       .......       .............................        ......        .............................      ......                           .....                                 .....        ......      .....         .....            ........................          ......                  ......                  ",
"                                        .......      ............................         ......        ............................       ......                           .....                                 .....         .....      .....         .....           .........          ......          ......                  ......                  ",
"                                         ......      ......                               ......        ......                             ......                           .....                                 .....         .....      .....         .....          .......             ......          ......                  ......                  ",
"                                         ......       .....                               ......         .....                              .....                           .....                                 .....         ......    .....          .....          ......              ......          ......                  ......                  ",
"                                         ......       .....                               ......         .....                              .....                           .....                                 .....          .....    .....          .....         ......               ......          ......                  .....                   ",
"                                          .....       ......                              ......         ......                             ......                          .....                                 .....          ......   .....          .....         ......               ......          ......                 ......                   ",
"                                         ......       ......                              ......         ......                             ......                          .....                                 .....           .....  .....           .....         ......               ......          ......                 ......                   ",
"                                         ......       ......                              ......         ......                             ......                          .....                                 .....           .....  .....           .....         ......               ......          .......                ......                   ",
"                                         ......        ......                             ......          ......                             ......                         .....                                 .....           ...........            .....         ......              .......          .......               .......                   ",
"                                        ......         .......                            ......          .......                            ......                         .....                                 .....            ..........            .....         ......              .......          ........              ......                    ",
"                                        ......          ......                            ......           ......                             ......                        ......                                .....            ..........            .....         ......             ........          ........             .......                    ",
"                   ...                .......           ........              ..          ......           ........              ..           .......             .         .......                               .....            .........             .....         .......          ..........          ..........          .......                     ",
"                   ........         .........            .........         .....          ......            .........         .....            ........        ....          .......      .                       .....             ........             .....          ........      ...... .....          ............      ........                      ",
"                   .........................              ......................          ......             ......................             ...................          ..............                       .....             .......              .....          ...................  .....          ..... ....................                      ",
"                   .......................                 .....................          ......              .....................              ..................           .............                       .....              ......              .....           .................   .....          ...... ..................                       ",
"                   ......................                    ...................          ......                ...................               .................            ............                       .....              ......              .....            ...............    .....          ......   ..............                         ",
"                      ................                         ..............             ......                  ..............                     ............               ...........                       .....              .....               .....              ...........       ....          ......     ..........                           ",
"                                                                                                                                                                                                                                                                                                            ......                                          ",
"                                                                                                                                                                                                                                                                                                            ......                                          ",
"                                                                                                                                                                                                                                                                                                            ......                                          ",
"                                                                                                                                                                                                                                                                                                            ......                                          ",
"                                                                                                                                                                                                                                                                                                            ......                                          ",
"                                                                                                                                                                                                                                                                                                            ......                                          ",
"                                                                                                                                                                                                                                                                                                            ......                                          ",
"                                                                                                                                                                                                                                                                                                            ......                                          ",
"                                                                                                                                                                                                                                                                                                            ......                                          ",
"                                                                                                                                                                                                                                                                                                            ......                                          ",
"                                                                                                                                                                                                                                                                                                            ......                                          ",
"                                                                                                                                                                                                                                                                                                            ......                                          ",
"                                                                                                                                                                                                                                                                                                            ......                                          ",
"                                                                                                                                                                                                                                                                                                            ......                                          ",
"                                                                                                                                                                                                                                                                                                            ......                                          ",
"                                                                                                                                                                                                                                                                                                                                                            ",
"                                                                                                                                                                                                                                                                                                                                                            ",
"                                                                                                                                                                                                                                                                                                                                                            ",
"                                                                                                                                                                                                                                                                                                                                                            ",
"                                                                                                                                                                                                                                                                                                                                                            ",
"                                                                                                                                                                                                                                                                                                                                                            ",
"                                                                                                                                                                                                                                                                                                                                                            ",
"                                                                                                                                                                                                                                                                                                                                                            ",
"                                                                                                                                                                                                                                                                                                                                                            ",
"                                                                                                                                                                                                                                                                                                                                                            ",
"                                                                                                                                                                                                                                                                                                                                                            "};
