/* XPM */
static char * mouse_xpm[] = {
"540 98 2 1",
" 	c #FF00FF",
".	c #FFFFFF",
"                                                                                                                                                                                                                                                                                                                                                                                                                                                                                                                                                            ",
"                                                                                                                                                                                                                                                                                                                                                                                                                                                                                                                                                            ",
"                                                                                                                                                                                                                                                                                                                                                                                                                                                                                                                                                            ",
"                                                                                                                                                                                                                                                                                                                                                                                                                                                                                                                                                            ",
"                                                                                                                                                                                                                                                                                                                                                                                                                                                                                                                                                            ",
"                                                                                                                                                                                                                                                                                                                                                                                                                                                                                                                                                            ",
"                                                                                                                                                                                                                                                                                                                                                                                                                                                                                                                                                            ",
"                                                                                                                                                                                                                                                                                                                                                                                                                                                                                                                                                            ",
"                                                                                                                                                                                                                                                                                                                                                                                                                                                                                                                                                            ",
"                                                                                                                                                                                                                                                                                                                                                                                                                                                                                                                                                            ",
"                                                                                                                                                                                                                                                                                                                                                                                                                                                                                                                                                            ",
"                                                                                                                                                                                                                                                                                                                                                                                                                                                                                                                                                            ",
"                                                                                                                                                                                                                                                                                                                                                                                                                                                                                                                                                            ",
"                                                                                                                                                                                                                                                                                                                                                                                                                                                                                                                                                            ",
"                                                                                                                                                                                                                                                                                                                                                                                                                                                                                                                                                            ",
"                                                                                                                                                                                                                                                                                                                                                                                                                                                                                                                                                            ",
"                                                                                                                                                                                                                                                                                                                                                                                                                                                                                                                                                            ",
"                                                                                                                                                                                                                                                                                                                                                                                                                                                                                                                                                            ",
"                                                                                                                                                                                                                                                                                                                                                                                                                                                                                                                                                            ",
"                                                                                                                                                                                                                                                                                                                                                                                                                                                                                                                                                            ",
"                                                                                                                                                                                                                                                                                                                                                                                    ....                                  ....                                           ....                                                                               ",
"                                                                                                                                                                                                                                                                                                                                                                                   ......                                ......                                         ......                                                                              ",
"                      ........                            ........                                                                                                                                                                               ..............                                                                                                                    ......                                ......                                         ......                                                                              ",
"                      .........                          .........                                                                                                                                                                            ....................                                                                                                                 ......                                ......                                         ......                                                                              ",
"                      .........                          .........                                                                                                                                                                           ......................                                                                                                                ......                                ......                                         ......                                                                              ",
"                      ..........                         .........                                                                                                                                                                          ......................                                                                                                                 ......             ...                ......                                         ......             ...                                                              ",
"                      ..........                        ..........                                                                                                                                                                         ........        .......                                                                                                                  ....             ....                 ....                                           ....             ....                                                              ",
"                      ..........                        ..........                                                                                                                                                                        .......             ....                                                                                                                                   ....                                                                                 ....                                                              ",
"                      ...........                       ..........                                                                                                                                                                        ......                .                                                                                                                                    ....                                                                                 ....                                                              ",
"                      ..... .....                      ..... .....                                                                                                                                                                       ......                                                                                                                                                      ....                                                                                 ....                                                              ",
"                      ..... .....                      ..... .....                                                                                                                                                                       ......                                                                                                                                                     .....                                                                                .....                                                              ",
"                      ..... ......                    .....  .....                                                                                                                                                                       .....                                                                                                                                                      .....                                                                                .....                                                              ",
"                      .....  .....                    .....  .....                                                                                                                                                                       .....                                                                                                                                                      .....                                                                                .....                                                              ",
"                      .....  ......                   .....  .....                   ............                  .....                  .....              ..............                    ...........                               .....                                      ...........                .....      ...........                    ..............            ......         .................      ......     ......                   ......     ......         ................. ......                    .....                    ",
"                      .....   .....                  .....   .....                 ................                .....                  .....            ..................                ...............                             ......                                   ...............              .....    ...............                ..................          ......       ...................      ......      .....                   ......     ......       ...................  .....                   ......                    ",
"                      .....   .....                  .....   .....               ...................               .....                  .....           ....................             ..................                            ......                                 ..................             .....   .................              ....................         ......      ....................      ......      ......                  ......     ......      ....................  ......                  ......                    ",
"                      .....   ......                .....    .....              .....................              .....                  .....          .....................            ....................                           .......                               ....................            .....  ...................            .....................         ......      ....................      ......      ......                 ......      ......      ....................  ......                 ......                     ",
"                      .....    .....                .....    .....             .........      ........             .....                  .....         ........       ......            ........      ........                           ......                              ........      ........           ............      .........          ........       ......          ......      ...................       ......       .....                 ......      ......      ...................    ......                ......                     ",
"                      .....    .....                .....    .....            .......           .......            .....                  .....         ......            ...           .......          .......                          ........                           .......          .......          ..........          .......          ......            ...          ......           .....                ......       ......                .....       ......           .....             ......                ......                     ",
"                      .....    ......              .....     .....            ......             .......           .....                  .....        ......                           ......            ......                           .........                         ......            ......          ........             .......        ......                          ......           .....                ......       ......               ......       ......           .....              .....               ......                      ",
"                      .....     .....              .....     .....           ......               ......           .....                  .....        .....                           ......              ......                          ...........                      ......              ......         ........              ......        .....                           ......           .....                ......        ......              ......       ......           .....              ......              ......                      ",
"                      .....     ......             .....     .....           ......                ......          .....                  .....        .....                           .....               ......                           ............                    .....               ......         .......               ......        .....                           ......           .....                ......        ......              .....        ......           .....              ......              .....                       ",
"                      .....      .....            .....      .....          ......                 ......          .....                  .....        ......                         ......                .....                             .............                ......                .....         .......                .....        ......                          ......           .....                ......         .....             ......        ......           .....               .....             ......                       ",
"                      .....      .....            .....      .....          ......                  .....          .....                  .....        ......                         ......                .....                              ..............              ......                .....         ......                 .....        ......                          ......           .....                ......         ......            .....         ......           .....               ......            ......                       ",
"                      .....      ......          .....       .....          ......                  ......         .....                  .....         .......                       .....                 ......                               ..............            .....                 ......        ......                 .....         .......                        ......           .....                ......         ......           ......         ......           .....                .....            .....                        ",
"                      .....       .....          .....       .....          .....                   ......         .....                  .....         .........                     .....                 ......                                 .............           .....                 ......        ......                 .....         .........                      ......           .....                ......          .....           ......         ......           .....                ......          ......                        ",
"                      .....       ......         .....       .....          .....                   ......         .....                  .....          ..........                   ............................                                    ...........          ............................        ......                 .....          ..........                    ......           .....                ......          ......          .....          ......           .....                ......          .....                         ",
"                      .....        .....        .....        .....         ......                   ......         .....                  .....           ............                ............................                                      ..........         ............................        ......                 .....           ............                 ......           .....                ......           .....         ......          ......           .....                 .....          .....                         ",
"                      .....        .....        .....        .....         ......                   ......         .....                  .....             ............             .............................                                        .........       .............................        ......                 .....             ............               ......           .....                ......           .....         ......          ......           .....                 ......        ......                         ",
"                      .....        ......      .....         .....         ......                    .....         .....                  .....               ............           .............................                                          .......       .............................        ......                 .....               ............             ......           .....                ......           ......        .....           ......           .....                  .....        .....                          ",
"                      .....         .....      .....         .....         ......                   ......         .....                  .....                  ...........         ............................                                            .......      ............................         ......                 .....                  ...........           ......           .....                ......            .....       ......           ......           .....                  ......      ......                          ",
"                      .....         .....      .....         .....         ......                   ......         .....                  .....                    ..........        ......                                                                   ......      ......                               ......                 .....                    ..........          ......           .....                ......            ......      .....            ......           .....                   .....      ......                          ",
"                      .....         ......    .....          .....          .....                   ......         .....                 ......                      .........        .....                                                                   ......       .....                               ......                 .....                      .........         ......           .....                ......            ......      .....            ......           .....                   .....      .....                           ",
"                      .....          .....    .....          .....          .....                   ......         .....                 ......                        .......        .....                                                                   ......       .....                               ......                 .....                        .......         ......           .....                ......             .....     ......            ......           .....                   ......    ......                           ",
"                      .....          ......   .....          .....          ......                  ......         .....                 ......                          ......       ......                                                                   .....       ......                              ......                 .....                          ......        ......           .....                ......             ......    .....             ......           .....                    .....    .....                            ",
"                      .....           .....  .....           .....          ......                  .....          ......                ......                          ......       ......                                                                  ......       ......                              ......                 .....                          ......        ......           .....                ......              .....    .....             ......           .....                    .....    .....                            ",
"                      .....           .....  .....           .....          ......                 ......          ......                ......                           .....       ......                                                                  ......       ......                              ......                 .....                           .....        ......           .....                ......              .....   .....              ......           .....                     .....  ......                            ",
"                      .....           ...........            .....           ......                ......          ......               .......                           .....        ......                                                                 ......        ......                             ......                 .....                           .....        ......           .....                ......              ......  .....              ......           .....                     .....  .....                             ",
"                      .....            ..........            .....           ......               ......           ......               .......                          ......        .......                                                               ......         .......                            ......                 .....                          ......        ......           .....                ......               .....  .....              ......           .....                     .....  .....                             ",
"                      .....            ..........            .....            ......             .......            ......             ........                          ......         ......                                                               ......          ......                            ......                 .....                          ......        ......           ......               ......               ..... .....               ......           ......                     ..... .....                             ",
"                      .....            .........             .....            .......           .......             .......           .........        ...              ......          ........              ..                        ...                .......           ........              ..          ......                 .....        ...              ......         ......           .......              ......               ..... .....               ......           .......                    ..........                              ",
"                      .....             ........             .....             .........      ........              .........      ............        .......        ........           .........         .....                        ........         .........            .........         .....          ......                 .....        .......        ........         ......            .......      .      ......                ..........               ......            .......      .             .........                              ",
"                      .....             .......              .....              .....................                .................... .....        ......................             ......................                        .........................              ......................          ......                 .....        ......................          ......            ..............      ......                .........                ......            ..............             ........                               ",
"                      .....              ......              .....               ...................                  ..................  .....        .....................               .....................                        .......................                 .....................          ......                 .....        .....................           ......             .............      ......                 ........                ......             .............             ........                               ",
"                      .....              ......              .....                 ................                    ................   .....         ...................                  ...................                        ......................                    ...................          ......                 .....         ...................            ......              ............      ......                 .......                 ......              ............              .......                               ",
"                      .....              .....               .....                   ............                        ............     .....           ..............                       ..............                              ................                         ..............             ......                 .....           ..............               ......               ...........      ......                 .......                 ......               ...........              ......                                ",
"                                                                                                                                                                                                                                                                                                                                                                                                                                                                                                                      ......                                ",
"                                                                                                                                                                                                                                                                                                                                                                                                                                                                                                                      ......                                ",
"                                                                                                                                                                                                                                                                                                                                                                                                                                                                                                                      .....                                 ",
"                                                                                                                                                                                                                                                                                                                                                                                                                                                                                                                     ......                                 ",
"                                                                                                                                                                                                                                                                                                                                                                                                                                                                                                                     .....                                  ",
"                                                                                                                                                                                                                                                                                                                                                                                                                                                                                                                    ......                                  ",
"                                                                                                                                                                                                                                                                                                                                                                                                                                                                                                                    ......                                  ",
"                                                                                                                                                                                                                                                                                                                                                                                                                                                                                                                   ......                                   ",
"                                                                                                                                                                                                                                                                                                                                                                                                                                                                                                                  .......                                   ",
"                                                                                                                                                                                                                                                                                                                                                                                                                                                                                                                 .......                                    ",
"                                                                                                                                                                                                                                                                                                                                                                                                                                                                                                          .............                                     ",
"                                                                                                                                                                                                                                                                                                                                                                                                                                                                                                          ............                                      ",
"                                                                                                                                                                                                                                                                                                                                                                                                                                                                                                          ...........                                       ",
"                                                                                                                                                                                                                                                                                                                                                                                                                                                                                                          ..........                                        ",
"                                                                                                                                                                                                                                                                                                                                                                                                                                                                                                          ........                                          ",
"                                                                                                                                                                                                                                                                                                                                                                                                                                                                                                                                                            ",
"                                                                                                                                                                                                                                                                                                                                                                                                                                                                                                                                                            ",
"                                                                                                                                                                                                                                                                                                                                                                                                                                                                                                                                                            ",
"                                                                                                                                                                                                                                                                                                                                                                                                                                                                                                                                                            ",
"                                                                                                                                                                                                                                                                                                                                                                                                                                                                                                                                                            ",
"                                                                                                                                                                                                                                                                                                                                                                                                                                                                                                                                                            ",
"                                                                                                                                                                                                                                                                                                                                                                                                                                                                                                                                                            ",
"                                                                                                                                                                                                                                                                                                                                                                                                                                                                                                                                                            ",
"                                                                                                                                                                                                                                                                                                                                                                                                                                                                                                                                                            ",
"                                                                                                                                                                                                                                                                                                                                                                                                                                                                                                                                                            ",
"                                                                                                                                                                                                                                                                                                                                                                                                                                                                                                                                                            ",
"                                                                                                                                                                                                                                                                                                                                                                                                                                                                                                                                                            ",
"                                                                                                                                                                                                                                                                                                                                                                                                                                                                                                                                                            ",
"                                                                                                                                                                                                                                                                                                                                                                                                                                                                                                                                                            ",
"                                                                                                                                                                                                                                                                                                                                                                                                                                                                                                                                                            ",
"                                                                                                                                                                                                                                                                                                                                                                                                                                                                                                                                                            ",
"                                                                                                                                                                                                                                                                                                                                                                                                                                                                                                                                                            "};
