/* XPM */
static char * play_xpm[] = {
"246 154 173 2",
"  	c #FF00FF",
". 	c #FFBCFF",
"+ 	c #FFFFFF",
"@ 	c #FF94FF",
"# 	c #FFFCFF",
"$ 	c #FFF9FF",
"% 	c #FFF6FF",
"& 	c #FFEFFF",
"* 	c #FFE5FF",
"= 	c #FFDAFF",
"- 	c #FFCBFF",
"; 	c #FFB2FF",
"> 	c #FF5DFF",
", 	c #FFF2FF",
"' 	c #FFD3FF",
") 	c #FFA0FF",
"! 	c #FF42FF",
"~ 	c #FFD5FF",
"{ 	c #FF84FF",
"] 	c #FFE3FF",
"^ 	c #FF7DFF",
"/ 	c #FFC7FF",
"( 	c #FF2EFF",
"_ 	c #FFE7FF",
": 	c #FF5AFF",
"< 	c #FF5FFF",
"[ 	c #FFE8FF",
"} 	c #FF9FFF",
"| 	c #FFA3FF",
"1 	c #FFA7FF",
"2 	c #FFB0FF",
"3 	c #FFBEFF",
"4 	c #FFCDFF",
"5 	c #FFE0FF",
"6 	c #FFF5FF",
"7 	c #FFEDFF",
"8 	c #FFDBFF",
"9 	c #FF60FF",
"0 	c #FFA4FF",
"a 	c #FFD7FF",
"b 	c #FF53FF",
"c 	c #FFFAFF",
"d 	c #FFDFFF",
"e 	c #FF3DFF",
"f 	c #FF1CFF",
"g 	c #FFCEFF",
"h 	c #FFB4FF",
"i 	c #FF16FF",
"j 	c #FFD9FF",
"k 	c #FF0DFF",
"l 	c #FF4BFF",
"m 	c #FF86FF",
"n 	c #FFAAFF",
"o 	c #FFC4FF",
"p 	c #FF2AFF",
"q 	c #FFE6FF",
"r 	c #FFFDFF",
"s 	c #FF69FF",
"t 	c #FF3BFF",
"u 	c #FF8AFF",
"v 	c #FFDEFF",
"w 	c #FFECFF",
"x 	c #FFFEFF",
"y 	c #FFF3FF",
"z 	c #FFC2FF",
"A 	c #FFA2FF",
"B 	c #FF6CFF",
"C 	c #FF8EFF",
"D 	c #FF76FF",
"E 	c #FFBBFF",
"F 	c #FFE4FF",
"G 	c #FFD8FF",
"H 	c #FFE9FF",
"I 	c #FF9CFF",
"J 	c #FFB9FF",
"K 	c #FFEEFF",
"L 	c #FFCCFF",
"M 	c #FF4FFF",
"N 	c #FF97FF",
"O 	c #FF51FF",
"P 	c #FF45FF",
"Q 	c #FFA5FF",
"R 	c #FF96FF",
"S 	c #FFB1FF",
"T 	c #FF71FF",
"U 	c #FFAFFF",
"V 	c #FF9BFF",
"W 	c #FF80FF",
"X 	c #FF62FF",
"Y 	c #FF79FF",
"Z 	c #FF5CFF",
"` 	c #FF95FF",
" .	c #FFFBFF",
"..	c #FF6DFF",
"+.	c #FFDCFF",
"@.	c #FF22FF",
"#.	c #FF72FF",
"$.	c #FFADFF",
"%.	c #FFD1FF",
"&.	c #FFA6FF",
"*.	c #FFF4FF",
"=.	c #FF99FF",
"-.	c #FF26FF",
";.	c #FF89FF",
">.	c #FFC9FF",
",.	c #FF92FF",
"'.	c #FF35FF",
").	c #FF88FF",
"!.	c #FF82FF",
"~.	c #FF70FF",
"{.	c #FF73FF",
"].	c #FFB8FF",
"^.	c #FFEAFF",
"/.	c #FFCFFF",
"(.	c #FF98FF",
"_.	c #FFF7FF",
":.	c #FFBFFF",
"<.	c #FFC8FF",
"[.	c #FFC0FF",
"}.	c #FF56FF",
"|.	c #FF63FF",
"1.	c #FFF0FF",
"2.	c #FF66FF",
"3.	c #FFDDFF",
"4.	c #FF83FF",
"5.	c #FFF8FF",
"6.	c #FFB6FF",
"7.	c #FFC5FF",
"8.	c #FFD4FF",
"9.	c #FF7CFF",
"0.	c #FF93FF",
"a.	c #FFF1FF",
"b.	c #FF65FF",
"c.	c #FFD2FF",
"d.	c #FF55FF",
"e.	c #FF38FF",
"f.	c #FFA8FF",
"g.	c #FFA1FF",
"h.	c #FFCAFF",
"i.	c #FFD0FF",
"j.	c #FFABFF",
"k.	c #FFC3FF",
"l.	c #FF47FF",
"m.	c #FFEBFF",
"n.	c #FFAEFF",
"o.	c #FF7EFF",
"p.	c #FF90FF",
"q.	c #FF7AFF",
"r.	c #FF9EFF",
"s.	c #FF32FF",
"t.	c #FF9DFF",
"u.	c #FF6AFF",
"v.	c #FF77FF",
"w.	c #FFC6FF",
"x.	c #FF8BFF",
"y.	c #FFB3FF",
"z.	c #FF7FFF",
"A.	c #FF68FF",
"B.	c #FF8CFF",
"C.	c #FF4DFF",
"D.	c #FFE2FF",
"E.	c #FF9AFF",
"F.	c #FFBDFF",
"G.	c #FF75FF",
"H.	c #FF87FF",
"I.	c #FFB5FF",
"J.	c #FF85FF",
"K.	c #FF49FF",
"L.	c #FFACFF",
"M.	c #FFA9FF",
"N.	c #FFD6FF",
"O.	c #FFBAFF",
"P.	c #FF91FF",
"                                                                                                                                                                                                                                                                                                                                                                                                                                                                                                            ",
"                                                                                                                                                                                                                                                                                                                                                                                                                                                                                                            ",
"                                                                                                                                                                                                                                                                                                                                                                                                                                                                                                            ",
"                                                                                                                                                                                                                                                                                                                                                                                                                                                                                                            ",
"                                                                                                                                                                                                                                                                                                                                                                                                                                                                                                            ",
"                                                                                                                                                                                                                                                                                                                                                                                                                                                                                                            ",
"                                                                                                                                                                                                                                                                                                                                                                                                                                                                                                            ",
"                                                                                                                                                                                                                                                                                                                                                                                                                                                                                                            ",
"                                                                                                                                                                                                                                                                                                                                                                                                                                                                                                            ",
"                                                                                                                                                                                                                                                                                                                                                                                                                                                                                                            ",
"                                                                                                                                                                                                                                                                                                                                                                                                                                                                                                            ",
"                                                                                                                                                                                                                                                                                                                                                                                                                                                                                                            ",
"                                                                                                                                                                                                                                                                                                                                                                                                                                                                                                            ",
"                                                                                                                                                                                                                                                                                                                                                                                                                                                                                                            ",
"                                                                                                                                                                                                                                                                                                                                                                                                                                                                                                            ",
"                                                                                                                                                                                                                                                                                                                                                                                                                                                                                                            ",
"                                                                                                                                                                                                                                                                                                                                                                                                                                                                                                            ",
"                                                                                                                                                                                                                                                                                                                                                                                                                                                                                                            ",
"                                                                                                                                                                                                                                                                                                                                                                                                                                                                                                            ",
"                                                                                                                                                                                                                                                                                                                                                                                                                                                                                                            ",
"                                                                                                                                                                                                                                                                                                                                                                                                                                                                                                            ",
"                                                                                                                                                                                                                                                                                                                                                                                                                                                                                                            ",
"                                                                                                                                                                                                                                                                                                                                                                                                                                                                                                            ",
"                                                                                                                                                                                                                                                                                                                                                                                                                                                                                                            ",
"                                                                                                                                                                                                                                                                                                                                                                                                                                                                                                            ",
"                                                                                                                                                                                                                                                                                                                                                                                                                                                                                                            ",
"                                                                                                                                                                                                                                                                                                                                                                                                                                                                                                            ",
"                                                                                                                                                                                                                                                                                                                                                                                                                                                                                                            ",
"                                                                                                                                                                          . + + + + + + + + @                                                                                                                                                                                                                                                                                                               ",
"                                                                                                                                                                          . + + + + + + + + @                                                                                                                                                                                                                                                                                                               ",
"                                                                                                                                                                          . + + + + + + + + @                                                                                                                                                                                                                                                                                                               ",
"                                                                                                                                                                          . + + + + + + + + @                                                                                                                                                                                                                                                                                                               ",
"                                                                                                                                                                          . + + + + + + + + @                                                                                                                                                                                                                                                                                                               ",
"                                                  @ + + + + + + + + + + + + + + + + + + + # $ % & * = - ; @ >                                                             . + + + + + + + + @                                                                                                                                                                                                                                                                                                               ",
"                                                  @ + + + + + + + + + + + + + + + + + + + + + + + + + + + + + , ' ) !                                                     . + + + + + + + + @                                                                                                                                                                                                                                                                                                               ",
"                                                  @ + + + + + + + + + + + + + + + + + + + + + + + + + + + + + + + + # ~ {                                                 . + + + + + + + + @                                                                                                                                                                                                                                                                                                               ",
"                                                  @ + + + + + + + + + + + + + + + + + + + + + + + + + + + + + + + + + + + ] ^                                             . + + + + + + + + @                                                                                                                                                                                                                                                                                                               ",
"                                                  @ + + + + + + + + + + + + + + + + + + + + + + + + + + + + + + + + + + + + + / (                                         . + + + + + + + + @                                                                                                                                                                                                                                                                                                               ",
"                                                  @ + + + + + + + + + + + + + + + + + + + + + + + + + + + + + + + + + + + + + + _ :                                       . + + + + + + + + @                                                                                                                                                                                                                                                                                                               ",
"                                                  @ + + + + + + + + + + + + + + + + + + + + + + + + + + + + + + + + + + + + + + + & <                                     . + + + + + + + + @                                                                                                                                                                                                                                                                                                               ",
"                                                  @ + + + + + + + + [ } } } } } } } } } | 1 2 3 4 5 6 + + + + + + + + + + + + + + + 7 !                                   . + + + + + + + + @                                                                                                                                                                                                                                                                                                               ",
"                                                  @ + + + + + + + + 8                                 9 0 a # + + + + + + + + + + + + =                                   . + + + + + + + + @                                                                                                                                                                                                                                                                                                               ",
"                                                  @ + + + + + + + + 8                                       b 3 c + + + + + + + + + + + |                                 . + + + + + + + + @                                                                                                                                                                                                                                                                                                               ",
"                                                  @ + + + + + + + + 8                                           > d + + + + + + + + + + % e                               . + + + + + + + + @                                                                                                                                                                                                                                                                                                               ",
"                                                  @ + + + + + + + + 8                                             f g + + + + + + + + + + h                               . + + + + + + + + @                                                                                                                                                                                                                                                                                                               ",
"                                                  @ + + + + + + + + 8                                               i j + + + + + + + + + , k                             . + + + + + + + + @                                                                                                                                                                                                                                                                                                               ",
"                                                  @ + + + + + + + + 8                                                 l 6 + + + + + + + + + m                             . + + + + + + + + @                                                                                                                                                                                                                                                                                                               ",
"                                                  @ + + + + + + + + 8                                                   n + + + + + + + + + o                             . + + + + + + + + @                                                                                                                                                                                                                                                                                                               ",
"                                                  @ + + + + + + + + 8                                                   p % + + + + + + + + q                             . + + + + + + + + @                                                                                                                                                                                                                                                                                                               ",
"                                                  @ + + + + + + + + 8                                                     4 + + + + + + + + r p                           . + + + + + + + + @                                                                                                                                                                                                                                                                                                               ",
"                                                  @ + + + + + + + + 8                                                     } + + + + + + + + + s                           . + + + + + + + + @                                                         t u 2 4 v w % c x r $ y [ = z A 9                                                                                                                                                                                                                     ",
"                                                  @ + + + + + + + + 8                                                     B + + + + + + + + + C                           . + + + + + + + + @                                                   D E F r + + + + + + + + + + + + + + + + 7 E >                                 8 + + + + + + + + G                                                               a + + + + + + + + H                                                                         ",
"                                                  @ + + + + + + + + 8                                                     ( + + + + + + + + + I                           . + + + + + + + + @                                             9 J K + + + + + + + + + + + + + + + + + + + + + + # L M                             N + + + + + + + + r O                                                           P # + + + + + + + + 2                                                                         ",
"                                                  @ + + + + + + + + 8                                                       c + + + + + + + + Q                           . + + + + + + + + @                                         m a x + + + + + + + + + + + + + + + + + + + + + + + + + + % R                           f y + + + + + + + + S                                                           1 + + + + + + + + r M                                                                         ",
"                                                  @ + + + + + + + + 8                                                       % + + + + + + + + 1                           . + + + + + + + + @                                     T d + + + + + + + + + + + + + + + + + + + + + + + + + + + + + + + U                           3 + + + + + + + + H                                                           5 + + + + + + + + a                                                                           ",
"                                                  @ + + + + + + + + 8                                                       $ + + + + + + + + V                           . + + + + + + + + @                                     W + + + + + + + + + + + + + + + + + + + + + + + + + + + + + + + + + |                         X x + + + + + + + + Y                                                       Z x + + + + + + + + `                                                                           ",
"                                                  @ + + + + + + + + 8                                                     k x + + + + + + + + C                           . + + + + + + + + @                                       H + + + + + + + + + + + + + + + + + + + + + + + + + + + + + + + +  ...                        +.+ + + + + + + + /                                                       h + + + + + + + + 6 @.                                                                          ",
"                                                  @ + + + + + + + + 8                                                     Z + + + + + + + + + #.                          . + + + + + + + + @                                       $.+ + + + + + + + + + r H %.3 $.&.| U . a *.+ + + + + + + + + + + + +.                        =.+ + + + + + + + % -.                                                    H + + + + + + + + o                                                                             ",
"                                                  @ + + + + + + + + 8                                                     ;.+ + + + + + + + # -.                          . + + + + + + + + @                                       P  .+ + + + + + % >.,.'.                    ).j + + + + + + + + + + + !.                      @.*.+ + + + + + + + =.                                                  ~.+ + + + + + + + + {.                                                                            ",
"                                                  @ + + + + + + + + 8                                                     ].+ + + + + + + + ^.                            . + + + + + + + + @                                         /.+ + + r G (.-.                              (._.+ + + + + + + + + %.                        :.+ + + + + + + + =                                                   3 + + + + + + + + _                                                                               ",
"                                                  @ + + + + + + + + 8                                                     ] + + + + + + + + <.                            . + + + + + + + + @                                         !.+ _.[.}.                                      ~._.+ + + + + + + + c -.                      |.+ + + + + + + + r b                                                 1.+ + + + + + + + $.                                                                              ",
"                                                  @ + + + + + + + + 8                                                   2.+ + + + + + + + + C                             . + + + + + + + + @                                           | t                                             } + + + + + + + + + ;.                        3.+ + + + + + + + ;                                               4.+ + + + + + + + # l                                                                               ",
"                                                  @ + + + + + + + + 8                                                   g + + + + + + + + 5.p                             . + + + + + + + + @                                                                                           k ^.+ + + + + + + + 6.                        V + + + + + + + + ^.                                              >.+ + + + + + + + ~                                                                                 ",
"                                                  @ + + + + + + + + 8                                                 { x + + + + + + + + 7.                              . + + + + + + + + @                                                                                             U + + + + + + + + 8.                        -.6 + + + + + + + + 9.                                          @.% + + + + + + + + 0.                                                                                ",
"                                                  @ + + + + + + + + 8                                               Z a.+ + + + + + + + x b.                              . + + + + + + + + @                                                                                             B + + + + + + + + *                           [.+ + + + + + + + <.                                          0.+ + + + + + + + *.f                                                                                 ",
"                                                  @ + + + + + + + + 8                                             B K + + + + + + + + + %.                                . + + + + + + + + @                                                                                               5.+ + + + + + + ,                           2.+ + + + + + + + % p                                         c.+ + + + + + + + z                                                                                   ",
"                                                  @ + + + + + + + + 8                                         i n 5.+ + + + + + + + + 5.d.                                . + + + + + + + + @                                                                                               * + + + + + + + $                             v + + + + + + + + V                                       t c + + + + + + + + ~.                                                                                  ",
"                                                  @ + + + + + + + + 8                                     e.Q w + + + + + + + + + + + f.                                  . + + + + + + + + @                                                                                               G + + + + + + + r                             I + + + + + + + + 8                                       g.+ + + + + + + + *                                                                                     ",
"                                                  @ + + + + + + + + 8                             k s 1 8.c + + + + + + + + + + + + h.                                    . + + + + + + + + @                                                                                               i.+ + + + + + + +                             -.6 + + + + + + + x }.                                    +.+ + + + + + + + j.                                                                                    ",
"                                                  @ + + + + + + + + [ } } } } } } } ) Q j.6.k.8.* $ + + + + + + + + + + + + + + + a i                                     . + + + + + + + + @                                                                                               - + + + + + + + +                               z + + + + + + + + h                                   O r + + + + + + +  .l.                                                                                    ",
"                                                  @ + + + + + + + + + + + + + + + + + + + + + + + + + + + + + + + + + + + + + + g (                                       . + + + + + + + + @                                                                                               - + + + + + + + +                               s + + + + + + + + m.                                  n.+ + + + + + + + 8.                                                                                      ",
"                                                  @ + + + + + + + + + + + + + + + + + + + + + + + + + + + + + + + + + + + + r U                                           . + + + + + + + + @                                                                                               - + + + + + + + +                                 d + + + + + + + + o.                                F + + + + + + + + p.                                                                                      ",
"                                                  @ + + + + + + + + + + + + + + + + + + + + + + + + + + + + + + + + + + + * q.                                            . + + + + + + + + @                                                                                               - + + + + + + + +                                 r.+ + + + + + + + >.                              2.+ + + + + + + + , i                                                                                       ",
"                                                  @ + + + + + + + + + + + + + + + + + + + + + + + + + + + + + + + + + 6 f.k                                               . + + + + + + + + @                                                       ( 9.&.3 %.5 H , 5. .r + + + + + + + + + + + + + + + + + +                                 p % + + + + + + + _.(                             J + + + + + + + + [.                                                                                        ",
"                                                  @ + + + + + + + + + + + + + + + + + + + + + + + + + + + + + + + [ n s.                                                  . + + + + + + + + @                                               k m :.q r + + + + + + + + + + + + + + + + + + + + + + + + + + + +                                   k.+ + + + + + + + t.                            w + + + + + + + + B                                                                                         ",
"                                                  @ + + + + + + + + + + + + + + + + + + + + + + + + + + + c 5 6.~.                                                        . + + + + + + + + @                                           }.3 a.+ + + + + + + + + + + + + + + + + + + + + + + + + + + + + + + +                                   u.+ + + + + + + + +.                          q.+ + + + + + + + F                                                                                           ",
"                                                  @ + + + + + + + + + + + + + + + + + x # c y m.5 %.3 g.v.@.                                                              . + + + + + + + + @                                       P w. .+ + + + + + + + + + + + + + + + + + + + + + + + + + + + + + + + + +                                     5 + + + + + + + x :                         o + + + + + + + + f.                                                                                          ",
"                                                  @ + + + + + + + + 8                                                                                                     . + + + + + + + + @                                     @ 6 + + + + + + + + + + + + + + + + + + + + + + + + + + + + + + + + + + + +                                     } + + + + + + + + 6.                      i y + + + + + + +  .!                                                                                           ",
"                                                  @ + + + + + + + + 8                                                                                                     . + + + + + + + + @                                   J + + + + + + + + + + + + + + + + + + + + + + + + + + + + + + + + + + + + + +                                     ( % + + + + + + + w                       x.+ + + + + + + + c.                                                                                            ",
"                                                  @ + + + + + + + + 8                                                                                                     . + + + + + + + + @                                 :.+ + + + + + + + + + + + + ^.g y.V z.A.M e.-.                8 + + + + + + + +                                       o + + + + + + + + W                     g + + + + + + + + B.                                                                                            ",
"                                                  @ + + + + + + + + 8                                                                                                     . + + + + + + + + @                               &.+ + + + + + + + + + + ] 1 C.                                  8 + + + + + + + +                                       ..+ + + + + + + + h.                  ( 5.+ + + + + + + a.k                                                                                             ",
"                                                  @ + + + + + + + + 8                                                                                                     . + + + + + + + + @                             A. .+ + + + + + + + + K x.                                        8 + + + + + + + +                                         D.+ + + + + + + 5.s.                E.+ + + + + + + + F.                                                                                              ",
"                                                  @ + + + + + + + + 8                                                                                                     . + + + + + + + + @                             G + + + + + + + + + F l.                                          8 + + + + + + + +                                         g.+ + + + + + + + I                 ~ + + + + + + + + A.                                                                                              ",
"                                                  @ + + + + + + + + 8                                                                                                     . + + + + + + + + @                           ~.+ + + + + + + + + _ e.                                            8 + + + + + + + +                                         ( _.+ + + + + + + =               s.c + + + + + + + D.                                                                                                ",
"                                                  @ + + + + + + + + 8                                                                                                     . + + + + + + + + @                           7.+ + + + + + + + r G.                                              d + + + + + + + +                                           7.+ + + + + + + r C.            =.+ + + + + + + + &.                                                                                                ",
"                                                  @ + + + + + + + + 8                                                                                                     . + + + + + + + + @                           K + + + + + + + + h.                                                * + + + + + + + +                                           ~.+ + + + + + + + $.            c.+ + + + + + + c e                                                                                                 ",
"                                                  @ + + + + + + + + 8                                                                                                     . + + + + + + + + @                         M + + + + + + + + + H.                                                y + + + + + + + +                                             ] + + + + + + + D.          ( $ + + + + + + + i.                                                                                                  ",
"                                                  @ + + + + + + + + 8                                                                                                     . + + + + + + + + @                         m + + + + + + + + $ i                                               e x + + + + + + + +                                             | + + + + + + + + :         ` + + + + + + + + ;.                                                                                                  ",
"                                                  @ + + + + + + + + 8                                                                                                     . + + + + + + + + @                         t.+ + + + + + + + w                                                 x.+ + + + + + + + +                                             s._.+ + + + + + + 2         i.+ + + + + + + 1.k                                                                                                   ",
"                                                  @ + + + + + + + + 8                                                                                                     . + + + + + + + + @                         1 + + + + + + + + d                                                 o + + + + + + + + +                                               / + + + + + + + F       -.5.+ + + + + + + E                                                                                                     ",
"                                                  @ + + + + + + + + 8                                                                                                     . + + + + + + + + @                         1 + + + + + + + + D.                                              -.y + + + + + + + + +                                               #.+ + + + + + + x M     p.+ + + + + + + + |.                                                                                                    ",
"                                                  @ + + + + + + + + 8                                                                                                     . + + + + + + + + @                         } + + + + + + + + w                                               &.+ + + + + + + + + +                                                 F + + + + + + + A     h.+ + + + + + + 5                                                                                                       ",
"                                                  @ + + + + + + + + 8                                                                                                     . + + + + + + + + @                         B.+ + + + + + + + # e                                           l.*.+ + + + + + + + + +                                                 0 + + + + + + + 8.    , + + + + + + + |                                                                                                       ",
"                                                  @ + + + + + + + + 8                                                                                                     . + + + + + + + + @                         s + + + + + + + + + N                                         i 8 + + + + + + + + + + +                                                 '.5.+ + + + + + %   D + + + + + + + $ t                                                                                                       ",
"                                                  @ + + + + + + + + 8                                                                                                     . + + + + + + + + @                         i $ + + + + + + + + * k                                     @.c.+ + + + + + + + + + + +                                                   <.+ + + + + + + A.I.+ + + + + + + g                                                                                                         ",
"                                                  @ + + + + + + + + 8                                                                                                     . + + + + + + + + @                           3.+ + + + + + + + + y.                                  ~.q + + + + + + + + + + + + +                                                   G.+ + + + + + + ) v + + + + + + + J.                                                                                                        ",
"                                                  @ + + + + + + + + 8                                                                                                     . + + + + + + + + @                           j.+ + + + + + + + + + ].i                           P J # + + + + + + + + + + + + + +                                                     * + + + + + + 3. .+ + + + + + K                                                                                                           ",
"                                                  @ + + + + + + + + 8                                                                                                     . + + + + + + + + @                           K.c + + + + + + + + + + _ N f                 @.z.h.c + + + + + + r r.r + + + + + + +                                                     &.+ + + + + + + + + + + + + + J                                                                                                           ",
"                                                  @ + + + + + + + + 8                                                                                                     . + + + + + + + + @                             o + + + + + + + + + + + + 6 a J j.A L.J 7.d c + + + + + + + + + 1   H + + + + + + +                                                     e.5.+ + + + + + + + + + + + x <                                                                                                           ",
"                                                  @ + + + + + + + + 8                                                                                                     . + + + + + + + + @                             ! y + + + + + + + + + + + + + + + + + + + + + + + + + + + + + .     - + + + + + + +                                                       >.+ + + + + + + + + + + + v                                                                                                             ",
"                                                  @ + + + + + + + + 8                                                                                                     . + + + + + + + + @                               4.# + + + + + + + + + + + + + + + + + + + + + + + + + + + F.      Q + + + + + + +                                                       v.+ + + + + + + + + + + + )                                                                                                             ",
"                                                  @ + + + + + + + + 8                                                                                                     . + + + + + + + + @                                 `  .+ + + + + + + + + + + + + + + + + + + + + + + + x U         ~.+ + + + + + +                                                         q + + + + + + + + + + $ '.                                                                                                            ",
"                                                  @ + + + + + + + + 8                                                                                                     . + + + + + + + + @                                   q.^.+ + + + + + + + + + + + + + + + + + + + + + *.B.          k 5.+ + + + + +                                                         1 + + + + + + + + + + -                                                                                                               ",
"                                                  @ + + + + + + + + 8                                                                                                     . + + + + + + + + @                                     p 3  .+ + + + + + + + + + + + + + + + + + x 4 l.              v + + + + + +                                                         t $ + + + + + + + + + !.                                                                                                              ",
"                                                  @ + + + + + + + + 8                                                                                                     . + + + + + + + + @                                         M 6.a.+ + + + + + + + + + + + + + % <.A.                  3 + + + + + +                                                           h.+ + + + + + + + 7                                                                                                                 ",
"                                                                                                                                                                                                                                          i v.$.c.q & 5.x  .% 1.D.g h o.i                                                                                               n.+ + + + + + + + 6.                                                                                                                ",
"                                                                                                                                                                                                                                                                                                                                                                        [ + + + + + + + x Z                                                                                                                 ",
"                                                                                                                                                                                                                                                                                                                                                                      q.+ + + + + + + + +.                                                                                                                  ",
"                                                                                                                                                                                                                                                                                                                                                                      - + + + + + + + + r.                                                                                                                  ",
"                                                                                                                                                                                                                                                                                                                                                                    e $ + + + + + + + _.(                                                                                                                   ",
"                                                                                                                                                                                                                                                                                                                                                                    M.+ + + + + + + + h.                                                                                                                    ",
"                                                                                                                                                                                                                                                                                                                                                                    q + + + + + + + + z.                                                                                                                    ",
"                                                                                                                                                                                                                                                                                                                                                                  q.+ + + + + + + + m.                                                                                                                      ",
"                                                                                                                                                                                                                                                                                                                                                                  %.+ + + + + + + + L.                                                                                                                      ",
"                                                                                                                                                                                                                                                                                                                                                                b.# + + + + + + + $ e                                                                                                                       ",
"                                                                                                                                                                                                                                                                                                                                                                N.+ + + + + + + + <.                                                                                                                        ",
"                                                                                                                                                                                                                                                                                                                                                              =.+ + + + + + + + # X                                                                                                                         ",
"                                                                                                                                                                                                                                                                                                                                                            2.5.+ + + + + + + + /                                                                                                                           ",
"                                                                                                                                                                                                                                                                                                                                                          < 1.+ + + + + + + + c b                                                                                                                           ",
"                                                                                                                                                                                                                                                                                                                                                        { , + + + + + + + + + I.                                                                                                                            ",
"                                                                                                                                                                                                                                                                                                                                                    B - x + + + + + + + + + * f                                                                                                                             ",
"                                                                                                                                                                                                                                                                                                                                D.j w.J U | &.y.<.^.+ + + + + + + + + + +  ...                                                                                                                              ",
"                                                                                                                                                                                                                                                                                                                                6 + + + + + + + + + + + + + + + + + + + + g.                                                                                                                                ",
"                                                                                                                                                                                                                                                                                                                                6 + + + + + + + + + + + + + + + + + + + O.                                                                                                                                  ",
"                                                                                                                                                                                                                                                                                                                                6 + + + + + + + + + + + + + + + + + + h.                                                                                                                                    ",
"                                                                                                                                                                                                                                                                                                                                6 + + + + + + + + + + + + + + + + x .                                                                                                                                       ",
"                                                                                                                                                                                                                                                                                                                                6 + + + + + + + + + + + + + + + 7 u                                                                                                                                         ",
"                                                                                                                                                                                                                                                                                                                                6 + + + + + + + + + + + + + [ 1 @.                                                                                                                                          ",
"                                                                                                                                                                                                                                                                                                                                P.E 8.q , c r +  .*.q %.n.s                                                                                                                                                 ",
"                                                                                                                                                                                                                                                                                                                                                                                                                                                                                                            ",
"                                                                                                                                                                                                                                                                                                                                                                                                                                                                                                            ",
"                                                                                                                                                                                                                                                                                                                                                                                                                                                                                                            ",
"                                                                                                                                                                                                                                                                                                                                                                                                                                                                                                            ",
"                                                                                                                                                                                                                                                                                                                                                                                                                                                                                                            ",
"                                                                                                                                                                                                                                                                                                                                                                                                                                                                                                            ",
"                                                                                                                                                                                                                                                                                                                                                                                                                                                                                                            ",
"                                                                                                                                                                                                                                                                                                                                                                                                                                                                                                            ",
"                                                                                                                                                                                                                                                                                                                                                                                                                                                                                                            ",
"                                                                                                                                                                                                                                                                                                                                                                                                                                                                                                            ",
"                                                                                                                                                                                                                                                                                                                                                                                                                                                                                                            ",
"                                                                                                                                                                                                                                                                                                                                                                                                                                                                                                            ",
"                                                                                                                                                                                                                                                                                                                                                                                                                                                                                                            ",
"                                                                                                                                                                                                                                                                                                                                                                                                                                                                                                            ",
"                                                                                                                                                                                                                                                                                                                                                                                                                                                                                                            ",
"                                                                                                                                                                                                                                                                                                                                                                                                                                                                                                            ",
"                                                                                                                                                                                                                                                                                                                                                                                                                                                                                                            ",
"                                                                                                                                                                                                                                                                                                                                                                                                                                                                                                            ",
"                                                                                                                                                                                                                                                                                                                                                                                                                                                                                                            ",
"                                                                                                                                                                                                                                                                                                                                                                                                                                                                                                            ",
"                                                                                                                                                                                                                                                                                                                                                                                                                                                                                                            ",
"                                                                                                                                                                                                                                                                                                                                                                                                                                                                                                            ",
"                                                                                                                                                                                                                                                                                                                                                                                                                                                                                                            ",
"                                                                                                                                                                                                                                                                                                                                                                                                                                                                                                            ",
"                                                                                                                                                                                                                                                                                                                                                                                                                                                                                                            "};
