/* XPM */
static char * play_focus_xpm[] = {
"246 154 200 2",
"  	c #FF00FF",
". 	c #CC5AE9",
"+ 	c #807CD1",
"@ 	c #E345F2",
"# 	c #857BD2",
"$ 	c #8A79D4",
"% 	c #9077D5",
"& 	c #9974D8",
"* 	c #A76FDC",
"= 	c #B369E0",
"- 	c #C161E5",
"; 	c #D355EC",
"> 	c #E345F3",
", 	c #F529FA",
"' 	c #9675D7",
") 	c #BA65E2",
"! 	c #DD4BF0",
"~ 	c #FA1BFD",
"{ 	c #B867E2",
"] 	c #E93DF5",
"^ 	c #A96EDD",
"/ 	c #EC39F7",
"( 	c #817CD1",
"_ 	c #C45FE6",
": 	c #FD11FE",
"< 	c #A470DB",
"[ 	c #F627FB",
"} 	c #9A74D8",
"| 	c #F52AFA",
"1 	c #A370DB",
"2 	c #DE4BF0",
"3 	c #DC4DF0",
"4 	c #D94FEF",
"5 	c #D454EC",
"6 	c #CB5BE9",
"7 	c #BF62E5",
"8 	c #AC6CDE",
"9 	c #9277D6",
"0 	c #9D73D9",
"a 	c #B269E0",
"b 	c #F42BFA",
"c 	c #DB4DEF",
"d 	c #B667E1",
"e 	c #F724FB",
"f 	c #8979D3",
"g 	c #AD6CDE",
"h 	c #FB19FD",
"i 	c #FE08FF",
"j 	c #BE63E4",
"k 	c #D255EC",
"l 	c #FE05FF",
"m 	c #B469E0",
"n 	c #FF03FF",
"o 	c #F920FC",
"p 	c #E93EF5",
"q 	c #D851EE",
"r 	c #C65EE7",
"s 	c #FD0FFE",
"t 	c #8F78D5",
"u 	c #A66FDC",
"v 	c #847BD2",
"w 	c #F22FF9",
"x 	c #FB17FD",
"y 	c #E740F4",
"z 	c #BF62E4",
"A 	c #AE6BDF",
"B 	c #9F72D9",
"C 	c #8A79D3",
"D 	c #827BD2",
"E 	c #9476D6",
"F 	c #C85DE8",
"G 	c #DC4CF0",
"H 	c #F130F9",
"I 	c #E642F4",
"J 	c #EE36F8",
"K 	c #CD59EA",
"L 	c #B26AE0",
"M 	c #B568E1",
"N 	c #B668E1",
"O 	c #A271DB",
"P 	c #DF49F1",
"Q 	c #CE58EA",
"R 	c #9B74D8",
"S 	c #C062E5",
"T 	c #F822FC",
"U 	c #E247F2",
"V 	c #F823FC",
"W 	c #FA1CFD",
"X 	c #867AD2",
"Y 	c #DB4EEF",
"Z 	c #827CD1",
"` 	c #E246F2",
" .	c #DA4FEF",
"..	c #F033F8",
"+.	c #AE6CDE",
"@.	c #D453ED",
"#.	c #A271DA",
"$.	c #E049F1",
"%.	c #EB3BF6",
"&.	c #ED37F7",
"*.	c #F528FB",
"=.	c #887AD3",
"-.	c #F131F9",
";.	c #B16ADF",
">.	c #FE0AFE",
",.	c #F034F8",
"'.	c #D652ED",
").	c #837BD2",
"!.	c #BC64E3",
"~.	c #DA4EEF",
"{.	c #9376D6",
"].	c #E148F2",
"^.	c #FD0DFE",
"/.	c #E840F5",
"(.	c #C260E6",
"_.	c #E444F3",
":.	c #FC14FE",
"<.	c #E83FF5",
"[.	c #EA3CF6",
"}.	c #F032F8",
"|.	c #EF34F8",
"1.	c #CF57EA",
"2.	c #A171DA",
"3.	c #BD63E4",
"4.	c #B468E1",
"5.	c #E147F2",
"6.	c #8D78D4",
"7.	c #CA5BE9",
"8.	c #AA6DDD",
"9.	c #C360E6",
"0.	c #CA5CE8",
"a.	c #F726FB",
"b.	c #F42CFA",
"c.	c #F32EFA",
"d.	c #AF6BDF",
"e.	c #8C79D4",
"f.	c #D057EB",
"g.	c #E048F1",
"h.	c #B966E2",
"i.	c #ED39F7",
"j.	c #9775D7",
"k.	c #F32DFA",
"l.	c #A76EDC",
"m.	c #C95CE8",
"n.	c #9C73D9",
"o.	c #BB65E3",
"p.	c #BA65E3",
"q.	c #F725FB",
"r.	c #FC16FD",
"s.	c #D94FEE",
"t.	c #DD4CF0",
"u.	c #C261E5",
"v.	c #BD64E4",
"w.	c #9177D5",
"x.	c #D751EE",
"y.	c #C75DE7",
"z.	c #877AD3",
"A.	c #F91EFC",
"B.	c #9F72DA",
"C.	c #D552ED",
"D.	c #EC3AF6",
"E.	c #A86EDC",
"F.	c #E543F3",
"G.	c #ED38F7",
"H.	c #DE4AF1",
"I.	c #9575D7",
"J.	c #FC13FE",
"K.	c #DF4AF1",
"L.	c #9E72D9",
"M.	c #D056EB",
"N.	c #F230F9",
"O.	c #EE36F7",
"P.	c #C55FE7",
"Q.	c #9576D6",
"R.	c #CF58EA",
"S.	c #E741F4",
"T.	c #EB3AF6",
"U.	c #F32EF9",
"V.	c #E641F4",
"W.	c #F821FC",
"X.	c #9B73D8",
"Y.	c #AB6DDD",
"Z.	c #CB5AE9",
"`.	c #B866E2",
" +	c #A56FDB",
".+	c #8E78D5",
"++	c #EF35F8",
"@+	c #C55EE7",
"#+	c #8B79D4",
"$+	c #D156EB",
"%+	c #B06ADF",
"&+	c #F91FFC",
"*+	c #D751ED",
"=+	c #9874D7",
"-+	c #D850EE",
";+	c #A072DA",
">+	c #B767E1",
",+	c #D553ED",
"'+	c #CE59EA",
")+	c #E443F3",
"                                                                                                                                                                                                                                                                                                                                                                                                                                                                                                            ",
"                                                                                                                                                                                                                                                                                                                                                                                                                                                                                                            ",
"                                                                                                                                                                                                                                                                                                                                                                                                                                                                                                            ",
"                                                                                                                                                                                                                                                                                                                                                                                                                                                                                                            ",
"                                                                                                                                                                                                                                                                                                                                                                                                                                                                                                            ",
"                                                                                                                                                                                                                                                                                                                                                                                                                                                                                                            ",
"                                                                                                                                                                                                                                                                                                                                                                                                                                                                                                            ",
"                                                                                                                                                                                                                                                                                                                                                                                                                                                                                                            ",
"                                                                                                                                                                                                                                                                                                                                                                                                                                                                                                            ",
"                                                                                                                                                                                                                                                                                                                                                                                                                                                                                                            ",
"                                                                                                                                                                                                                                                                                                                                                                                                                                                                                                            ",
"                                                                                                                                                                                                                                                                                                                                                                                                                                                                                                            ",
"                                                                                                                                                                                                                                                                                                                                                                                                                                                                                                            ",
"                                                                                                                                                                                                                                                                                                                                                                                                                                                                                                            ",
"                                                                                                                                                                                                                                                                                                                                                                                                                                                                                                            ",
"                                                                                                                                                                                                                                                                                                                                                                                                                                                                                                            ",
"                                                                                                                                                                                                                                                                                                                                                                                                                                                                                                            ",
"                                                                                                                                                                                                                                                                                                                                                                                                                                                                                                            ",
"                                                                                                                                                                                                                                                                                                                                                                                                                                                                                                            ",
"                                                                                                                                                                                                                                                                                                                                                                                                                                                                                                            ",
"                                                                                                                                                                                                                                                                                                                                                                                                                                                                                                            ",
"                                                                                                                                                                                                                                                                                                                                                                                                                                                                                                            ",
"                                                                                                                                                                                                                                                                                                                                                                                                                                                                                                            ",
"                                                                                                                                                                                                                                                                                                                                                                                                                                                                                                            ",
"                                                                                                                                                                                                                                                                                                                                                                                                                                                                                                            ",
"                                                                                                                                                                                                                                                                                                                                                                                                                                                                                                            ",
"                                                                                                                                                                                                                                                                                                                                                                                                                                                                                                            ",
"                                                                                                                                                                                                                                                                                                                                                                                                                                                                                                            ",
"                                                                                                                                                                          . + + + + + + + + @                                                                                                                                                                                                                                                                                                               ",
"                                                                                                                                                                          . + + + + + + + + @                                                                                                                                                                                                                                                                                                               ",
"                                                                                                                                                                          . + + + + + + + + @                                                                                                                                                                                                                                                                                                               ",
"                                                                                                                                                                          . + + + + + + + + @                                                                                                                                                                                                                                                                                                               ",
"                                                                                                                                                                          . + + + + + + + + @                                                                                                                                                                                                                                                                                                               ",
"                                                  @ + + + + + + + + + + + + + + + + + + + # $ % & * = - ; > ,                                                             . + + + + + + + + @                                                                                                                                                                                                                                                                                                               ",
"                                                  @ + + + + + + + + + + + + + + + + + + + + + + + + + + + + + ' ) ! ~                                                     . + + + + + + + + @                                                                                                                                                                                                                                                                                                               ",
"                                                  @ + + + + + + + + + + + + + + + + + + + + + + + + + + + + + + + + # { ]                                                 . + + + + + + + + @                                                                                                                                                                                                                                                                                                               ",
"                                                  @ + + + + + + + + + + + + + + + + + + + + + + + + + + + + + + + + + + + ^ /                                             . + + + + + + + + @                                                                                                                                                                                                                                                                                                               ",
"                                                  @ + + + + + + + + + + + + + + + + + + + + + + + + + + + + + + + + + + + + ( _ :                                         . + + + + + + + + @                                                                                                                                                                                                                                                                                                               ",
"                                                  @ + + + + + + + + + + + + + + + + + + + + + + + + + + + + + + + + + + + + + + < [                                       . + + + + + + + + @                                                                                                                                                                                                                                                                                                               ",
"                                                  @ + + + + + + + + + + + + + + + + + + + + + + + + + + + + + + + + + + + + + + + } |                                     . + + + + + + + + @                                                                                                                                                                                                                                                                                                               ",
"                                                  @ + + + + + + + + 1 2 2 2 2 2 2 2 2 2 3 4 5 6 7 8 9 + + + + + + + + + + + + + + + 0 ~                                   . + + + + + + + + @                                                                                                                                                                                                                                                                                                               ",
"                                                  @ + + + + + + + + a                                 b c d # + + + + + + + + + + + + =                                   . + + + + + + + + @                                                                                                                                                                                                                                                                                                               ",
"                                                  @ + + + + + + + + a                                       e 6 f + + + + + + + + + + + 3                                 . + + + + + + + + @                                                                                                                                                                                                                                                                                                               ",
"                                                  @ + + + + + + + + a                                           , g + + + + + + + + + + % h                               . + + + + + + + + @                                                                                                                                                                                                                                                                                                               ",
"                                                  @ + + + + + + + + a                                             i j + + + + + + + + + + k                               . + + + + + + + + @                                                                                                                                                                                                                                                                                                               ",
"                                                  @ + + + + + + + + a                                               l m + + + + + + + + + ' n                             . + + + + + + + + @                                                                                                                                                                                                                                                                                                               ",
"                                                  @ + + + + + + + + a                                                 o 9 + + + + + + + + + p                             . + + + + + + + + @                                                                                                                                                                                                                                                                                                               ",
"                                                  @ + + + + + + + + a                                                   q + + + + + + + + + r                             . + + + + + + + + @                                                                                                                                                                                                                                                                                                               ",
"                                                  @ + + + + + + + + a                                                   s t + + + + + + + + u                             . + + + + + + + + @                                                                                                                                                                                                                                                                                                               ",
"                                                  @ + + + + + + + + a                                                     7 + + + + + + + + v s                           . + + + + + + + + @                                                                                                                                                                                                                                                                                                               ",
"                                                  @ + + + + + + + + a                                                     ! + + + + + + + + + w                           . + + + + + + + + @                                                         x y 5 z A B % C D v $ E 1 = F G b                                                                                                                                                                                                                     ",
"                                                  @ + + + + + + + + a                                                     H + + + + + + + + + I                           . + + + + + + + + @                                                   J K ^ v + + + + + + + + + + + + + + + + 0 K ,                                 L + + + + + + + + M                                                               N + + + + + + + + O                                                                         ",
"                                                  @ + + + + + + + + a                                                     : ( + + + + + + + + P                           . + + + + + + + + @                                             b Q R + + + + + + + + + + + + + + + + + + + + + + # S T                             U + + + + + + + + v V                                                           W X + + + + + + + + 5                                                                         ",
"                                                  @ + + + + + + + + a                                                       f + + + + + + + + Y                           . + + + + + + + + @                                         p N Z + + + + + + + + + + + + + + + + + + + + + + + + + + t `                           i E + + + + + + + + 5                                                           4 + + + + + + + + v T                                                                         ",
"                                                  @ + + + + + + + + a                                                       % + + + + + + + +  .                          . + + + + + + + + @                                     ..+.+ + + + + + + + + + + + + + + + + + + + + + + + + + + + + + ( @.                          6 + + + + + + + + #.                                                          g + + + + + + + + N                                                                           ",
"                                                  @ + + + + + + + + a                                                       $ + + + + + + + + $.                          . + + + + + + + + @                                     %.+ + + + + + + + + + + + + + + + + + + + + + + + + + + + + + + + + 3                         b Z + + + + + + + + &.                                                      *.Z + + + + + + + + `                                                                           ",
"                                                  @ + + + + + + + + a                                                     n D + + + + + + + + I                           . + + + + + + + + @                                       #.+ + + + + + + + + + + + + + + + + + + + + + + + + + + + + + + + =.-.                        ;.+ + + + + + + + _                                                       k + + + + + + + + 9 >.                                                                          ",
"                                                  @ + + + + + + + + a                                                     *.+ + + + + + + + + ,.                          . + + + + + + + + @                                       '.+ + + + + + + + + + ).#.!.6 '.~.3 @.. N {.+ + + + + + + + + + + + ;.                        ].+ + + + + + + + % ^.                                                    O + + + + + + + + r                                                                             ",
"                                                  @ + + + + + + + + a                                                     /.+ + + + + + + + # ^.                          . + + + + + + + + @                                       W =.+ + + + + + % (._.:.                    <.m + + + + + + + + + + + [.                      >.{.+ + + + + + + + ].                                                  }.+ + + + + + + + + |.                                                                            ",
"                                                  @ + + + + + + + + a                                                     1.+ + + + + + + + 2.                            . + + + + + + + + @                                         3.+ + + v 4.5.^.                              5.6.+ + + + + + + + + !.                        7.+ + + + + + + + =                                                   6 + + + + + + + + <                                                                               ",
"                                                  @ + + + + + + + + a                                                     8.+ + + + + + + + 9.                            . + + + + + + + + @                                         [.+ 6.0.a.                                      }.6.+ + + + + + + + C ^.                      b.( + + + + + + + ).e                                                 & + + + + + + + + '.                                                                              ",
"                                                  @ + + + + + + + + a                                                   c.( + + + + + + + + I                             . + + + + + + + + @                                           c x                                             ! + + + + + + + + + /.                        d.+ + + + + + + + ;                                               [.+ + + + + + + + X o                                                                               ",
"                                                  @ + + + + + + + + a                                                   j + + + + + + + + e.s                             . + + + + + + + + @                                                                                           n 2.+ + + + + + + + f.                        g.+ + + + + + + + 2.                                              (.+ + + + + + + + {                                                                                 ",
"                                                  @ + + + + + + + + a                                                 ] D + + + + + + + + r                               . + + + + + + + + @                                                                                             @.+ + + + + + + + h.                        ^.9 + + + + + + + + i.                                          >.% + + + + + + + + _.                                                                                ",
"                                                  @ + + + + + + + + a                                               *.j.+ + + + + + + + Z k.                              . + + + + + + + + @                                                                                             H + + + + + + + + l.                          m.+ + + + + + + + 9.                                          _.+ + + + + + + + {.i                                                                                 ",
"                                                  @ + + + + + + + + a                                             H n.+ + + + + + + + + o.                                . + + + + + + + + @                                                                                               6.+ + + + + + + '                           c.( + + + + + + + t s                                         p.+ + + + + + + + F                                                                                   ",
"                                                  @ + + + + + + + + a                                         l q e.+ + + + + + + + + 6.q.                                . + + + + + + + + @                                                                                               * + + + + + + + $                             A + + + + + + + + $.                                      x f + + + + + + + + }.                                                                                  ",
"                                                  @ + + + + + + + + a                                     r.Y B + + + + + + + + + + + s.                                  . + + + + + + + + @                                                                                               4.+ + + + + + + v                             P + + + + + + + + a                                       t.+ + + + + + + + *                                                                                     ",
"                                                  @ + + + + + + + + a                             n w  .h.C + + + + + + + + + + + + u.                                    . + + + + + + + + @                                                                                               v.+ + + + + + + +                             ^.w.+ + + + + + + D a.                                    ;.+ + + + + + + + x.                                                                                    ",
"                                                  @ + + + + + + + + 1 2 2 2 2 2 2 2 ! Y x.f.y.h.* $ + + + + + + + + + + + + + + + N l                                     . + + + + + + + + @                                                                                               S + + + + + + + +                               F + + + + + + + + k                                   V ).+ + + + + + + z.A.                                                                                    ",
"                                                  @ + + + + + + + + + + + + + + + + + + + + + + + + + + + + + + + + + + + + + + j :                                       . + + + + + + + + @                                                                                               - + + + + + + + +                               w ( + + + + + + + B.                                  C.+ + + + + + + + h.                                                                                      ",
"                                                  @ + + + + + + + + + + + + + + + + + + + + + + + + + + + + + + + + + + + + ).@.                                          . + + + + + + + + @                                                                                               - + + + + + + + +                                 g + + + + + + + + D.                                E.+ + + + + + + + F.                                                                                      ",
"                                                  @ + + + + + + + + + + + + + + + + + + + + + + + + + + + + + + + + + + + l.G.                                            . + + + + + + + + @                                                                                               - + + + + + + + +                                 H.+ + + + + + + + (.                              c.+ + + + + + + + I.l                                                                                       ",
"                                                  @ + + + + + + + + + + + + + + + + + + + + + + + + + + + + + + + + + 9 s.n                                               . + + + + + + + + @                                                       : i.~.6 o.g #.' 6.=.).+ + + + + + + + + + + + + + + + + +                                 s % + + + + + + + 6.:                             Q + + + + + + + + 0.                                                                                        ",
"                                                  @ + + + + + + + + + + + + + + + + + + + + + + + + + + + + + + + < q J.                                                  . + + + + + + + + @                                               n p 7.u ).+ + + + + + + + + + + + + + + + + + + + + + + + + + + +                                   y.+ + + + + + + + K.                            L.+ + + + + + + + H                                                                                         ",
"                                                  @ + + + + + + + + + + + + + + + + + + + + + + + + + + + f 8 M.}.                                                        . + + + + + + + + @                                           a.6 j.+ + + + + + + + + + + + + + + + + + + + + + + + + + + + + + + +                                   N.+ + + + + + + + ;.                          G.+ + + + + + + + ^                                                                                           ",
"                                                  @ + + + + + + + + + + + + + + + + + Z # C E B.8 o.6 t.O.>.                                                              . + + + + + + + + @                                       W P.z.+ + + + + + + + + + + + + + + + + + + + + + + + + + + + + + + + + +                                     8 + + + + + + + D [                         r + + + + + + + + s.                                                                                          ",
"                                                  @ + + + + + + + + a                                                                                                     . + + + + + + + + @                                     > 9 + + + + + + + + + + + + + + + + + + + + + + + + + + + + + + + + + + + +                                     ! + + + + + + + + M.                      l Q.+ + + + + + + z.~                                                                                           ",
"                                                  @ + + + + + + + + a                                                                                                     . + + + + + + + + @                                   R.( + + + + + + + + + + + + + + + + + + + + + + + + + + + + + + + + + + + + +                                     : t + + + + + + + L.                      S.+ + + + + + + + o.                                                                                            ",
"                                                  @ + + + + + + + + a                                                                                                     . + + + + + + + + @                                 7.+ + + + + + + + + + + + ( 2.j k g.T.U.T r.^.                a + + + + + + + +                                       r + + + + + + + + %.                    j + + + + + + + + V.                                                                                            ",
"                                                  @ + + + + + + + + a                                                                                                     . + + + + + + + + @                               ~.+ + + + + + + + + + + ^ 4 W.                                  a + + + + + + + +                                       -.+ + + + + + + + -                   : e.+ + + + + + + j.n                                                                                             ",
"                                                  @ + + + + + + + + a                                                                                                     . + + + + + + + + @                             U.z.+ + + + + + + + + X.S.                                        a + + + + + + + +                                         Y.+ + + + + + + 6.J.                g.+ + + + + + + + Z.                                                                                              ",
"                                                  @ + + + + + + + + a                                                                                                     . + + + + + + + + @                             4.+ + + + + + + + + ^ A.                                          a + + + + + + + +                                         t.+ + + + + + + + P                 `.+ + + + + + + + U.                                                                                              ",
"                                                  @ + + + + + + + + a                                                                                                     . + + + + + + + + @                           }.+ + + + + + + + +  +r.                                            a + + + + + + + +                                         : .++ + + + + + + =               J.C + + + + + + + 8.                                                                                                ",
"                                                  @ + + + + + + + + a                                                                                                     . + + + + + + + + @                           r + + + + + + + + v ++                                              +.+ + + + + + + +                                           @++ + + + + + + v W.            ].+ + + + + + + + ~.                                                                                                ",
"                                                  @ + + + + + + + + a                                                                                                     . + + + + + + + + @                           n.+ + + + + + + + -                                                 * + + + + + + + +                                           }.+ + + + + + + + '.            p.+ + + + + + + f h                                                                                                 ",
"                                                  @ + + + + + + + + a                                                                                                     . + + + + + + + + @                         T + + + + + + + + + <.                                                Q.+ + + + + + + +                                             8.+ + + + + + + 8.          : #++ + + + + + + v.                                                                                                  ",
"                                                  @ + + + + + + + + a                                                                                                     . + + + + + + + + @                         p + + + + + + + + #+l                                               h Z + + + + + + + +                                             3 + + + + + + + ( [         ` + + + + + + + + /.                                                                                                  ",
"                                                  @ + + + + + + + + a                                                                                                     . + + + + + + + + @                         K.+ + + + + + + + B                                                 S.+ + + + + + + + +                                             J.6.+ + + + + + + 5         !.+ + + + + + + & n                                                                                                   ",
"                                                  @ + + + + + + + + a                                                                                                     . + + + + + + + + @                         4 + + + + + + + + g                                                 r + + + + + + + + +                                               _ + + + + + + + ^       ^.6.+ + + + + + + K                                                                                                     ",
"                                                  @ + + + + + + + + a                                                                                                     . + + + + + + + + @                         4 + + + + + + + + Y.                                              ^.Q.+ + + + + + + + +                                               ,.+ + + + + + + Z T     F.+ + + + + + + ( b.                                                                                                    ",
"                                                  @ + + + + + + + + a                                                                                                     . + + + + + + + + @                         ! + + + + + + + + B                                               ~.+ + + + + + + + + +                                                 ^ + + + + + + + G     u.+ + + + + + + g                                                                                                       ",
"                                                  @ + + + + + + + + a                                                                                                     . + + + + + + + + @                         V.+ + + + + + + + # h                                           A.{.+ + + + + + + + + +                                                 c + + + + + + + h.    ' + + + + + + + c                                                                                                       ",
"                                                  @ + + + + + + + + a                                                                                                     . + + + + + + + + @                         w + + + + + + + + + U                                         l a + + + + + + + + + + +                                                 :.6.+ + + + + + %   J + + + + + + + $ x                                                                                                       ",
"                                                  @ + + + + + + + + a                                                                                                     . + + + + + + + + @                         l $ + + + + + + + + * n                                     >.o.+ + + + + + + + + + + +                                                   9.+ + + + + + + U.$++ + + + + + + j                                                                                                         ",
"                                                  @ + + + + + + + + a                                                                                                     . + + + + + + + + @                           d.+ + + + + + + + + k                                   }.u + + + + + + + + + + + + +                                                   +++ + + + + + + ! d.+ + + + + + + p                                                                                                         ",
"                                                  @ + + + + + + + + a                                                                                                     . + + + + + + + + @                           x.+ + + + + + + + + + 1.l                           W R.X + + + + + + + + + + + + + +                                                     l.+ + + + + + %+=.+ + + + + + R                                                                                                           ",
"                                                  @ + + + + + + + + a                                                                                                     . + + + + + + + + @                           &+f + + + + + + + + + +  +U i                 >.T.u.f + + + + + + v H.).+ + + + + + +                                                     ~.+ + + + + + + + + + + + + + Q                                                                                                           ",
"                                                  @ + + + + + + + + a                                                                                                     . + + + + + + + + @                             y.+ + + + + + + + + + + + w.d Q x.G *+R.r g f + + + + + + + + +  .  O + + + + + + +                                                     r.e.+ + + + + + + + + + + + Z |                                                                                                           ",
"                                                  @ + + + + + + + + a                                                                                                     . + + + + + + + + @                             ~ Q.+ + + + + + + + + + + + + + + + + + + + + + + + + + + + + .     - + + + + + + +                                                       (.+ + + + + + + + + + + + A                                                                                                             ",
"                                                  @ + + + + + + + + a                                                                                                     . + + + + + + + + @                               [.# + + + + + + + + + + + + + + + + + + + + + + + + + + + Z.      Y + + + + + + +                                                       O.+ + + + + + + + + + + + !                                                                                                             ",
"                                                  @ + + + + + + + + a                                                                                                     . + + + + + + + + @                                 ` z.+ + + + + + + + + + + + + + + + + + + + + + + + D @.        }.+ + + + + + +                                                         u + + + + + + + + + + #+:.                                                                                                            ",
"                                                  @ + + + + + + + + a                                                                                                     . + + + + + + + + @                                   G.2.+ + + + + + + + + + + + + + + + + + + + + + {.V.          n e.+ + + + + +                                                         4 + + + + + + + + + + S                                                                                                               ",
"                                                  @ + + + + + + + + a                                                                                                     . + + + + + + + + @                                     s 6 z.+ + + + + + + + + + + + + + + + + + Z z A.              A + + + + + +                                                         x #++ + + + + + + + + [.                                                                                                              ",
"                                                  @ + + + + + + + + a                                                                                                     . + + + + + + + + @                                         T f.j.+ + + + + + + + + + + + + + t 9.U.                  6 + + + + + +                                                           - + + + + + + + + 0                                                                                                                 ",
"                                                                                                                                                                                                                                          l O.'.o.u & 6.D z.% =+Y.j $+D.l                                                                                               C.+ + + + + + + + f.                                                                                                                ",
"                                                                                                                                                                                                                                                                                                                                                                        < + + + + + + + Z *.                                                                                                                ",
"                                                                                                                                                                                                                                                                                                                                                                      G.+ + + + + + + + ;.                                                                                                                  ",
"                                                                                                                                                                                                                                                                                                                                                                      S + + + + + + + + H.                                                                                                                  ",
"                                                                                                                                                                                                                                                                                                                                                                    h $ + + + + + + + 6.:                                                                                                                   ",
"                                                                                                                                                                                                                                                                                                                                                                    -++ + + + + + + + u.                                                                                                                    ",
"                                                                                                                                                                                                                                                                                                                                                                    u + + + + + + + + T.                                                                                                                    ",
"                                                                                                                                                                                                                                                                                                                                                                  G.+ + + + + + + + ;+                                                                                                                      ",
"                                                                                                                                                                                                                                                                                                                                                                  !.+ + + + + + + + *+                                                                                                                      ",
"                                                                                                                                                                                                                                                                                                                                                                k.# + + + + + + + #+h                                                                                                                       ",
"                                                                                                                                                                                                                                                                                                                                                                >++ + + + + + + + 9.                                                                                                                        ",
"                                                                                                                                                                                                                                                                                                                                                              ].+ + + + + + + + # b                                                                                                                         ",
"                                                                                                                                                                                                                                                                                                                                                            c.6.+ + + + + + + + _                                                                                                                           ",
"                                                                                                                                                                                                                                                                                                                                                          | =++ + + + + + + + C e                                                                                                                           ",
"                                                                                                                                                                                                                                                                                                                                                        ] ' + + + + + + + + + $+                                                                                                                            ",
"                                                                                                                                                                                                                                                                                                                                                    H S D + + + + + + + + + l.i                                                                                                                             ",
"                                                                                                                                                                                                                                                                                                                                Y.m P.Q ,+c ~.k 9.2.( + + + + + + + + + + z.-.                                                                                                                              ",
"                                                                                                                                                                                                                                                                                                                                9 + + + + + + + + + + + + + + + + + + + + t.                                                                                                                                ",
"                                                                                                                                                                                                                                                                                                                                9 + + + + + + + + + + + + + + + + + + + '+                                                                                                                                  ",
"                                                                                                                                                                                                                                                                                                                                9 + + + + + + + + + + + + + + + + + + -                                                                                                                                     ",
"                                                                                                                                                                                                                                                                                                                                9 + + + + + + + + + + + + + + + + Z .                                                                                                                                       ",
"                                                                                                                                                                                                                                                                                                                                9 + + + + + + + + + + + + + + + 0 y                                                                                                                                         ",
"                                                                                                                                                                                                                                                                                                                                9 + + + + + + + + + + + + + 1  .>.                                                                                                                                          ",
"                                                                                                                                                                                                                                                                                                                                )+K h.u ' C v ( z.{.u !.C.w                                                                                                                                                 ",
"                                                                                                                                                                                                                                                                                                                                                                                                                                                                                                            ",
"                                                                                                                                                                                                                                                                                                                                                                                                                                                                                                            ",
"                                                                                                                                                                                                                                                                                                                                                                                                                                                                                                            ",
"                                                                                                                                                                                                                                                                                                                                                                                                                                                                                                            ",
"                                                                                                                                                                                                                                                                                                                                                                                                                                                                                                            ",
"                                                                                                                                                                                                                                                                                                                                                                                                                                                                                                            ",
"                                                                                                                                                                                                                                                                                                                                                                                                                                                                                                            ",
"                                                                                                                                                                                                                                                                                                                                                                                                                                                                                                            ",
"                                                                                                                                                                                                                                                                                                                                                                                                                                                                                                            ",
"                                                                                                                                                                                                                                                                                                                                                                                                                                                                                                            ",
"                                                                                                                                                                                                                                                                                                                                                                                                                                                                                                            ",
"                                                                                                                                                                                                                                                                                                                                                                                                                                                                                                            ",
"                                                                                                                                                                                                                                                                                                                                                                                                                                                                                                            ",
"                                                                                                                                                                                                                                                                                                                                                                                                                                                                                                            ",
"                                                                                                                                                                                                                                                                                                                                                                                                                                                                                                            ",
"                                                                                                                                                                                                                                                                                                                                                                                                                                                                                                            ",
"                                                                                                                                                                                                                                                                                                                                                                                                                                                                                                            ",
"                                                                                                                                                                                                                                                                                                                                                                                                                                                                                                            ",
"                                                                                                                                                                                                                                                                                                                                                                                                                                                                                                            ",
"                                                                                                                                                                                                                                                                                                                                                                                                                                                                                                            ",
"                                                                                                                                                                                                                                                                                                                                                                                                                                                                                                            ",
"                                                                                                                                                                                                                                                                                                                                                                                                                                                                                                            ",
"                                                                                                                                                                                                                                                                                                                                                                                                                                                                                                            ",
"                                                                                                                                                                                                                                                                                                                                                                                                                                                                                                            ",
"                                                                                                                                                                                                                                                                                                                                                                                                                                                                                                            "};
