/* XPM */
static char * rotation_xpm[] = {
"401 99 2 1",
" 	c #FF00FF",
".	c #FFFFFF",
"                                                                                                                                                                                                                                                                                                                                                                                                                 ",
"                                                                                                                                                                                                                                                                                                                                                                                                                 ",
"                                                                                                                                                                                                                                                                                                                                                                                                                 ",
"                                                                                                                                                                                                                                                                                                                                                                                                                 ",
"                                                                                                                                                                                                                                                                                                                                                                                                                 ",
"                                                                                                                                                                                                                                                                                                                                                                                                                 ",
"                                                                                                                                                                                                                                                                                                                                                                                                                 ",
"                                                                                                                                                                                                                                                                                                                                                                                                                 ",
"                                                                                                                                                                                                                                                                                                                                                                                                                 ",
"                                                                                                                                                                                                                                                                                                                                                                                                                 ",
"                                                                                                                                                                                                                                                                                                                                                                                                                 ",
"                                                                                                                                                                                                                                                                                                                                                                                                                 ",
"                                                                                                                                                                                                                                                                                                                                                                                                                 ",
"                                                                                                                                                                                                                                                                                                                                                                                                                 ",
"                                                                                                                                                                                                                                                                                                                                                                                                                 ",
"                                                                                                                                                                                                                                                                                                                                                                                                                 ",
"                                                                                                                                                                                                                                                                                                                                                                                                                 ",
"                                                                                                                                                                                                                                                                                                                                                                                                                 ",
"                                                                                                                                                                                                                                                                                                                                                                                                                 ",
"                                                                                                                                                                                                                                                                                                                                                                                                                 ",
"                                                                                                                                                                                                                                                                                                          ....                                                                                                   ",
"                                                                                                                                                                                                                                                                                                         ......                                                                                                  ",
"                      ......                   ......                                                                                         ..................                                                                                                                                         ......                                                                                                  ",
"                      ......                  ......                                                                                          ......................                                                                                                                                     ......                                                                                                  ",
"                      ......                 ......                                                                                           ........................                                                                                                                                   ......                                                                                                  ",
"                      ......                .......                                                                                           .........................                                                      ...                                                      ...                ......                                                                                                  ",
"                      ......               .......                                                                                            ..........................                                                    ....                                                     ....                 ....                                                                                                   ",
"                      ......              .......                                                                                             ......            .........                                                   ....                                                     ....                                                                                                                        ",
"                      ......             .......                                                                                              ......              .......                                                   ....                                                     ....                                                                                                                        ",
"                      ......            .......                                                                                               ......               .......                                                  ....                                                     ....                                                                                                                        ",
"                      ......            ......                                                                                                ......                ......                                                 .....                                                    .....                                                                                                                        ",
"                      ......           ......                                                                                                 ......                ......                                                 .....                                                    .....                                                                                                                        ",
"                      ......          ......                                                                                                  ......                ......                                                 .....                                                    .....                                                                                                                        ",
"                      ......         ......                        ...........          ......                    .....                       ......                ......                  ............                 .................            .............               .................      ......                  ............                  .....      ...........                            ",
"                      ......        ......                       ...............         .....                   ......                       ......                 .....                ................             ...................          .................           ...................      ......                ................                .....    ...............                          ",
"                      ......       ......                      ..................        ......                  ......                       ......                 .....              ...................           ....................        ....................         ....................      ......              ...................               .....   .................                         ",
"                      ......      .......                     ....................       ......                 ......                        ......                ......             .....................          ....................        .....................        ....................      ......             .....................              .....  ...................                        ",
"                      ......     .......                     ........      ........       ......                ......                        ......                ......            .........      ........         ...................         .......       ........       ...................       ......            .........      ........             ............      .........                       ",
"                      ......    .......                     .......          .......      ......                ......                        ......                ......           .......           .......             .....                   ...           .......            .....                ......           .......           .......            ..........          .......                       ",
"                      ......   .......                      ......            ......       .....               ......                         ......               ......            ......             .......            .....                                  ......            .....                ......           ......             .......           ........             .......                      ",
"                      ......   ......                      ......              ......      ......              ......                         ......              .......           ......               ......            .....                                   .....            .....                ......          ......               ......           ........              ......                      ",
"                      ......  ......                       .....               ......      ......              .....                          ......             .......            ......                ......           .....                                   ......           .....                ......          ......                ......          .......               ......                      ",
"                      ...... ........                     ......                .....       .....             ......                          ......           ........            ......                 ......           .....                                   ......           .....                ......         ......                 ......          .......                .....                      ",
"                      ................                    ......                .....       ......            ......                          ........................             ......                  .....           .....                                   ......           .....                ......         ......                  .....          ......                 .....                      ",
"                      .................                   .....                 ......       .....            .....                           .......................              ......                  ......          .....                                   ......           .....                ......         ......                  ......         ......                 .....                      ",
"                      .................                   .....                 ......       ......          ......                           .....................                .....                   ......          .....                                   ......           .....                ......         .....                   ......         ......                 .....                      ",
"                      .........  .......                  ............................       ......          .....                            ....................                 .....                   ......          .....                        .................           .....                ......         .....                   ......         ......                 .....                      ",
"                      .......     .......                 ............................        .....          .....                            ....................                ......                   ......          .....                    .....................           .....                ......        ......                   ......         ......                 .....                      ",
"                      ......       ......                .............................        ......        ......                            ......         ......               ......                   ......          .....                  .......................           .....                ......        ......                   ......         ......                 .....                      ",
"                      ......       .......               .............................         .....        .....                             ......          ......              ......                    .....          .....                 ........................           .....                ......        ......                    .....         ......                 .....                      ",
"                      ......        .......              ............................          ......      ......                             ......          ......              ......                   ......          .....                .........          ......           .....                ......        ......                   ......         ......                 .....                      ",
"                      ......         .......             ......                                 .....      ......                             ......           ......             ......                   ......          .....               .......             ......           .....                ......        ......                   ......         ......                 .....                      ",
"                      ......          ......              .....                                 .....      .....                              ......           ......              .....                   ......          .....               ......              ......           .....                ......         .....                   ......         ......                 .....                      ",
"                      ......          .......             .....                                 ......    ......                              ......            ......             .....                   ......          .....              ......               ......           .....                ......         .....                   ......         ......                 .....                      ",
"                      ......           .......            ......                                 .....    .....                               ......            .......            ......                  ......          .....              ......               ......           .....                ......         ......                  ......         ......                 .....                      ",
"                      ......            .......           ......                                 .....    .....                               ......             ......            ......                  .....           .....              ......               ......           .....                ......         ......                  .....          ......                 .....                      ",
"                      ......             ......           ......                                  .....  ......                               ......              ......           ......                 ......           .....              ......               ......           .....                ......         ......                 ......          ......                 .....                      ",
"                      ......             .......           ......                                 .....  .....                                ......              ......            ......                ......           .....              ......              .......           .....                ......          ......                ......          ......                 .....                      ",
"                      ......              .......          .......                                .....  .....                                ......               ......           ......               ......            .....              ......              .......           .....                ......          ......               ......           ......                 .....                      ",
"                      ......               .......          ......                                 ..... .....                                ......               .......           ......             .......            ......             ......             ........           ......               ......           ......             .......           ......                 .....                      ",
"                      ......                ......          ........              ..               ..........                                 ......                ......           .......           .......             .......            .......          ..........           .......              ......           .......           .......            ......                 .....                      ",
"                      ......                .......          .........         .....                .........                                 ......                 ......           .........      ........               .......      .     ........      ...... .....            .......      .      ......            .........      ........             ......                 .....                      ",
"                      ......                 .......          ......................                ........                                  ......                 .......           .....................                ..............     ...................  .....            ..............      ......             .....................              ......                 .....                      ",
"                      ......                  .......          .....................                ........                                  ......                  ......            ...................                  .............      .................   .....             .............      ......              ...................               ......                 .....                      ",
"                      ......                   ......            ...................                 .......                                  ......                  .......             ................                    ............       ...............    .....              ............      ......                ................                ......                 .....                      ",
"                      ......                   .......             ..............                    ......                                   ......                   ......               ............                       ...........         ...........       ....               ...........      ......                  ............                  ......                 .....                      ",
"                                                                                                     ......                                                                                                                                                                                                                                                                                                      ",
"                                                                                                     ......                                                                                                                                                                                                                                                                                                      ",
"                                                                                                     .....                                                                                                                                                                                                                                                                                                       ",
"                                                                                                    ......                                                                                                                                                                                                                                                                                                       ",
"                                                                                                    .....                                                                                                                                                                                                                                                                                                        ",
"                                                                                                   ......                                                                                                                                                                                                                                                                                                        ",
"                                                                                                   ......                                                                                                                                                                                                                                                                                                        ",
"                                                                                                  ......                                                                                                                                                                                                                                                                                                         ",
"                                                                                                 .......                                                                                                                                                                                                                                                                                                         ",
"                                                                                                .......                                                                                                                                                                                                                                                                                                          ",
"                                                                                         .............                                                                                                                                                                                                                                                                                                           ",
"                                                                                         ............                                                                                                                                                                                                                                                                                                            ",
"                                                                                         ...........                                                                                                                                                                                                                                                                                                             ",
"                                                                                         ..........                                                                                                                                                                                                                                                                                                              ",
"                                                                                         ........                                                                                                                                                                                                                                                                                                                ",
"                                                                                                                                                                                                                                                                                                                                                                                                                 ",
"                                                                                                                                                                                                                                                                                                                                                                                                                 ",
"                                                                                                                                                                                                                                                                                                                                                                                                                 ",
"                                                                                                                                                                                                                                                                                                                                                                                                                 ",
"                                                                                                                                                                                                                                                                                                                                                                                                                 ",
"                                                                                                                                                                                                                                                                                                                                                                                                                 ",
"                                                                                                                                                                                                                                                                                                                                                                                                                 ",
"                                                                                                                                                                                                                                                                                                                                                                                                                 ",
"                                                                                                                                                                                                                                                                                                                                                                                                                 ",
"                                                                                                                                                                                                                                                                                                                                                                                                                 ",
"                                                                                                                                                                                                                                                                                                                                                                                                                 ",
"                                                                                                                                                                                                                                                                                                                                                                                                                 ",
"                                                                                                                                                                                                                                                                                                                                                                                                                 ",
"                                                                                                                                                                                                                                                                                                                                                                                                                 ",
"                                                                                                                                                                                                                                                                                                                                                                                                                 ",
"                                                                                                                                                                                                                                                                                                                                                                                                                 ",
"                                                                                                                                                                                                                                                                                                                                                                                                                 ",
"                                                                                                                                                                                                                                                                                                                                                                                                                 "};
