/* XPM */
static char * speed_xpm[] = {
"319 154 2 1",
" 	c #FF00FF",
".	c #FFFFFF",
"                                                                                                                                                                                                                                                                                                                               ",
"                                                                                                                                                                                                                                                                                                                               ",
"                                                                                                                                                                                                                                                                                                                               ",
"                                                                                                                                                                                                                                                                                                                               ",
"                                                                                                                                                                                                                                                                                                                               ",
"                                                                                                                                                                                                                                                                                                                               ",
"                                                                                                                                                                                                                                                                                                                               ",
"                                                                                                                                                                                                                                                                                                                               ",
"                                                                                                                                                                                                                                                                                                                               ",
"                                                                                                                                                                                                                                                                                                                               ",
"                                                                                                                                                                                                                                                                                                                               ",
"                                                                                                                                                                                                                                                                                                                               ",
"                                                                                                                                                                                                                                                                                                                               ",
"                                                                                                                                                                                                                                                                                                                               ",
"                                                                                                                                                                                                                                                                                                                               ",
"                                                                                                                                                                                                                                                                                                                               ",
"                                                                                                                                                                                                                                                                                                                               ",
"                                                                                                                                                                                                                                                                                                                               ",
"                                                                                                                                                                                                                                                                                                                               ",
"                                                                                                                                                                                                                                                                                                                               ",
"                                                                                                                                                                                                                                                                                                                               ",
"                                                                                                                                                                                                                                                                                                                               ",
"                                                                                                                                                                                                                                                                                                                               ",
"                                                                                                                                                                                                                                                                                                                               ",
"                                                                                                                                                                                                                                                                                                                               ",
"                                                                                                                                                                                                                                                                                                                               ",
"                                                                                                                                                                                                                                                                                                                               ",
"                                                                                                                                                                                                                                                                                                                               ",
"                                                                                                                                                                                                                                                                                                                               ",
"                                                                                                                                                                                                                                                                                                 .........                     ",
"                                                                                                                                                                                                                                                                                                 .........                     ",
"                                                                                                                                                                                                                                                                                                 .........                     ",
"                                                                                                                                                                                                                                                                                                 .........                     ",
"                                       .............                                                                                                                                                                                                                                             .........                     ",
"                                   ......................                                                                                                                                                                                                                                        .........                     ",
"                                ............................                                                                                                                                                                                                                                     .........                     ",
"                              .................................                                                                                                                                                                                                                                  .........                     ",
"                             ...................................                                                                                                                                                                                                                                 .........                     ",
"                            ....................................                                                                                                                                                                                                                                 .........                     ",
"                           .....................................                                                                                                                                                                                                                                 .........                     ",
"                          .....................................                                                                                                                                                                                                                                  .........                     ",
"                         ...............          .............                                                                                                                                                                                                                                  .........                     ",
"                        .............                 .........                                                                                                                                                                                                                                  .........                     ",
"                        ...........                      .....                                                                                                                                                                                                                                   .........                     ",
"                       ...........                          ..                                                                                                                                                                                                                                   .........                     ",
"                       ..........                                                                                                                                                                                                                                                                .........                     ",
"                       .........                                                                                                                                                                                                                                                                 .........                     ",
"                      ..........                                                                                                                                                                                                                                                                 .........                     ",
"                      ..........                                                                                                                                                                                                                                                                 .........                     ",
"                      .........                                                                                                                                                                                                                                                                  .........                     ",
"                      .........                                                                                                                                                                                                                                                                  .........                     ",
"                      .........                                                                     ..........                                               ..........                                              ..........                                             ..........           .........                     ",
"                      .........                                                ........         .................                                         .................                                       .................                                     .................        .........                     ",
"                      .........                                                ........        ....................                                    ......................                                  ......................                                 .....................      .........                     ",
"                      .........                                                ........      ........................                                 .........................                               .........................                              ........................    .........                     ",
"                      ..........                                               ........     ..........................                              ............................                            ............................                           ...........................   .........                     ",
"                      ..........                                               ........    .............................                           ..............................                          ..............................                         .............................   ........                     ",
"                       ..........                                              .........  ...............................                         ................................                        ................................                       ...............................  ........                     ",
"                       ..........                                              ......... ............     ...............                        ...............    ...............                      ...............    ...............                     ................    ............. ........                     ",
"                       ...........                                             .................             .............                      ............            ............                    ............            ............                   .............             .................                     ",
"                        ...........                                            ................                ............                     ..........                ..........                    ..........                ..........                   ...........                 ...............                     ",
"                        .............                                          ..............                   ...........                    ..........                  ..........                  ..........                  ..........                 ...........                   ..............                     ",
"                         ..............                                        .............                     ...........                  ..........                    ..........                ..........                    ..........                ..........                     .............                     ",
"                          ...............                                      .............                      ..........                  .........                     ..........                .........                     ..........               ...........                      ............                     ",
"                          .................                                    ............                        ..........                ..........                      .........               ..........                      .........               ..........                       ............                     ",
"                           ..................                                  ...........                         ..........                .........                       ..........              .........                       ..........             ..........                         ...........                     ",
"                            ....................                               ...........                          .........                .........                        .........              .........                        .........             ..........                         ...........                     ",
"                              ....................                             ...........                          ..........              .........                         .........             .........                         .........             .........                           ..........                     ",
"                               ......................                          ..........                           ..........              .........                         ..........            .........                         ..........            .........                           ..........                     ",
"                                 ......................                        ..........                            .........              .........                          .........            .........                          .........           ..........                           ..........                     ",
"                                   .....................                       ..........                            .........             .........                           .........           .........                           .........           ..........                            .........                     ",
"                                     .....................                     ..........                            .........             .........                           .........           .........                           .........           .........                             .........                     ",
"                                       .....................                   ..........                            ..........            .........                           .........           .........                           .........           .........                             .........                     ",
"                                          ...................                  ..........                             .........            .........                           .........           .........                           .........           .........                             .........                     ",
"                                            ..................                 .........                              .........            .............................................           .............................................           .........                             .........                     ",
"                                               ................                .........                              .........            .............................................           .............................................           .........                             .........                     ",
"                                                 ..............                .........                              .........            .............................................           .............................................           .........                             .........                     ",
"                                                   .............               .........                              .........            .............................................           .............................................           .........                             .........                     ",
"                                                    .............              .........                              .........            .............................................           .............................................           .........                             .........                     ",
"                                                     ............              .........                              .........            .............................................           .............................................           .........                             .........                     ",
"                                                       ..........              .........                              .........            .............................................           .............................................           .........                             .........                     ",
"                                                       ...........             .........                              .........            .........                                               .........                                               .........                             .........                     ",
"                                                        ..........             .........                              .........            .........                                               .........                                               .........                             .........                     ",
"                                                        ..........             ..........                             .........            .........                                               .........                                               .........                             .........                     ",
"                                                         .........             ..........                            ..........            .........                                               .........                                               .........                             .........                     ",
"                                                         .........             ..........                            ..........            .........                                               .........                                               .........                             .........                     ",
"                                                         .........             ..........                            .........             .........                                               .........                                               .........                             .........                     ",
"                                                         .........             ..........                            .........             .........                                               .........                                               .........                             .........                     ",
"                                                         .........             ..........                            .........              .........                                               .........                                              ..........                            .........                     ",
"                                                         .........             ...........                          ..........              .........                                               .........                                               .........                           ..........                     ",
"                                                         .........             ...........                          ..........              .........                                               .........                                               .........                           ..........                     ",
"                                                         .........             ...........                          .........               ..........                                              ..........                                              ..........                          ..........                     ",
"                                                        .........              ............                        ..........                .........                                               .........                                              ..........                         ...........                     ",
"                                                        .........              ............                        ..........                ..........                                              ..........                                              ..........                        ...........                     ",
"                                                       ..........              .............                      ..........                  ..........                                              ..........                                             ..........                       ............                     ",
"                                                      ..........               .............                     ...........                  ...........                                             ...........                                             ..........                     .............                     ",
"                     ...                             ...........               ..............                   ...........                    ...........                           .                 ...........                           .                ...........                   ..............                     ",
"                     ......                         ...........                ................                ............                     ............                      ....                  ............                      ....                 ...........                 ...............                     ",
"                     ..........                  .............                 ..................            .............                      ..............                 .......                  ..............                 .......                 .............             .................                     ",
"                     ................       ..................                 ......... ............     ...............                        .................      ..............                   .................      ..............                  ................     ............ ........                     ",
"                     ........................................                  ......... ...............................                          ....................................                    ....................................                   ...............................  ........                     ",
"                     ......................................                    .........  .............................                            ...................................                     ...................................                    .............................   ........                     ",
"                     .....................................                     .........    ..........................                               .................................                       .................................                     ...........................    ........                     ",
"                     ...................................                       .........     ........................                                 ................................                        ................................                      ........................      ........                     ",
"                       ...............................                         .........      .....................                                     ............................                            ............................                          .....................        .......                     ",
"                          ..........................                           .........        .................                                          .....................                                   .....................                                .................          .......                     ",
"                                ...............                                .........            ..........                                                 .............                                           .............                                        ..........                                         ",
"                                                                               .........                                                                                                                                                                                                                                       ",
"                                                                               .........                                                                                                                                                                                                                                       ",
"                                                                               .........                                                                                                                                                                                                                                       ",
"                                                                               .........                                                                                                                                                                                                                                       ",
"                                                                               .........                                                                                                                                                                                                                                       ",
"                                                                               .........                                                                                                                                                                                                                                       ",
"                                                                               .........                                                                                                                                                                                                                                       ",
"                                                                               .........                                                                                                                                                                                                                                       ",
"                                                                               .........                                                                                                                                                                                                                                       ",
"                                                                               .........                                                                                                                                                                                                                                       ",
"                                                                               .........                                                                                                                                                                                                                                       ",
"                                                                               .........                                                                                                                                                                                                                                       ",
"                                                                               .........                                                                                                                                                                                                                                       ",
"                                                                               .........                                                                                                                                                                                                                                       ",
"                                                                               .........                                                                                                                                                                                                                                       ",
"                                                                               .........                                                                                                                                                                                                                                       ",
"                                                                               .........                                                                                                                                                                                                                                       ",
"                                                                               .........                                                                                                                                                                                                                                       ",
"                                                                               .........                                                                                                                                                                                                                                       ",
"                                                                               .........                                                                                                                                                                                                                                       ",
"                                                                               .........                                                                                                                                                                                                                                       ",
"                                                                               .........                                                                                                                                                                                                                                       ",
"                                                                               .........                                                                                                                                                                                                                                       ",
"                                                                                                                                                                                                                                                                                                                               ",
"                                                                                                                                                                                                                                                                                                                               ",
"                                                                                                                                                                                                                                                                                                                               ",
"                                                                                                                                                                                                                                                                                                                               ",
"                                                                                                                                                                                                                                                                                                                               ",
"                                                                                                                                                                                                                                                                                                                               ",
"                                                                                                                                                                                                                                                                                                                               ",
"                                                                                                                                                                                                                                                                                                                               ",
"                                                                                                                                                                                                                                                                                                                               ",
"                                                                                                                                                                                                                                                                                                                               ",
"                                                                                                                                                                                                                                                                                                                               ",
"                                                                                                                                                                                                                                                                                                                               ",
"                                                                                                                                                                                                                                                                                                                               ",
"                                                                                                                                                                                                                                                                                                                               ",
"                                                                                                                                                                                                                                                                                                                               ",
"                                                                                                                                                                                                                                                                                                                               ",
"                                                                                                                                                                                                                                                                                                                               ",
"                                                                                                                                                                                                                                                                                                                               ",
"                                                                                                                                                                                                                                                                                                                               ",
"                                                                                                                                                                                                                                                                                                                               ",
"                                                                                                                                                                                                                                                                                                                               ",
"                                                                                                                                                                                                                                                                                                                               ",
"                                                                                                                                                                                                                                                                                                                               ",
"                                                                                                                                                                                                                                                                                                                               "};
